P3
400 225
255
172 197 0
173 197 0
174 198 0
176 198 0
175 198 0
175 198 0
174 198 0
173 197 0
175 198 0
173 197 0
175 198 0
175 198 0
174 197 0
174 198 0
173 197 0
174 198 0
176 199 0
173 197 0
173 197 0
174 198 0
175 198 0
172 197 0
173 197 0
175 198 0
175 198 0
174 197 0
174 198 0
174 198 0
174 198 0
175 198 0
174 197 0
173 197 0
175 198 0
174 198 0
172 196 0
175 198 0
174 198 0
172 197 0
173 197 0
177 199 0
174 198 0
174 198 0
175 198 0
175 198 0
173 197 0
174 198 0
174 197 0
173 197 0
175 198 0
174 197 0
174 198 0
174 197 0
172 197 0
177 199 0
172 197 0
175 198 0
175 198 0
174 198 0
175 198 0
175 198 0
175 198 0
177 199 0
175 198 0
175 198 0
176 199 0
175 198 0
174 198 0
177 199 0
176 199 0
176 199 0
174 197 0
175 198 0
177 199 0
173 197 0
176 199 0
175 198 0
175 198 0
172 197 0
174 197 0
174 198 0
174 198 0
174 198 0
174 197 0
174 198 0
176 198 0
173 197 0
173 197 0
173 197 0
172 196 0
175 198 0
176 199 0
175 198 0
174 198 0
175 198 0
177 199 0
177 199 0
174 197 0
174 198 0
175 198 0
175 198 0
175 198 0
175 198 0
174 197 0
174 198 0
174 197 0
173 197 0
175 198 0
175 198 0
174 197 0
172 197 0
173 197 0
173 197 0
173 197 0
174 198 0
173 197 0
175 198 0
175 198 0
174 197 0
174 198 0
175 198 0
175 198 0
173 197 0
172 196 0
173 197 0
173 197 0
174 197 0
176 199 0
173 197 0
176 199 0
176 199 0
176 199 0
174 197 0
172 195 0
174 198 0
175 197 0
176 199 0
174 197 0
174 197 0
173 197 0
174 197 0
174 198 0
176 199 0
175 198 0
174 198 0
175 198 0
173 197 0
175 198 0
174 198 0
176 199 0
173 197 0
174 198 0
175 198 0
175 198 0
175 198 0
175 198 0
175 198 0
174 198 0
172 197 0
173 197 0
175 198 0
175 198 0
175 198 0
175 198 0
175 198 0
175 198 0
173 197 0
173 197 0
174 198 0
173 197 0
174 198 0
175 198 0
175 198 0
174 198 0
175 198 0
176 199 0
174 198 0
171 196 0
175 198 0
175 198 0
174 198 0
174 198 0
175 198 0
173 197 0
174 198 0
176 199 0
175 198 0
174 197 0
172 196 0
173 197 0
175 198 0
176 198 0
176 199 0
175 198 0
176 199 0
176 199 0
174 198 0
175 198 0
175 198 0
176 198 0
176 199 0
177 199 0
174 198 0
175 198 0
177 199 0
174 197 0
173 197 0
173 197 0
172 196 0
176 199 0
177 199 0
176 198 0
175 198 0
174 197 0
175 198 0
176 198 0
174 197 0
174 197 0
176 198 0
172 196 0
174 198 0
175 198 0
175 198 0
174 198 0
174 198 0
176 199 0
175 198 0
175 198 0
174 197 0
173 197 0
174 198 0
174 198 0
174 198 0
174 197 0
175 198 0
176 199 0
176 198 0
174 198 0
176 198 0
175 198 0
174 198 0
173 197 0
176 199 0
174 198 0
176 199 0
175 198 0
175 198 0
176 199 0
175 198 0
173 197 0
173 197 0
175 198 0
175 198 0
174 198 0
173 197 0
172 196 0
174 198 0
172 196 0
173 197 0
175 198 0
174 197 0
174 198 0
174 198 0
173 197 0
176 199 0
175 198 0
175 198 0
173 197 0
174 198 0
175 198 0
173 197 0
177 199 0
174 198 0
177 198 0
173 197 0
175 198 0
173 197 0
173 197 0
174 197 0
174 198 0
175 198 0
174 197 0
175 198 0
173 197 0
175 198 0
176 199 0
175 198 0
175 198 0
175 198 0
174 198 0
175 198 0
175 198 0
174 197 0
176 198 0
172 197 0
175 198 0
177 199 0
172 196 0
175 198 0
173 197 0
173 197 0
177 199 0
175 198 0
173 197 0
174 197 0
176 199 0
175 198 0
174 198 0
174 198 0
173 197 0
174 197 0
172 197 0
176 199 0
175 198 0
173 197 0
173 197 0
174 198 0
173 197 0
174 198 0
173 197 0
173 197 0
174 198 0
174 198 0
176 199 0
175 198 0
174 198 0
173 197 0
175 198 0
173 197 0
173 197 0
176 199 0
176 198 0
174 198 0
175 198 0
176 199 0
173 197 0
175 198 0
177 199 0
173 197 0
177 199 0
175 198 0
173 197 0
175 198 0
175 198 0
175 198 0
174 198 0
175 198 0
174 198 0
175 197 0
174 198 0
176 199 0
175 198 0
175 198 0
176 198 0
175 198 0
174 198 0
175 198 0
173 197 0
174 198 0
176 199 0
174 198 0
175 198 0
176 199 0
174 198 0
174 198 0
173 197 0
173 197 0
173 197 0
175 198 0
173 197 0
175 198 0
177 199 0
176 199 0
174 198 0
174 198 0
176 199 0
177 199 0
175 197 0
174 197 0
174 197 0
173 197 0
175 198 0
175 198 0
173 197 0
173 197 0
176 198 0
175 198 0
175 198 0
175 198 0
175 198 0
175 198 0
174 198 0
172 197 0
175 198 0
173 197 0
174 197 0
175 198 0
173 197 0
173 197 0
173 197 0
174 198 0
175 198 0
174 197 0
174 198 0
174 197 0
174 197 0
175 198 0
175 198 0
176 199 0
175 198 0
175 198 0
176 199 0
176 199 0
175 198 0
175 198 0
174 198 0
174 197 0
174 198 0
174 198 0
175 198 0
176 198 0
173 197 0
176 199 0
175 198 0
177 199 0
173 197 0
177 199 0
176 199 0
175 198 0
172 196 0
174 198 0
175 198 0
173 197 0
174 198 0
176 199 0
174 197 0
174 198 0
175 198 0
174 198 0
173 197 0
175 198 0
174 197 0
175 198 0
176 198 0
174 198 0
173 197 0
177 199 0
174 198 0
175 198 0
175 198 0
173 197 0
173 197 0
176 198 0
174 198 0
173 197 0
174 198 0
175 198 0
174 198 0
174 198 0
173 197 0
175 198 0
173 197 0
176 199 0
174 198 0
177 199 0
172 197 0
175 198 0
175 198 0
175 198 0
175 198 0
173 197 0
174 197 0
175 198 0
173 197 0
177 199 0
173 197 0
176 199 0
174 197 0
175 198 0
172 197 0
177 199 0
176 199 0
175 198 0
174 198 0
175 198 0
173 197 0
174 198 0
172 197 0
174 198 0
173 197 0
177 199 0
174 198 0
174 198 0
173 197 0
174 198 0
174 198 0
175 198 0
174 198 0
174 198 0
174 197 0
172 197 0
174 198 0
174 198 0
173 197 0
175 198 0
175 198 0
172 196 0
174 197 0
175 198 0
175 198 0
176 199 0
173 197 0
174 198 0
173 197 0
174 198 0
174 198 0
176 198 0
177 199 0
176 199 0
176 198 0
173 197 0
176 199 0
176 198 0
175 198 0
175 198 0
175 198 0
173 197 0
173 196 0
176 199 0
174 197 0
174 197 0
175 198 0
175 198 0
174 198 0
175 198 0
175 198 0
176 199 0
174 198 0
172 197 0
175 198 0
174 198 0
174 197 0
176 198 0
176 198 0
174 198 0
177 199 0
173 197 0
175 198 0
175 198 0
173 197 0
177 199 0
173 197 0
171 196 0
175 198 0
174 197 0
172 197 0
174 198 0
173 197 0
175 198 0
175 198 0
173 197 0
177 199 0
172 197 0
173 197 0
175 198 0
176 199 0
175 198 0
175 198 0
172 197 0
175 198 0
176 199 0
175 198 0
174 198 0
175 198 0
173 197 0
176 199 0
174 198 0
174 198 0
175 198 0
174 198 0
176 199 0
175 198 0
173 197 0
174 197 0
176 199 0
174 198 0
175 198 0
174 197 0
175 198 0
173 197 0
172 197 0
175 198 0
173 197 0
176 199 0
175 198 0
176 199 0
175 198 0
174 197 0
172 196 0
175 198 0
175 198 0
173 197 0
172 197 0
175 198 0
176 199 0
174 198 0
176 199 0
175 198 0
177 199 0
174 198 0
176 199 0
172 197 0
172 197 0
176 198 0
173 197 0
175 198 0
174 198 0
174 198 0
174 197 0
174 198 0
175 198 0
175 198 0
173 197 0
173 197 0
173 197 0
175 198 0
174 198 0
176 199 0
174 198 0
173 197 0
174 198 0
175 198 0
175 198 0
175 198 0
173 197 0
175 198 0
173 197 0
174 198 0
175 198 0
175 198 0
176 199 0
174 198 0
174 197 0
176 199 0
171 196 0
175 198 0
174 198 0
176 198 0
176 198 0
173 197 0
176 199 0
173 197 0
174 198 0
174 198 0
174 198 0
174 198 0
175 198 0
174 198 0
175 198 0
177 199 0
173 197 0
174 197 0
177 199 0
174 198 0
174 198 0
175 198 0
173 197 0
175 198 0
175 198 0
176 199 0
175 198 0
173 197 0
175 198 0
174 197 0
175 198 0
175 198 0
175 198 0
176 199 0
174 197 0
177 199 0
173 196 0
174 198 0
175 198 0
174 197 0
172 197 0
174 198 0
173 197 0
175 198 0
173 197 0
172 197 0
175 198 0
174 197 0
176 199 0
179 200 0
173 197 0
173 197 0
176 199 0
175 198 0
173 197 0
175 198 0
172 197 0
173 197 0
175 198 0
172 195 0
175 198 0
175 198 0
174 198 0
177 199 0
176 199 0
171 196 0
174 198 0
174 198 0
175 198 0
175 198 0
173 197 0
174 198 0
172 196 0
176 199 0
175 198 0
174 197 0
175 198 0
174 197 0
174 198 0
175 198 0
175 198 0
173 197 0
177 199 0
174 198 0
175 198 0
175 198 0
175 198 0
174 198 0
173 197 0
174 197 0
173 197 0
172 197 0
175 198 0
174 198 0
174 198 0
173 197 0
174 197 0
174 197 0
176 198 0
175 198 0
174 197 0
175 198 0
173 197 0
174 197 0
173 197 0
173 197 0
176 198 0
176 199 0
175 198 0
174 198 0
175 198 0
175 198 0
175 198 0
176 199 0
173 197 0
174 198 0
176 199 0
175 198 0
177 199 0
176 198 0
174 197 0
175 198 0
175 198 0
174 198 0
176 199 0
173 197 0
175 198 0
175 198 0
173 197 0
174 198 0
174 197 0
175 198 0
176 199 0
175 198 0
177 199 0
176 199 0
173 197 0
177 199 0
173 197 0
172 197 0
174 197 0
175 198 0
173 197 0
173 197 0
176 199 0
175 198 0
174 197 0
174 197 0
174 198 0
176 199 0
174 198 0
174 198 0
174 198 0
175 198 0
176 199 0
174 197 0
175 198 0
174 198 0
176 199 0
176 199 0
175 198 0
174 197 0
175 198 0
175 198 0
174 198 0
173 197 0
173 197 0
176 198 0
174 198 0
173 197 0
174 198 0
173 197 0
173 197 0
175 198 0
173 197 0
174 198 0
174 197 0
177 199 0
176 199 0
175 198 0
172 197 0
173 197 0
174 198 0
177 199 0
172 197 0
175 198 0
175 198 0
173 197 0
173 197 0
176 199 0
176 199 0
173 197 0
172 197 0
175 198 0
174 198 0
174 197 0
172 197 0
175 198 0
175 198 0
175 198 0
176 198 0
176 199 0
176 199 0
174 197 0
174 198 0
175 198 0
175 198 0
175 198 0
173 197 0
174 198 0
173 197 0
174 198 0
173 197 0
175 198 0
175 198 0
174 197 0
174 198 0
175 198 0
175 198 0
175 198 0
173 197 0
174 198 0
175 198 0
174 198 0
175 198 0
175 198 0
176 199 0
176 198 0
172 197 0
175 198 0
174 198 0
176 199 0
176 198 0
176 198 0
174 198 0
176 199 0
175 198 0
174 198 0
175 198 0
176 199 0
174 198 0
174 198 0
174 198 0
175 198 0
175 198 0
173 197 0
175 198 0
176 199 0
175 198 0
174 197 0
175 198 0
175 198 0
174 197 0
173 197 0
176 199 0
175 198 0
175 198 0
175 198 0
173 197 0
175 198 0
176 199 0
173 197 0
175 198 0
172 197 0
172 197 0
173 197 0
175 198 0
174 198 0
174 197 0
175 198 0
173 197 0
174 198 0
176 199 0
173 197 0
174 198 0
174 198 0
175 198 0
176 199 0
174 198 0
173 197 0
175 198 0
175 198 0
172 196 0
174 198 0
173 197 0
174 198 0
175 198 0
175 198 0
175 198 0
176 198 0
173 197 0
174 198 0
176 198 0
174 198 0
174 198 0
176 199 0
171 196 0
175 198 0
173 197 0
174 197 0
176 199 0
175 198 0
176 199 0
172 196 0
174 198 0
172 197 0
172 197 0
176 199 0
175 198 0
175 198 0
172 196 0
176 199 0
175 198 0
173 197 0
175 198 0
177 199 0
174 198 0
176 198 0
175 198 0
176 199 0
174 198 0
175 198 0
174 198 0
176 199 0
174 197 0
175 198 0
174 197 0
176 199 0
175 198 0
174 198 0
175 198 0
174 197 0
172 197 0
174 198 0
175 198 0
176 198 0
174 197 0
172 196 0
175 198 0
175 198 0
173 197 0
174 198 0
175 198 0
175 198 0
176 198 0
176 199 0
176 199 0
177 199 0
173 197 0
176 198 0
174 197 0
173 197 0
176 199 0
173 197 0
174 197 0
175 198 0
174 198 0
176 199 0
174 198 0
175 198 0
174 197 0
176 198 0
173 197 0
173 197 0
173 197 0
176 198 0
173 197 0
176 199 0
174 198 0
173 197 0
176 199 0
176 199 0
174 197 0
173 197 0
174 198 0
174 198 0
173 197 0
177 199 0
173 197 0
176 198 0
175 198 0
173 197 0
176 199 0
173 197 0
175 198 0
176 199 0
171 195 0
173 197 0
176 199 0
174 198 0
177 199 0
174 198 0
173 197 0
177 199 0
174 198 0
175 198 0
173 197 0
175 198 0
173 197 0
173 197 0
175 198 0
175 198 0
175 198 0
173 197 0
174 197 0
172 197 0
173 197 0
175 198 0
174 198 0
173 197 0
174 198 0
175 198 0
174 197 0
173 197 0
175 198 0
174 197 0
173 197 0
174 198 0
175 198 0
174 198 0
173 197 0
174 197 0
175 198 0
175 198 0
176 199 0
175 198 0
175 198 0
177 198 0
172 197 0
173 197 0
175 198 0
173 197 0
175 198 0
176 199 0
172 197 0
173 197 0
175 198 0
175 198 0
173 197 0
176 199 0
177 199 0
176 199 0
175 198 0
174 198 0
174 198 0
174 198 0
175 198 0
176 199 0
174 197 0
176 199 0
174 198 0
175 198 0
176 198 0
175 198 0
174 197 0
175 198 0
175 198 0
174 197 0
173 197 0
174 197 0
176 199 0
174 198 0
175 198 0
172 197 0
175 198 0
176 199 0
175 198 0
174 197 0
174 198 0
174 197 0
175 198 0
176 198 0
172 197 0
176 198 0
174 198 0
177 199 0
173 197 0
175 198 0
174 197 0
175 198 0
175 198 0
172 196 0
174 197 0
173 197 0
175 198 0
175 198 0
175 198 0
172 197 0
174 198 0
176 199 0
177 199 0
172 197 0
174 198 0
175 198 0
174 198 0
175 198 0
173 197 0
175 198 0
175 198 0
176 198 0
175 198 0
173 197 0
176 199 0
173 197 0
174 198 0
173 197 0
175 198 0
176 198 0
175 198 0
174 198 0
174 197 0
174 197 0
174 197 0
175 198 0
174 198 0
176 198 0
176 198 0
174 198 0
175 198 0
174 198 0
174 198 0
174 198 0
174 198 0
174 198 0
174 198 0
175 198 0
176 199 0
175 198 0
173 197 0
174 197 0
175 198 0
175 198 0
176 199 0
173 197 0
174 198 0
173 197 0
176 198 0
174 198 0
174 197 0
173 197 0
175 198 0
175 198 0
174 198 0
174 198 0
173 197 0
176 198 0
173 197 0
174 197 0
173 197 0
176 198 0
173 197 0
177 199 0
176 198 0
173 197 0
173 197 0
173 197 0
173 197 0
174 198 0
175 198 0
175 198 0
172 196 0
175 198 0
174 198 0
172 197 0
171 196 0
175 198 0
175 198 0
174 198 0
175 198 0
173 197 0
175 198 0
175 198 0
175 198 0
175 198 0
175 198 0
176 199 0
175 198 0
174 198 0
176 199 0
174 197 0
174 198 0
176 198 0
174 198 0
173 197 0
175 198 0
176 198 0
173 197 0
173 197 0
175 198 0
172 197 0
172 197 0
177 199 0
175 198 0
173 197 0
174 197 0
175 198 0
174 197 0
173 197 0
174 198 0
174 197 0
173 197 0
172 197 0
175 198 0
175 198 0
173 197 0
176 199 0
172 196 0
175 198 0
171 196 0
175 198 0
173 197 0
174 198 0
176 198 0
176 199 0
174 198 0
175 198 0
174 197 0
175 198 0
175 198 0
177 199 0
176 199 0
178 199 0
175 198 0
173 197 0
175 198 0
174 197 0
175 198 0
174 197 0
176 199 0
172 197 0
175 198 0
171 196 0
175 198 0
175 198 0
176 199 0
174 197 0
176 199 0
175 198 0
175 198 0
172 197 0
175 198 0
177 199 0
173 197 0
174 198 0
175 198 0
175 198 0
172 196 0
176 199 0
173 197 0
175 198 0
173 197 0
176 198 0
173 197 0
178 200 0
174 198 0
173 197 0
176 198 0
176 199 0
174 198 0
174 198 0
176 199 0
174 198 0
177 199 0
175 198 0
174 198 0
175 198 0
171 196 0
172 197 0
174 198 0
174 198 0
174 197 0
174 198 0
173 197 0
175 198 0
174 198 0
178 200 0
173 197 0
174 197 0
177 199 0
175 198 0
175 198 0
173 197 0
174 198 0
175 198 0
174 198 0
177 199 0
173 197 0
174 198 0
173 197 0
174 197 0
173 197 0
173 197 0
175 198 0
173 197 0
174 197 0
176 199 0
177 199 0
173 197 0
175 198 0
174 198 0
174 197 0
175 198 0
175 198 0
173 197 0
173 197 0
175 198 0
176 199 0
171 196 0
175 198 0
174 198 0
171 196 0
176 199 0
174 198 0
174 198 0
174 197 0
176 199 0
172 197 0
174 197 0
178 200 0
174 197 0
174 198 0
174 198 0
175 198 0
174 198 0
174 198 0
172 196 0
173 197 0
175 198 0
175 198 0
174 198 0
173 197 0
172 197 0
174 198 0
175 198 0
173 196 0
176 199 0
175 198 0
174 198 0
173 197 0
173 197 0
175 198 0
178 200 0
176 199 0
174 198 0
175 198 0
175 198 0
176 199 0
175 198 0
174 198 0
175 198 0
173 197 0
174 197 0
174 198 0
176 199 0
174 198 0
176 199 0
174 198 0
175 198 0
174 197 0
172 197 0
176 198 0
176 199 0
176 199 0
173 197 0
176 198 0
176 198 0
173 197 0
176 199 0
173 197 0
174 198 0
175 198 0
174 198 0
175 198 0
175 198 0
174 198 0
175 198 0
174 198 0
173 196 0
176 198 0
176 199 0
174 198 0
174 198 0
173 197 0
174 197 0
175 198 0
174 197 0
175 198 0
175 198 0
173 197 0
175 198 0
174 198 0
173 197 0
175 198 0
176 199 0
175 198 0
176 198 0
176 198 0
175 198 0
174 198 0
175 198 0
174 198 0
177 199 0
173 197 0
173 197 0
175 198 0
176 198 0
177 199 0
174 198 0
175 198 0
176 199 0
174 198 0
176 199 0
175 198 0
176 199 0
173 197 0
175 198 0
175 198 0
175 198 0
175 198 0
176 198 0
173 197 0
173 197 0
174 198 0
173 197 0
176 199 0
176 198 0
174 198 0
174 197 0
175 198 0
177 199 0
174 197 0
175 198 0
174 198 0
173 197 0
176 199 0
174 198 0
175 198 0
171 196 0
173 197 0
174 198 0
177 199 0
175 198 0
175 198 0
174 198 0
175 198 0
173 197 0
175 198 0
175 198 0
174 198 0
174 197 0
177 199 0
175 198 0
173 196 0
177 199 0
176 198 0
175 198 0
174 198 0
176 199 0
174 198 0
176 199 0
178 200 0
175 198 0
173 197 0
176 199 0
174 198 0
173 197 0
174 198 0
174 198 0
177 199 0
173 197 0
174 198 0
173 197 0
174 198 0
174 197 0
173 197 0
176 198 0
174 198 0
175 198 0
174 198 0
175 198 0
175 198 0
172 197 0
174 198 0
176 199 0
176 198 0
174 197 0
174 198 0
174 198 0
175 198 0
174 198 0
176 198 0
173 197 0
173 197 0
175 198 0
176 198 0
176 199 0
176 199 0
173 197 0
175 198 0
175 198 0
176 199 0
175 198 0
176 199 0
176 199 0
173 197 0
176 199 0
176 198 0
176 199 0
173 197 0
174 198 0
176 199 0
176 199 0
174 198 0
173 197 0
175 198 0
173 197 0
174 198 0
172 197 0
175 198 0
173 197 0
174 197 0
172 197 0
175 198 0
174 198 0
176 199 0
176 199 0
176 199 0
174 198 0
175 198 0
174 198 0
174 197 0
174 198 0
175 198 0
174 198 0
176 199 0
173 197 0
176 199 0
176 199 0
173 197 0
173 197 0
175 198 0
174 197 0
175 198 0
175 198 0
173 197 0
173 197 0
173 197 0
176 199 0
175 198 0
173 197 0
175 198 0
177 199 0
176 198 0
175 198 0
175 198 0
172 196 0
176 199 0
175 198 0
174 198 0
175 198 0
174 198 0
173 197 0
177 199 0
174 197 0
174 198 0
175 198 0
174 198 0
174 197 0
174 198 0
173 197 0
173 197 0
173 197 0
172 197 0
173 197 0
176 199 0
174 198 0
175 198 0
175 198 0
173 197 0
175 198 0
176 198 0
176 199 0
172 197 0
175 198 0
172 197 0
174 197 0
172 196 0
174 198 0
173 197 0
174 198 0
173 197 0
176 198 0
173 197 0
177 199 0
175 198 0
176 198 0
173 197 0
172 197 0
174 198 0
174 198 0
173 197 0
174 197 0
174 198 0
175 198 0
174 198 0
173 197 0
174 197 0
175 198 0
174 198 0
176 198 0
173 197 0
176 199 0
172 197 0
175 198 0
173 197 0
174 198 0
175 198 0
176 199 0
174 198 0
174 198 0
174 198 0
174 197 0
174 198 0
174 198 0
175 198 0
175 198 0
173 196 0
174 198 0
177 199 0
174 198 0
176 199 0
172 196 0
175 198 0
174 198 0
174 198 0
174 198 0
174 198 0
175 198 0
172 196 0
173 197 0
176 199 0
174 198 0
175 198 0
175 198 0
172 197 0
176 198 0
175 198 0
176 199 0
175 198 0
175 198 0
174 198 0
175 198 0
174 197 0
174 197 0
171 196 0
175 198 0
174 197 0
176 199 0
174 198 0
174 197 0
176 198 0
176 199 0
173 197 0
174 198 0
174 198 0
174 197 0
173 197 0
172 196 0
176 198 0
173 197 0
174 198 0
176 199 0
174 197 0
175 198 0
175 198 0
173 197 0
174 198 0
174 198 0
175 198 0
174 198 0
175 198 0
174 198 0
176 199 0
174 198 0
175 198 0
173 196 0
173 197 0
176 199 0
174 198 0
174 197 0
173 197 0
174 197 0
175 198 0
175 198 0
175 198 0
173 197 0
175 198 0
174 197 0
174 198 0
175 198 0
175 198 0
175 198 0
176 199 0
174 197 0
176 199 0
176 199 0
176 199 0
174 197 0
174 197 0
176 198 0
174 198 0
174 198 0
175 198 0
175 198 0
174 198 0
175 198 0
175 198 0
176 198 0
176 199 0
174 198 0
176 199 0
174 198 0
176 199 0
175 198 0
175 198 0
175 198 0
174 198 0
175 198 0
173 197 0
174 198 0
176 198 0
176 199 0
175 198 0
172 197 0
176 198 0
176 199 0
175 198 0
173 197 0
174 198 0
174 198 0
176 198 0
174 198 0
177 199 0
178 200 0
174 198 0
177 199 0
173 197 0
174 198 0
175 198 0
174 197 0
173 197 0
173 197 0
175 198 0
174 198 0
173 197 0
174 197 0
175 198 0
175 198 0
175 198 0
173 197 0
174 198 0
175 198 0
172 197 0
176 199 0
176 199 0
176 198 0
173 197 0
174 198 0
175 198 0
175 198 0
176 199 0
174 197 0
174 198 0
176 198 0
174 198 0
175 198 0
174 198 0
175 198 0
174 197 0
173 197 0
176 199 0
174 198 0
172 197 0
171 196 0
175 198 0
175 198 0
175 198 0
175 198 0
175 198 0
174 197 0
174 197 0
175 198 0
174 197 0
174 197 0
174 197 0
177 199 0
174 197 0
173 197 0
175 198 0
174 198 0
176 199 0
173 197 0
173 197 0
176 199 0
173 197 0
174 198 0
174 197 0
175 198 0
175 198 0
176 198 0
175 198 0
174 198 0
175 198 0
171 196 0
173 197 0
175 198 0
173 197 0
175 198 0
173 197 0
176 198 0
174 198 0
172 197 0
172 196 0
173 196 0
173 197 0
174 198 0
177 199 0
174 197 0
175 198 0
175 198 0
175 198 0
175 198 0
175 198 0
172 197 0
174 198 0
173 197 0
174 198 0
172 197 0
176 199 0
174 198 0
174 197 0
176 199 0
175 198 0
176 199 0
176 199 0
174 198 0
174 198 0
176 199 0
171 196 0
175 198 0
178 200 0
176 199 0
175 198 0
175 198 0
175 198 0
177 199 0
175 198 0
175 198 0
179 200 0
173 197 0
175 198 0
174 198 0
174 198 0
174 198 0
174 197 0
172 197 0
175 198 0
175 198 0
175 198 0
173 197 0
176 199 0
173 197 0
175 198 0
177 199 0
173 197 0
172 196 0
172 195 0
172 197 0
178 200 0
175 198 0
175 198 0
173 197 0
175 198 0
173 197 0
174 197 0
174 198 0
174 197 0
174 198 0
174 197 0
177 199 0
176 199 0
175 198 0
176 199 0
175 198 0
174 198 0
174 198 0
178 200 0
175 198 0
174 198 0
174 198 0
176 198 0
176 199 0
172 197 0
174 198 0
173 197 0
176 199 0
173 197 0
177 199 0
174 197 0
175 198 0
176 199 0
176 198 0
174 198 0
174 197 0
175 198 0
174 197 0
172 197 0
175 198 0
175 198 0
176 199 0
174 198 0
175 198 0
175 198 0
175 198 0
174 198 0
177 199 0
173 197 0
173 197 0
175 198 0
177 199 0
174 198 0
176 198 0
174 198 0
175 198 0
172 196 0
175 198 0
175 198 0
174 198 0
175 198 0
173 197 0
174 197 0
175 198 0
174 197 0
173 197 0
172 196 0
173 197 0
172 197 0
174 198 0
174 198 0
174 198 0
173 197 0
174 198 0
177 199 0
174 198 0
174 197 0
174 197 0
172 197 0
175 198 0
174 197 0
173 197 0
172 197 0
174 198 0
176 199 0
173 197 0
176 199 0
175 198 0
177 199 0
173 197 0
174 197 0
175 198 0
173 197 0
173 197 0
177 199 0
173 197 0
173 197 0
176 199 0
173 197 0
172 196 0
178 200 0
174 197 0
175 198 0
174 198 0
174 198 0
175 198 0
174 198 0
174 197 0
175 198 0
176 198 0
175 198 0
178 200 0
173 197 0
175 198 0
174 198 0
173 197 0
174 198 0
172 196 0
176 199 0
174 198 0
177 199 0
174 197 0
174 198 0
174 197 0
177 199 0
174 198 0
174 198 0
172 197 0
173 197 0
174 198 0
172 197 0
177 199 0
174 197 0
174 198 0
175 198 0
175 198 0
173 197 0
176 199 0
174 198 0
174 198 0
176 199 0
173 197 0
176 198 0
174 198 0
173 197 0
173 197 0
176 198 0
173 197 0
172 197 0
175 198 0
176 199 0
174 197 0
175 198 0
174 198 0
176 198 0
176 199 0
176 199 0
173 197 0
174 198 0
176 198 0
175 198 0
174 197 0
176 199 0
175 198 0
176 198 0
173 197 0
176 199 0
174 198 0
174 197 0
173 197 0
175 198 0
175 198 0
175 198 0
174 197 0
171 196 0
174 198 0
174 198 0
174 198 0
174 198 0
175 198 0
174 197 0
175 198 0
172 197 0
172 196 0
174 197 0
174 197 0
175 198 0
174 197 0
175 198 0
176 198 0
176 198 0
173 197 0
176 199 0
176 198 0
173 197 0
173 197 0
176 199 0
174 197 0
174 198 0
175 198 0
175 198 0
174 198 0
175 198 0
176 199 0
175 198 0
173 197 0
174 198 0
174 197 0
172 197 0
174 198 0
173 197 0
172 197 0
175 198 0
173 197 0
175 198 0
175 198 0
176 199 0
175 198 0
173 197 0
174 197 0
174 198 0
172 196 0
176 198 0
174 197 0
174 198 0
176 199 0
174 197 0
174 198 0
177 199 0
176 198 0
174 197 0
175 198 0
175 198 0
174 198 0
172 197 0
175 198 0
174 198 0
174 197 0
175 198 0
174 198 0
174 198 0
174 197 0
174 198 0
176 199 0
174 198 0
176 199 0
174 197 0
176 199 0
175 198 0
177 199 0
176 199 0
175 198 0
173 197 0
174 198 0
173 197 0
173 197 0
173 197 0
174 197 0
175 198 0
172 197 0
175 198 0
175 198 0
175 198 0
173 197 0
173 197 0
172 197 0
174 198 0
175 198 0
175 198 0
176 199 0
175 198 0
172 197 0
173 197 0
172 197 0
175 198 0
175 198 0
173 197 0
174 198 0
175 198 0
173 197 0
175 198 0
175 198 0
174 198 0
174 197 0
174 197 0
176 199 0
172 197 0
174 197 0
175 198 0
174 197 0
175 198 0
177 199 0
174 198 0
173 197 0
175 198 0
172 197 0
171 196 0
175 198 0
172 197 0
173 197 0
176 199 0
176 198 0
175 198 0
171 195 0
175 198 0
174 198 0
176 199 0
173 197 0
176 198 0
175 198 0
172 197 0
173 197 0
174 198 0
174 198 0
175 198 0
175 198 0
174 198 0
173 197 0
173 197 0
174 198 0
174 198 0
174 198 0
174 198 0
176 199 0
176 198 0
173 197 0
175 198 0
172 196 0
174 198 0
175 198 0
173 197 0
172 197 0
175 198 0
174 197 0
175 198 0
173 197 0
173 197 0
177 199 0
173 197 0
173 197 0
174 197 0
174 198 0
175 198 0
175 198 0
174 197 0
176 199 0
176 198 0
174 198 0
172 197 0
174 197 0
173 197 0
174 198 0
173 197 0
176 199 0
170 196 0
176 198 0
176 198 0
173 197 0
174 198 0
176 199 0
175 198 0
173 197 0
175 198 0
175 198 0
175 198 0
175 198 0
175 198 0
174 197 0
176 199 0
173 197 0
173 197 0
173 197 0
173 197 0
172 197 0
173 197 0
175 198 0
177 199 0
175 198 0
173 197 0
176 199 0
174 198 0
175 198 0
176 199 0
175 198 0
174 198 0
175 198 0
173 197 0
175 198 0
174 197 0
175 198 0
173 197 0
176 199 0
175 198 0
173 197 0
174 198 0
175 198 0
174 198 0
174 198 0
175 198 0
174 197 0
174 197 0
175 198 0
173 197 0
176 199 0
176 199 0
175 198 0
176 199 0
175 198 0
175 198 0
176 198 0
174 197 0
175 198 0
176 198 0
175 198 0
173 197 0
173 197 0
175 198 0
176 198 0
173 197 0
174 198 0
172 196 0
174 197 0
175 198 0
176 199 0
172 197 0
176 199 0
174 198 0
175 198 0
173 197 0
175 198 0
174 198 0
177 199 0
175 198 0
174 198 0
172 197 0
177 199 0
175 198 0
175 198 0
176 199 0
173 197 0
175 198 0
174 198 0
175 198 0
173 197 0
177 199 0
175 198 0
174 198 0
175 198 0
175 198 0
175 198 0
175 198 0
175 198 0
173 197 0
176 199 0
176 199 0
175 198 0
176 199 0
174 198 0
173 197 0
174 198 0
176 199 0
175 198 0
172 196 0
176 199 0
176 199 0
174 197 0
175 198 0
174 197 0
174 197 0
173 197 0
173 197 0
175 198 0
175 198 0
173 197 0
175 198 0
178 200 0
177 199 0
176 199 0
175 198 0
173 197 0
174 198 0
175 198 0
174 197 0
175 198 0
174 198 0
174 198 0
175 198 0
173 197 0
174 198 0
175 198 0
174 198 0
175 198 0
172 197 0
176 199 0
171 196 0
173 197 0
173 197 0
176 199 0
175 198 0
175 198 0
174 197 0
175 198 0
172 196 0
173 197 0
174 198 0
173 197 0
176 198 0
173 197 0
177 199 0
174 197 0
174 198 0
173 197 0
175 198 0
174 198 0
177 199 0
175 198 0
175 198 0
176 199 0
174 198 0
175 198 0
174 198 0
176 199 0
176 198 0
175 198 0
175 198 0
174 197 0
174 198 0
174 198 0
175 198 0
175 198 0
175 198 0
174 198 0
173 197 0
175 198 0
174 197 0
175 198 0
173 197 0
175 198 0
175 198 0
174 198 0
175 198 0
177 199 0
175 198 0
173 197 0
175 198 0
173 197 0
173 197 0
176 198 0
173 197 0
173 197 0
174 198 0
174 198 0
174 198 0
174 197 0
174 198 0
171 196 0
176 199 0
173 197 0
175 198 0
176 199 0
174 197 0
174 198 0
175 198 0
174 198 0
176 198 0
174 197 0
173 197 0
174 198 0
176 199 0
174 198 0
176 198 0
175 198 0
175 198 0
177 199 0
175 198 0
174 197 0
177 199 0
174 198 0
175 198 0
174 198 0
175 198 0
173 197 0
175 198 0
177 199 0
174 198 0
176 199 0
174 198 0
174 198 0
175 198 0
175 198 0
175 198 0
173 197 0
176 199 0
175 198 0
174 197 0
177 199 0
172 197 0
175 198 0
173 197 0
173 197 0
174 197 0
175 198 0
174 198 0
174 198 0
174 197 0
175 198 0
175 198 0
176 198 0
173 197 0
177 199 0
174 198 0
175 198 0
173 197 0
173 197 0
173 197 0
177 199 0
175 198 0
175 198 0
174 198 0
175 198 0
175 198 0
176 199 0
176 198 0
174 197 0
176 199 0
176 199 0
174 198 0
175 198 0
175 198 0
175 198 0
176 199 0
175 198 0
175 198 0
172 196 0
176 199 0
175 198 0
174 198 0
172 196 0
176 199 0
174 197 0
176 199 0
171 196 0
174 197 0
175 198 0
176 199 0
174 198 0
176 199 0
173 197 0
173 197 0
174 197 0
174 198 0
173 197 0
173 196 0
173 197 0
175 198 0
174 198 0
176 199 0
175 198 0
174 198 0
173 197 0
175 198 0
173 197 0
174 198 0
174 198 0
175 198 0
174 198 0
175 198 0
174 198 0
175 198 0
175 198 0
172 197 0
171 195 0
176 198 0
174 198 0
173 197 0
176 199 0
174 198 0
175 198 0
173 197 0
174 198 0
172 196 0
175 198 0
175 198 0
174 197 0
173 197 0
177 199 0
174 198 0
171 196 0
176 199 0
173 197 0
174 198 0
176 199 0
174 197 0
173 197 0
174 197 0
174 198 0
175 198 0
176 199 0
175 198 0
173 197 0
175 198 0
175 198 0
176 198 0
174 198 0
173 196 0
174 198 0
177 199 0
176 199 0
174 197 0
174 198 0
173 197 0
176 199 0
175 198 0
175 198 0
175 198 0
175 198 0
173 197 0
173 197 0
174 198 0
176 198 0
174 197 0
173 197 0
175 198 0
172 196 0
174 198 0
175 198 0
173 197 0
174 197 0
175 198 0
175 198 0
176 198 0
175 198 0
173 197 0
174 198 0
173 197 0
175 198 0
175 198 0
176 199 0
176 199 0
173 197 0
175 198 0
175 198 0
175 198 0
173 197 0
174 198 0
174 198 0
172 197 0
174 197 0
173 197 0
175 198 0
175 198 0
172 197 0
175 198 0
176 199 0
176 199 0
173 197 0
175 198 0
174 198 0
176 199 0
174 197 0
173 197 0
176 198 0
174 198 0
173 197 0
173 197 0
174 198 0
176 199 0
174 197 0
176 198 0
174 198 0
174 198 0
175 198 0
174 198 0
175 198 0
174 198 0
173 197 0
172 197 0
173 197 0
175 198 0
175 198 0
175 198 0
175 198 0
175 198 0
176 199 0
173 197 0
174 198 0
174 198 0
176 199 0
174 198 0
173 197 0
174 198 0
175 198 0
175 198 0
175 198 0
174 198 0
174 198 0
174 197 0
176 199 0
174 197 0
175 198 0
175 198 0
174 197 0
174 198 0
174 198 0
174 198 0
174 198 0
174 198 0
175 198 0
174 198 0
173 197 0
174 198 0
175 198 0
173 197 0
174 198 0
170 195 0
175 198 0
175 198 0
174 198 0
177 199 0
173 197 0
174 198 0
174 198 0
173 197 0
174 198 0
175 198 0
173 197 0
174 198 0
174 198 0
176 199 0
173 197 0
174 198 0
173 197 0
174 198 0
174 198 0
175 198 0
173 197 0
176 199 0
172 197 0
173 197 0
174 198 0
173 197 0
175 198 0
173 197 0
175 198 0
173 197 0
174 198 0
174 198 0
175 198 0
177 199 0
175 198 0
176 198 0
174 198 0
176 198 0
174 198 0
176 199 0
174 197 0
174 198 0
175 198 0
175 198 0
174 197 0
174 198 0
175 198 0
173 197 0
175 198 0
174 197 0
173 197 0
176 199 0
171 196 0
175 198 0
175 198 0
173 197 0
171 196 0
175 198 0
175 198 0
176 199 0
174 198 0
175 198 0
175 198 0
176 198 0
175 198 0
176 199 0
176 199 0
177 199 0
176 199 0
177 199 0
173 197 0
177 199 0
176 199 0
174 197 0
174 197 0
175 198 0
176 199 0
175 198 0
175 198 0
176 199 0
174 198 0
174 198 0
175 198 0
175 198 0
174 198 0
174 198 0
172 197 0
176 198 0
173 197 0
175 198 0
176 199 0
175 198 0
175 198 0
175 198 0
175 198 0
173 197 0
175 198 0
175 198 0
176 198 0
176 198 0
174 197 0
177 199 0
174 198 0
174 198 0
175 198 0
173 197 0
175 198 0
174 198 0
174 198 0
171 196 0
174 198 0
175 198 0
175 198 0
175 198 0
174 198 0
175 198 0
173 197 0
174 197 0
174 197 0
174 197 0
177 199 0
175 198 0
174 198 0
174 198 0
176 198 0
174 198 0
175 198 0
176 198 0
172 197 0
174 198 0
174 198 0
174 197 0
175 198 0
174 198 0
174 198 0
176 198 0
174 198 0
176 199 0
173 197 0
176 199 0
174 198 0
171 196 0
175 198 0
175 198 0
173 197 0
173 197 0
174 198 0
174 198 0
173 197 0
174 197 0
172 196 0
176 199 0
174 198 0
175 198 0
176 198 0
174 198 0
176 199 0
174 198 0
175 198 0
173 197 0
175 198 0
174 197 0
175 198 0
176 199 0
174 198 0
173 197 0
177 199 0
173 197 0
174 198 0
174 197 0
172 197 0
176 199 0
173 197 0
176 198 0
172 197 0
176 199 0
176 198 0
176 199 0
174 197 0
174 198 0
174 198 0
178 199 0
173 197 0
174 198 0
176 198 0
175 198 0
175 198 0
174 198 0
174 198 0
173 197 0
173 197 0
177 199 0
177 199 0
174 198 0
175 198 0
171 196 0
175 198 0
174 198 0
174 197 0
173 197 0
174 198 0
174 198 0
176 199 0
173 197 0
175 198 0
174 198 0
177 199 0
176 198 0
173 197 0
173 197 0
175 198 0
175 198 0
175 198 0
174 198 0
173 197 0
174 198 0
175 198 0
172 196 0
176 198 0
175 198 0
172 197 0
172 196 0
174 197 0
175 198 0
172 197 0
176 198 0
172 196 0
175 198 0
174 197 0
175 198 0
173 197 0
175 198 0
175 198 0
176 199 0
173 197 0
174 198 0
176 199 0
173 197 0
174 197 0
176 198 0
176 199 0
174 198 0
177 199 0
175 198 0
176 199 0
175 198 0
173 197 0
174 197 0
175 198 0
173 197 0
174 198 0
173 197 0
173 197 0
172 197 0
176 199 0
175 198 0
171 196 0
175 198 0
174 197 0
174 197 0
172 197 0
174 198 0
172 196 0
174 197 0
178 200 0
173 197 0
174 198 0
173 197 0
176 199 0
176 198 0
175 198 0
173 197 0
174 198 0
174 198 0
174 198 0
173 196 0
175 198 0
174 197 0
175 198 0
174 197 0
175 198 0
173 197 0
173 197 0
175 198 0
175 197 0
173 197 0
176 198 0
174 197 0
174 198 0
174 198 0
175 198 0
173 197 0
171 196 0
174 197 0
173 197 0
173 196 0
177 199 0
176 198 0
173 197 0
176 199 0
175 198 0
174 198 0
176 199 0
173 197 0
174 198 0
176 199 0
174 198 0
175 198 0
176 198 0
175 198 0
172 197 0
173 197 0
173 197 0
172 196 0
176 198 0
174 198 0
176 198 0
174 198 0
172 197 0
172 196 0
174 197 0
175 198 0
175 198 0
173 197 0
174 198 0
173 196 0
175 198 0
175 198 0
175 198 0
174 197 0
173 197 0
174 198 0
174 197 0
173 197 0
173 197 0
175 198 0
174 198 0
175 198 0
175 198 0
176 199 0
176 199 0
172 197 0
175 198 0
173 197 0
173 197 0
174 198 0
177 199 0
172 196 0
175 198 0
173 197 0
174 197 0
175 198 0
175 198 0
172 196 0
175 198 0
176 198 0
174 198 0
175 198 0
176 199 0
174 197 0
174 197 0
175 198 0
174 198 0
173 197 0
175 198 0
174 198 0
173 197 0
175 198 0
178 200 0
174 197 0
173 197 0
174 197 0
173 197 0
174 198 0
173 197 0
176 199 0
175 198 0
176 198 0
175 198 0
174 197 0
175 198 0
174 197 0
175 198 0
175 198 0
173 197 0
174 198 0
175 198 0
174 198 0
175 198 0
176 198 0
172 197 0
174 198 0
175 198 0
178 200 0
174 198 0
173 197 0
176 199 0
175 198 0
175 198 0
174 198 0
175 198 0
174 197 0
174 198 0
174 198 0
174 198 0
171 196 0
175 198 0
174 198 0
175 198 0
175 198 0
175 198 0
176 198 0
176 199 0
175 198 0
174 198 0
176 198 0
175 198 0
176 199 0
175 198 0
174 198 0
175 198 0
176 199 0
176 198 0
175 198 0
173 197 0
172 197 0
175 198 0
174 198 0
175 198 0
176 199 0
171 196 0
174 198 0
175 198 0
176 199 0
172 196 0
173 197 0
175 198 0
175 198 0
174 198 0
175 198 0
175 198 0
176 199 0
175 198 0
174 198 0
176 199 0
178 199 0
175 198 0
176 199 0
173 197 0
174 198 0
174 197 0
175 198 0
174 198 0
175 198 0
176 199 0
170 196 0
176 198 0
175 198 0
175 198 0
173 197 0
177 199 0
173 197 0
173 197 0
174 197 0
173 197 0
176 199 0
175 198 0
174 198 0
176 199 0
173 197 0
175 198 0
174 198 0
174 198 0
174 197 0
173 197 0
175 198 0
173 197 0
175 198 0
175 198 0
174 197 0
174 198 0
175 198 0
174 198 0
172 196 0
173 197 0
175 198 0
175 198 0
170 195 0
173 197 0
175 198 0
174 198 0
175 198 0
174 197 0
175 198 0
175 198 0
174 198 0
175 198 0
174 198 0
175 198 0
174 198 0
174 198 0
175 198 0
175 198 0
174 198 0
174 198 0
175 198 0
176 199 0
174 198 0
176 199 0
176 199 0
174 198 0
175 198 0
176 199 0
175 198 0
178 200 0
176 198 0
172 197 0
174 198 0
175 198 0
176 199 0
176 199 0
176 198 0
174 198 0
172 197 0
176 199 0
177 199 0
174 198 0
175 198 0
175 198 0
174 198 0
177 199 0
174 197 0
175 198 0
174 197 0
172 197 0
176 198 0
173 197 0
175 198 0
175 198 0
175 198 0
175 198 0
173 197 0
174 198 0
174 198 0
175 198 0
175 198 0
174 197 0
174 198 0
176 199 0
176 199 0
176 199 0
175 198 0
174 198 0
175 198 0
174 198 0
177 199 0
174 198 0
176 199 0
172 197 0
175 198 0
173 197 0
174 198 0
174 198 0
172 197 0
173 197 0
174 197 0
174 198 0
175 198 0
175 198 0
176 199 0
173 197 0
176 198 0
176 199 0
175 198 0
176 198 0
176 198 0
174 198 0
176 198 0
175 198 0
172 197 0
173 197 0
174 197 0
174 196 0
174 198 0
175 198 0
175 198 0
174 198 0
175 198 0
176 199 0
174 198 0
176 199 0
175 198 0
172 197 0
172 196 0
174 198 0
175 198 0
175 198 0
172 197 0
173 197 0
174 198 0
174 198 0
175 198 0
174 198 0
172 197 0
173 197 0
177 199 0
175 198 0
175 198 0
172 196 0
173 197 0
176 199 0
175 198 0
177 199 0
173 197 0
174 198 0
174 198 0
174 198 0
174 198 0
178 200 0
174 198 0
173 197 0
174 198 0
174 198 0
175 198 0
175 198 0
174 198 0
174 198 0
175 198 0
176 198 0
172 197 0
174 198 0
171 196 0
173 196 0
175 198 0
175 198 0
174 198 0
174 198 0
175 197 0
174 197 0
171 196 0
174 197 0
175 198 0
174 197 0
175 198 0
176 199 0
176 199 0
175 198 0
176 199 0
173 197 0
174 198 0
173 197 0
175 198 0
176 199 0
175 198 0
173 197 0
173 197 0
174 198 0
177 199 0
177 199 0
174 198 0
173 196 0
174 198 0
176 199 0
176 199 0
174 197 0
176 199 0
175 198 0
171 196 0
174 198 0
172 197 0
174 198 0
175 198 0
174 198 0
174 198 0
175 198 0
177 199 0
172 197 0
176 199 0
173 197 0
177 199 0
178 200 0
173 197 0
173 197 0
175 197 0
174 198 0
175 198 0
173 197 0
174 198 0
175 198 0
174 198 0
175 198 0
174 197 0
173 197 0
174 198 0
171 195 0
173 197 0
173 197 0
173 197 0
175 198 0
173 197 0
175 198 0
176 198 0
174 198 0
173 197 0
176 199 0
173 197 0
173 196 0
174 198 0
175 198 0
173 197 0
174 197 0
174 198 0
174 197 0
176 198 0
174 198 0
175 198 0
176 199 0
174 198 0
175 198 0
174 197 0
174 198 0
173 197 0
175 198 0
175 198 0
175 198 0
176 199 0
176 199 0
172 197 0
175 198 0
173 197 0
174 197 0
174 197 0
175 198 0
175 198 0
176 198 0
173 197 0
175 198 0
174 198 0
175 198 0
175 198 0
175 198 0
174 197 0
175 198 0
176 199 0
175 198 0
173 197 0
172 197 0
176 199 0
176 198 0
176 198 0
174 198 0
176 199 0
173 197 0
173 197 0
175 198 0
176 198 0
176 198 0
176 198 0
177 199 0
177 199 0
174 197 0
173 197 0
175 198 0
174 197 0
175 198 0
175 198 0
173 197 0
174 197 0
176 199 0
174 198 0
174 197 0
172 197 0
175 198 0
174 197 0
175 198 0
174 197 0
174 198 0
173 197 0
176 198 0
177 199 0
173 197 0
175 198 0
174 198 0
174 197 0
175 198 0
173 197 0
175 198 0
173 197 0
174 197 0
174 198 0
174 197 0
174 198 0
174 198 0
174 198 0
175 198 0
174 198 0
176 198 0
172 196 0
178 200 0
173 197 0
174 198 0
174 197 0
176 199 0
173 197 0
173 197 0
175 198 0
174 198 0
174 198 0
173 197 0
175 198 0
176 198 0
174 198 0
176 198 0
177 199 0
175 198 0
175 198 0
174 197 0
175 198 0
174 198 0
176 199 0
176 199 0
175 198 0
176 199 0
174 198 0
176 199 0
174 198 0
174 198 0
173 197 0
177 199 0
175 198 0
175 198 0
174 198 0
177 199 0
172 197 0
172 197 0
172 197 0
173 197 0
176 199 0
176 198 0
175 198 0
174 198 0
175 198 0
178 199 0
174 198 0
176 199 0
174 198 0
175 198 0
176 199 0
175 198 0
173 197 0
173 197 0
176 198 0
176 199 0
173 197 0
173 197 0
175 198 0
176 199 0
175 198 0
173 197 0
177 199 0
173 197 0
175 198 0
174 198 0
175 198 0
174 198 0
175 198 0
175 198 0
175 198 0
172 197 0
173 197 0
174 198 0
177 199 0
175 198 0
176 199 0
173 197 0
175 198 0
175 198 0
174 198 0
176 199 0
174 198 0
174 198 0
175 198 0
174 198 0
174 198 0
174 198 0
174 197 0
175 198 0
174 198 0
177 199 0
175 198 0
175 198 0
173 197 0
173 197 0
173 197 0
177 199 0
173 197 0
174 198 0
177 199 0
175 198 0
173 197 0
176 199 0
173 197 0
175 198 0
174 198 0
175 198 0
176 199 0
174 198 0
175 198 0
174 198 0
175 198 0
174 198 0
174 198 0
173 197 0
173 197 0
174 197 0
175 198 0
174 198 0
175 198 0
174 198 0
176 199 0
174 197 0
173 197 0
173 197 0
176 199 0
176 199 0
173 197 0
172 197 0
175 198 0
175 198 0
176 199 0
171 196 0
175 198 0
173 197 0
175 198 0
174 198 0
173 197 0
173 197 0
174 198 0
174 198 0
173 197 0
172 196 0
176 199 0
176 199 0
175 198 0
173 197 0
177 199 0
173 197 0
175 198 0
174 197 0
173 197 0
173 197 0
177 199 0
175 198 0
174 198 0
175 198 0
172 196 0
175 198 0
173 197 0
172 197 0
174 197 0
173 197 0
176 199 0
176 199 0
172 197 0
173 197 0
175 198 0
176 199 0
173 197 0
174 198 0
174 197 0
175 198 0
173 197 0
175 198 0
174 197 0
175 198 0
171 195 0
176 199 0
175 198 0
175 198 0
174 197 0
174 197 0
175 198 0
173 197 0
176 198 0
173 197 0
172 196 0
173 197 0
174 198 0
171 195 0
173 197 0
176 199 0
175 198 0
176 199 0
174 197 0
175 198 0
175 198 0
174 197 0
174 198 0
177 199 0
173 197 0
173 197 0
174 198 0
176 198 0
176 199 0
174 198 0
175 198 0
173 197 0
174 198 0
173 197 0
173 197 0
174 197 0
175 198 0
176 199 0
174 198 0
174 198 0
174 197 0
175 198 0
175 198 0
175 198 0
173 197 0
174 197 0
171 196 0
174 198 0
174 198 0
175 198 0
175 198 0
175 198 0
174 198 0
173 197 0
175 198 0
177 199 0
176 199 0
174 198 0
174 198 0
172 197 0
174 197 0
173 197 0
173 197 0
174 198 0
176 198 0
176 198 0
173 197 0
176 199 0
174 198 0
173 197 0
176 198 0
174 197 0
173 197 0
174 198 0
174 198 0
176 199 0
176 199 0
174 198 0
175 198 0
176 199 0
172 197 0
176 199 0
176 198 0
175 198 0
174 198 0
174 198 0
174 197 0
174 198 0
174 198 0
176 198 0
174 197 0
172 197 0
176 198 0
175 198 0
176 199 0
175 198 0
175 198 0
175 198 0
173 197 0
176 198 0
175 198 0
176 199 0
175 198 0
173 197 0
177 199 0
172 197 0
175 198 0
174 198 0
174 197 0
175 198 0
174 197 0
173 197 0
176 199 0
171 196 0
174 197 0
173 197 0
176 199 0
177 199 0
176 199 0
176 199 0
175 198 0
174 198 0
173 196 0
173 197 0
175 198 0
173 197 0
173 197 0
173 197 0
175 198 0
172 197 0
174 198 0
176 199 0
173 197 0
176 199 0
173 197 0
174 198 0
176 199 0
173 197 0
175 198 0
172 196 0
173 197 0
175 198 0
175 198 0
173 197 0
172 197 0
178 200 0
173 197 0
173 196 0
176 199 0
174 198 0
174 198 0
175 198 0
173 197 0
173 197 0
173 197 0
174 197 0
172 197 0
172 197 0
176 198 0
174 198 0
177 199 0
176 199 0
176 199 0
170 194 0
176 198 0
175 198 0
177 199 0
173 197 0
174 198 0
176 199 0
172 197 0
175 198 0
177 199 0
173 197 0
173 197 0
175 198 0
174 198 0
174 198 0
174 197 0
175 198 0
173 197 0
174 197 0
175 198 0
174 197 0
173 197 0
175 198 0
176 198 0
173 197 0
174 198 0
176 199 0
175 198 0
175 198 0
175 198 0
172 197 0
174 198 0
174 198 0
172 197 0
173 197 0
175 198 0
174 198 0
174 198 0
172 197 0
174 198 0
173 197 0
175 198 0
174 198 0
173 197 0
174 198 0
176 199 0
175 198 0
173 197 0
174 198 0
175 198 0
174 197 0
174 197 0
174 198 0
175 198 0
174 198 0
174 198 0
174 198 0
176 198 0
174 198 0
175 198 0
174 197 0
177 199 0
173 197 0
176 199 0
177 199 0
173 197 0
176 199 0
173 197 0
174 198 0
175 198 0
175 198 0
176 199 0
177 199 0
174 198 0
173 197 0
173 197 0
177 199 0
174 197 0
173 197 0
176 198 0
173 197 0
174 197 0
175 198 0
174 197 0
176 199 0
177 199 0
175 198 0
176 199 0
174 198 0
175 198 0
174 198 0
175 198 0
174 198 0
177 199 0
173 197 0
175 198 0
177 199 0
175 198 0
173 197 0
172 196 0
175 198 0
175 198 0
174 198 0
174 197 0
175 198 0
173 197 0
177 199 0
173 197 0
173 197 0
175 198 0
176 199 0
175 198 0
173 197 0
174 198 0
177 199 0
175 198 0
175 198 0
175 198 0
176 199 0
175 198 0
176 199 0
173 197 0
175 198 0
174 198 0
173 197 0
175 198 0
175 198 0
174 198 0
176 199 0
174 198 0
175 198 0
176 199 0
177 199 0
175 198 0
174 197 0
173 197 0
175 198 0
173 197 0
173 197 0
172 197 0
174 198 0
174 198 0
174 198 0
175 198 0
175 198 0
174 198 0
175 198 0
175 198 0
173 197 0
174 198 0
177 199 0
174 198 0
177 199 0
175 198 0
176 198 0
171 196 0
174 197 0
175 198 0
174 198 0
175 198 0
176 198 0
175 198 0
174 197 0
176 199 0
175 198 0
175 198 0
175 198 0
174 198 0
173 197 0
175 198 0
176 198 0
174 198 0
174 198 0
174 198 0
174 198 0
173 197 0
176 199 0
175 198 0
175 198 0
174 198 0
174 198 0
176 199 0
173 197 0
174 198 0
175 198 0
174 197 0
175 198 0
175 198 0
174 198 0
176 199 0
173 197 0
173 197 0
174 198 0
175 198 0
173 197 0
174 198 0
171 195 0
174 198 0
173 197 0
176 199 0
174 198 0
174 198 0
174 197 0
175 198 0
173 197 0
174 197 0
174 198 0
174 197 0
177 199 0
176 198 0
174 198 0
174 198 0
175 198 0
174 198 0
175 198 0
175 198 0
174 198 0
175 198 0
172 197 0
173 197 0
174 197 0
175 198 0
176 199 0
175 198 0
176 199 0
174 198 0
176 198 0
174 198 0
174 198 0
175 198 0
174 198 0
175 198 0
174 197 0
176 199 0
171 196 0
174 198 0
174 198 0
173 197 0
176 199 0
175 198 0
173 197 0
175 198 0
172 197 0
173 197 0
176 198 0
175 198 0
177 199 0
174 198 0
173 197 0
176 199 0
174 198 0
174 198 0
173 197 0
174 197 0
174 198 0
173 197 0
172 197 0
172 196 0
175 198 0
174 198 0
175 198 0
172 196 0
174 197 0
173 197 0
173 197 0
174 198 0
175 198 0
176 198 0
175 198 0
173 197 0
174 197 0
174 198 0
175 198 0
175 198 0
175 198 0
175 198 0
174 198 0
174 198 0
174 198 0
174 198 0
172 196 0
173 197 0
176 199 0
176 198 0
174 198 0
174 198 0
175 198 0
173 197 0
176 199 0
173 197 0
173 197 0
177 199 0
174 198 0
174 198 0
177 199 0
176 199 0
174 198 0
173 196 0
175 197 0
172 197 0
172 196 0
172 196 0
175 198 0
174 198 0
172 197 0
175 198 0
175 198 0
174 198 0
175 198 0
173 197 0
174 197 0
175 198 0
172 196 0
174 198 0
176 198 0
171 196 0
176 199 0
176 198 0
176 199 0
173 197 0
175 198 0
174 198 0
173 197 0
173 197 0
175 197 0
174 197 0
174 197 0
176 199 0
174 198 0
175 198 0
175 198 0
172 196 0
174 198 0
175 198 0
176 198 0
175 198 0
175 198 0
174 198 0
176 199 0
175 198 0
172 197 0
174 198 0
175 198 0
174 198 0
175 198 0
175 198 0
173 197 0
175 198 0
173 197 0
172 197 0
175 198 0
175 198 0
175 198 0
174 198 0
173 197 0
176 199 0
173 196 0
173 197 0
174 197 0
175 198 0
174 197 0
174 198 0
174 198 0
175 198 0
176 199 0
177 199 0
175 198 0
175 198 0
175 198 0
176 199 0
174 197 0
174 198 0
174 197 0
175 198 0
172 196 0
175 198 0
176 199 0
173 197 0
173 197 0
175 198 0
175 198 0
173 197 0
174 197 0
174 198 0
175 198 0
176 198 0
173 197 0
176 198 0
175 198 0
174 198 0
173 197 0
173 196 0
173 197 0
175 198 0
176 199 0
174 197 0
175 198 0
175 198 0
174 198 0
176 199 0
176 199 0
174 198 0
173 197 0
173 197 0
173 197 0
175 198 0
175 198 0
174 197 0
174 197 0
176 198 0
175 198 0
174 197 0
179 200 0
175 198 0
176 199 0
176 199 0
174 198 0
175 198 0
175 198 0
175 198 0
173 196 0
174 198 0
176 198 0
176 199 0
176 199 0
174 198 0
176 199 0
176 199 0
176 199 0
174 198 0
174 198 0
177 199 0
172 197 0
173 197 0
173 197 0
176 199 0
174 198 0
172 196 0
175 198 0
173 197 0
173 197 0
173 197 0
178 200 0
175 198 0
174 198 0
176 199 0
175 198 0
173 197 0
174 198 0
176 199 0
172 196 0
176 198 0
173 197 0
176 199 0
173 197 0
174 198 0
176 199 0
174 198 0
174 198 0
175 198 0
178 200 0
172 197 0
175 198 0
174 198 0
175 198 0
175 198 0
175 198 0
175 198 0
175 198 0
175 198 0
175 198 0
176 199 0
173 197 0
177 199 0
175 198 0
174 198 0
174 198 0
173 197 0
176 199 0
172 197 0
174 198 0
176 198 0
173 197 0
173 197 0
176 198 0
174 198 0
170 196 0
173 197 0
175 198 0
172 196 0
173 197 0
174 198 0
175 198 0
175 198 0
176 198 0
175 198 0
175 198 0
174 198 0
174 198 0
176 199 0
174 197 0
175 198 0
174 198 0
175 198 0
175 198 0
174 198 0
175 198 0
172 197 0
172 196 0
175 198 0
175 198 0
173 197 0
175 198 0
175 198 0
174 197 0
175 198 0
174 198 0
174 197 0
174 198 0
173 197 0
174 197 0
174 198 0
175 198 0
173 197 0
174 198 0
177 199 0
176 198 0
175 198 0
174 198 0
174 198 0
174 198 0
174 198 0
175 198 0
173 197 0
175 198 0
175 198 0
174 198 0
173 197 0
174 197 0
172 197 0
175 198 0
175 198 0
175 198 0
174 197 0
177 199 0
174 198 0
174 198 0
175 198 0
173 197 0
173 197 0
174 198 0
175 198 0
176 198 0
174 198 0
176 199 0
173 197 0
173 197 0
174 197 0
175 198 0
175 198 0
173 197 0
176 199 0
176 198 0
175 198 0
174 197 0
174 197 0
175 198 0
173 197 0
175 198 0
173 197 0
174 198 0
174 197 0
176 199 0
175 198 0
173 197 0
175 198 0
176 199 0
173 197 0
177 199 0
175 198 0
177 199 0
175 198 0
173 197 0
173 197 0
172 197 0
175 198 0
175 198 0
172 197 0
175 198 0
175 198 0
174 198 0
175 198 0
174 198 0
173 197 0
175 198 0
175 198 0
174 198 0
175 198 0
176 199 0
171 195 0
176 199 0
171 196 0
174 197 0
173 197 0
176 199 0
173 197 0
174 198 0
174 198 0
172 196 0
175 198 0
175 198 0
174 197 0
174 198 0
173 197 0
173 197 0
175 198 0
174 197 0
174 197 0
175 198 0
173 197 0
172 197 0
175 198 0
174 198 0
174 198 0
174 198 0
175 198 0
173 197 0
177 199 0
172 195 0
174 197 0
175 198 0
176 199 0
176 199 0
175 198 0
175 198 0
173 197 0
178 200 0
174 198 0
175 198 0
173 197 0
176 199 0
175 198 0
176 198 0
175 198 0
173 197 0
175 198 0
176 199 0
175 198 0
171 196 0
175 198 0
173 197 0
175 198 0
174 197 0
176 198 0
175 198 0
174 198 0
172 197 0
173 197 0
175 198 0
176 198 0
174 197 0
175 198 0
174 198 0
175 198 0
175 198 0
173 197 0
176 199 0
176 198 0
175 198 0
176 198 0
175 198 0
175 198 0
174 198 0
175 198 0
174 198 0
174 198 0
174 198 0
174 198 0
173 197 0
175 198 0
172 196 0
174 198 0
174 198 0
174 198 0
174 198 0
175 198 0
176 199 0
173 197 0
173 197 0
173 197 0
174 198 0
175 198 0
174 198 0
173 197 0
176 198 0
176 198 0
174 198 0
175 198 0
176 199 0
174 197 0
171 195 0
174 198 0
175 198 0
174 198 0
174 197 0
174 198 0
176 198 0
174 197 0
173 197 0
174 198 0
174 198 0
173 197 0
175 198 0
176 199 0
174 198 0
174 197 0
176 198 0
173 197 0
177 199 0
174 198 0
176 199 0
175 198 0
174 198 0
174 197 0
174 198 0
173 197 0
174 198 0
174 198 0
173 197 0
172 197 0
175 198 0
175 198 0
174 197 0
176 199 0
174 198 0
176 199 0
175 198 0
175 198 0
174 198 0
175 198 0
176 199 0
175 198 0
175 198 0
175 198 0
173 197 0
173 197 0
174 198 0
175 198 0
175 198 0
175 198 0
173 197 0
174 197 0
173 197 0
173 197 0
173 197 0
176 199 0
174 197 0
175 198 0
175 198 0
175 198 0
173 197 0
174 197 0
175 198 0
175 198 0
174 197 0
176 199 0
174 198 0
174 198 0
176 199 0
174 197 0
174 198 0
174 197 0
175 198 0
174 197 0
174 198 0
173 197 0
173 197 0
174 198 0
173 197 0
172 197 0
175 198 0
174 198 0
174 198 0
175 198 0
173 197 0
174 197 0
175 198 0
174 198 0
175 198 0
175 198 0
172 196 0
175 198 0
173 197 0
172 197 0
173 197 0
175 198 0
172 197 0
175 198 0
175 198 0
175 198 0
175 198 0
174 198 0
175 198 0
171 196 0
174 197 0
176 199 0
175 198 0
175 198 0
174 198 0
175 198 0
174 198 0
174 198 0
176 198 0
176 199 0
173 197 0
175 197 0
176 199 0
174 198 0
175 198 0
174 198 0
174 198 0
174 197 0
174 197 0
174 198 0
173 197 0
175 198 0
173 197 0
174 198 0
175 198 0
175 198 0
171 196 0
177 199 0
175 198 0
177 199 0
174 198 0
174 198 0
173 197 0
172 197 0
174 198 0
174 198 0
173 197 0
175 198 0
176 199 0
175 198 0
173 197 0
177 199 0
173 197 0
176 198 0
174 198 0
176 198 0
174 198 0
174 198 0
176 199 0
172 196 0
175 198 0
176 199 0
173 197 0
176 199 0
175 198 0
175 198 0
174 197 0
176 198 0
173 197 0
176 199 0
176 199 0
177 199 0
174 197 0
176 198 0
174 198 0
177 199 0
173 197 0
174 198 0
175 198 0
174 198 0
174 198 0
174 198 0
173 197 0
174 197 0
176 199 0
177 199 0
173 197 0
174 198 0
175 198 0
173 197 0
175 198 0
175 198 0
174 198 0
173 197 0
175 198 0
174 198 0
172 197 0
175 198 0
175 198 0
175 198 0
174 198 0
174 198 0
176 199 0
174 198 0
174 197 0
178 200 0
178 200 0
174 198 0
175 198 0
174 198 0
173 197 0
175 198 0
173 197 0
173 197 0
178 200 0
175 198 0
173 197 0
174 198 0
173 197 0
175 198 0
176 199 0
173 197 0
174 197 0
176 198 0
173 197 0
176 198 0
174 198 0
173 197 0
174 197 0
176 198 0
174 197 0
174 198 0
172 197 0
175 198 0
175 198 0
173 197 0
172 196 0
174 198 0
176 198 0
175 198 0
173 197 0
175 198 0
173 197 0
170 196 0
176 199 0
174 198 0
175 198 0
175 198 0
173 197 0
175 198 0
174 198 0
174 198 0
176 199 0
175 198 0
177 199 0
175 198 0
175 198 0
173 197 0
173 197 0
175 198 0
174 198 0
175 198 0
175 198 0
174 198 0
174 197 0
175 198 0
176 199 0
174 198 0
176 199 0
174 198 0
173 197 0
174 198 0
175 198 0
173 196 0
174 198 0
174 198 0
173 197 0
174 198 0
174 198 0
174 197 0
176 198 0
173 197 0
173 197 0
174 198 0
175 198 0
175 198 0
177 199 0
174 198 0
173 197 0
174 197 0
174 197 0
175 198 0
174 198 0
175 198 0
176 199 0
174 198 0
175 197 0
174 198 0
175 198 0
175 198 0
173 197 0
175 198 0
175 198 0
174 198 0
175 198 0
174 198 0
172 197 0
173 197 0
177 199 0
173 197 0
174 197 0
174 198 0
172 197 0
175 198 0
175 198 0
174 198 0
174 198 0
175 198 0
174 197 0
177 199 0
173 197 0
174 198 0
173 197 0
176 199 0
176 199 0
172 197 0
175 198 0
175 198 0
173 197 0
173 197 0
174 197 0
174 198 0
173 197 0
175 198 0
176 199 0
174 198 0
172 197 0
174 198 0
173 197 0
174 198 0
175 198 0
174 198 0
173 197 0
176 199 0
173 197 0
175 198 0
176 199 0
173 197 0
174 198 0
173 197 0
174 198 0
174 198 0
174 198 0
174 198 0
175 198 0
174 198 0
174 198 0
173 197 0
173 197 0
173 197 0
174 198 0
176 199 0
175 198 0
176 199 0
175 198 0
174 198 0
176 199 0
173 197 0
176 198 0
175 198 0
173 197 0
175 198 0
173 197 0
173 197 0
176 199 0
176 199 0
175 198 0
174 198 0
177 199 0
174 198 0
175 198 0
172 197 0
176 198 0
176 199 0
173 197 0
176 199 0
176 199 0
173 197 0
177 199 0
176 198 0
177 199 0
173 197 0
174 198 0
173 197 0
176 198 0
174 197 0
175 198 0
174 198 0
171 195 0
176 199 0
176 199 0
174 198 0
175 198 0
174 198 0
174 198 0
173 197 0
174 197 0
172 196 0
176 199 0
173 197 0
174 198 0
175 198 0
175 198 0
174 198 0
176 198 0
174 198 0
174 198 0
175 198 0
175 198 0
171 196 0
173 197 0
174 197 0
176 199 0
174 198 0
173 197 0
175 198 0
172 197 0
175 198 0
173 196 0
174 198 0
175 198 0
172 197 0
175 198 0
174 197 0
174 198 0
174 198 0
177 199 0
172 196 0
175 198 0
174 198 0
174 197 0
174 198 0
175 198 0
174 198 0
175 198 0
173 197 0
175 198 0
177 199 0
175 198 0
173 197 0
175 198 0
173 197 0
176 199 0
172 196 0
174 198 0
175 198 0
174 198 0
175 198 0
173 197 0
174 198 0
175 198 0
173 197 0
174 198 0
174 197 0
174 198 0
175 198 0
174 198 0
173 197 0
175 198 0
176 199 0
173 197 0
172 197 0
175 198 0
175 198 0
175 198 0
171 196 0
172 196 0
174 197 0
174 198 0
175 198 0
175 198 0
174 198 0
174 198 0
173 197 0
177 199 0
173 197 0
173 197 0
171 196 0
175 198 0
175 198 0
174 198 0
173 197 0
174 198 0
175 198 0
174 198 0
174 197 0
174 197 0
175 198 0
180 201 0
174 197 0
175 198 0
176 199 0
175 198 0
175 198 0
175 198 0
174 198 0
176 199 0
175 198 0
175 198 0
173 197 0
176 198 0
172 196 0
175 198 0
174 198 0
177 199 0
175 198 0
175 198 0
172 196 0
173 197 0
170 194 0
175 198 0
176 199 0
176 199 0
175 198 0
175 198 0
174 198 0
172 197 0
177 199 0
174 197 0
176 199 0
176 198 0
174 198 0
173 197 0
174 197 0
172 197 0
176 198 0
173 197 0
175 198 0
175 198 0
177 199 0
172 197 0
176 199 0
174 198 0
175 198 0
174 197 0
175 198 0
173 197 0
177 199 0
175 198 0
175 198 0
176 199 0
177 199 0
175 198 0
174 198 0
175 198 0
173 197 0
174 198 0
174 198 0
174 198 0
176 199 0
175 198 0
175 198 0
172 196 0
177 199 0
175 198 0
175 198 0
174 198 0
174 198 0
175 198 0
176 199 0
176 198 0
175 198 0
174 197 0
173 197 0
175 198 0
176 199 0
177 199 0
175 198 0
175 198 0
171 196 0
174 198 0
175 198 0
173 196 0
175 198 0
175 198 0
175 198 0
174 198 0
174 197 0
176 198 0
176 199 0
172 197 0
176 199 0
174 198 0
173 197 0
174 198 0
175 198 0
175 198 0
176 198 0
173 197 0
175 198 0
173 197 0
173 197 0
174 198 0
175 198 0
176 199 0
176 199 0
174 198 0
174 197 0
171 196 0
176 198 0
175 198 0
172 197 0
174 197 0
173 197 0
174 198 0
173 197 0
176 199 0
174 197 0
176 198 0
174 198 0
174 198 0
173 197 0
174 197 0
173 197 0
174 197 0
172 197 0
173 197 0
173 197 0
173 197 0
173 197 0
175 198 0
173 197 0
176 199 0
174 198 0
173 197 0
173 197 0
175 198 0
173 197 0
174 198 0
174 197 0
174 198 0
175 198 0
175 198 0
175 198 0
174 198 0
173 197 0
175 198 0
174 198 0
174 198 0
174 197 0
177 199 0
176 199 0
173 197 0
170 196 0
176 198 0
174 197 0
172 197 0
177 199 0
173 197 0
176 199 0
176 199 0
172 197 0
177 199 0
174 198 0
177 199 0
175 198 0
173 197 0
174 197 0
174 198 0
175 198 0
174 198 0
176 199 0
174 198 0
176 198 0
175 198 0
175 198 0
174 198 0
175 198 0
175 198 0
176 198 0
172 197 0
175 198 0
172 197 0
173 197 0
173 197 0
173 197 0
175 198 0
173 197 0
175 198 0
173 197 0
175 198 0
175 198 0
176 198 0
175 198 0
175 198 0
173 197 0
176 198 0
171 196 0
175 198 0
171 196 0
175 198 0
173 197 0
176 198 0
177 199 0
174 197 0
175 198 0
173 197 0
174 198 0
174 197 0
173 197 0
176 199 0
176 199 0
176 199 0
176 198 0
176 199 0
175 198 0
175 198 0
174 198 0
173 197 0
175 198 0
174 198 0
173 197 0
175 198 0
175 198 0
174 198 0
173 197 0
172 197 0
174 197 0
173 197 0
175 198 0
174 198 0
175 198 0
174 198 0
176 199 0
175 198 0
176 198 0
173 196 0
175 198 0
174 197 0
174 198 0
175 198 0
172 196 0
175 198 0
176 198 0
175 198 0
172 197 0
174 198 0
174 198 0
175 198 0
174 197 0
173 197 0
174 197 0
176 199 0
174 197 0
176 199 0
172 196 0
174 198 0
174 198 0
173 196 0
175 198 0
174 198 0
174 198 0
173 197 0
173 197 0
173 197 0
173 197 0
174 198 0
175 198 0
174 198 0
174 198 0
174 197 0
175 198 0
173 197 0
177 199 0
177 199 0
173 197 0
175 198 0
174 198 0
177 199 0
172 197 0
176 199 0
174 196 0
175 198 0
174 197 0
175 198 0
174 198 0
173 197 0
175 198 0
177 199 0
174 198 0
173 197 0
174 198 0
176 199 0
174 197 0
173 197 0
173 197 0
172 196 0
172 196 0
174 198 0
173 197 0
175 198 0
174 197 0
176 198 0
173 197 0
174 197 0
172 196 0
175 198 0
175 198 0
173 197 0
172 196 0
173 197 0
175 198 0
175 198 0
176 199 0
175 198 0
173 197 0
174 198 0
173 197 0
175 198 0
174 198 0
175 198 0
176 199 0
174 198 0
177 199 0
174 197 0
176 199 0
172 196 0
173 197 0
175 198 0
176 198 0
174 198 0
172 197 0
174 197 0
176 198 0
173 197 0
174 198 0
172 196 0
175 198 0
177 199 0
176 199 0
177 199 0
175 198 0
173 197 0
175 198 0
173 197 0
174 198 0
174 197 0
173 197 0
174 198 0
174 198 0
172 197 0
173 197 0
174 198 0
175 198 0
173 197 0
174 198 0
173 196 0
173 197 0
175 198 0
176 198 0
173 197 0
175 198 0
173 197 0
175 198 0
174 198 0
174 198 0
176 199 0
174 198 0
174 198 0
175 198 0
174 198 0
174 198 0
175 198 0
173 197 0
174 197 0
173 197 0
173 197 0
175 198 0
174 198 0
173 196 0
173 197 0
174 198 0
174 197 0
176 199 0
172 197 0
172 197 0
174 198 0
174 197 0
175 198 0
175 198 0
175 198 0
176 199 0
174 198 0
176 199 0
172 196 0
174 198 0
175 198 0
175 198 0
174 198 0
174 198 0
174 198 0
175 198 0
173 197 0
175 198 0
174 198 0
174 198 0
171 196 0
175 198 0
174 198 0
176 199 0
176 199 0
175 198 0
172 197 0
174 198 0
172 197 0
174 197 0
175 198 0
175 198 0
175 198 0
174 198 0
176 199 0
173 197 0
176 199 0
173 197 0
175 198 0
174 198 0
175 198 0
174 198 0
176 198 0
172 197 0
175 198 0
173 197 0
172 196 0
175 198 0
174 197 0
174 197 0
175 198 0
173 197 0
175 198 0
173 197 0
175 198 0
174 198 0
175 198 0
172 197 0
173 197 0
176 199 0
174 198 0
174 197 0
172 197 0
174 197 0
174 197 0
174 198 0
176 199 0
176 199 0
177 199 0
174 198 0
175 198 0
173 197 0
175 198 0
175 198 0
173 197 0
173 197 0
176 198 0
178 200 0
174 198 0
176 199 0
175 198 0
174 198 0
176 199 0
175 198 0
176 199 0
175 198 0
174 198 0
175 198 0
175 198 0
175 198 0
174 198 0
176 198 0
175 198 0
175 198 0
177 199 0
176 198 0
174 197 0
174 198 0
172 196 0
175 198 0
175 198 0
173 197 0
174 197 0
174 197 0
176 198 0
175 198 0
173 197 0
174 198 0
173 197 0
173 197 0
174 198 0
175 198 0
171 195 0
176 199 0
175 198 0
173 197 0
174 198 0
176 199 0
175 198 0
173 197 0
173 197 0
173 197 0
175 198 0
173 197 0
174 198 0
172 197 0
176 198 0
174 198 0
174 198 0
174 198 0
175 198 0
174 197 0
177 199 0
175 198 0
174 198 0
173 197 0
175 198 0
174 198 0
175 198 0
174 198 0
174 198 0
177 199 0
174 198 0
174 198 0
175 198 0
173 197 0
174 198 0
175 198 0
175 198 0
175 198 0
174 198 0
176 199 0
176 198 0
175 198 0
174 198 0
175 198 0
177 199 0
175 198 0
176 199 0
177 199 0
174 198 0
174 198 0
174 198 0
174 198 0
174 198 0
176 199 0
176 199 0
176 199 0
176 199 0
173 197 0
176 198 0
177 199 0
173 197 0
173 197 0
172 196 0
175 198 0
174 198 0
172 197 0
175 198 0
172 197 0
176 199 0
176 199 0
175 198 0
175 198 0
175 198 0
172 196 0
176 199 0
173 197 0
173 197 0
176 199 0
174 198 0
174 198 0
173 197 0
174 198 0
172 196 0
173 197 0
173 197 0
173 197 0
174 198 0
176 199 0
173 197 0
176 199 0
174 198 0
175 198 0
173 197 0
175 198 0
175 198 0
173 197 0
176 199 0
175 198 0
174 198 0
174 197 0
173 197 0
174 197 0
175 198 0
172 197 0
173 197 0
174 197 0
174 198 0
173 197 0
173 197 0
173 197 0
176 199 0
173 197 0
173 197 0
174 197 0
174 198 0
173 197 0
175 198 0
175 198 0
175 198 0
177 199 0
175 198 0
175 198 0
173 197 0
174 197 0
175 198 0
177 199 0
175 198 0
174 198 0
174 197 0
175 198 0
173 197 0
172 196 0
174 198 0
173 197 0
174 197 0
174 197 0
175 198 0
173 197 0
172 196 0
173 197 0
172 196 0
176 199 0
175 198 0
175 198 0
175 198 0
175 198 0
174 197 0
175 198 0
174 198 0
175 198 0
175 198 0
176 198 0
174 198 0
176 198 0
175 198 0
174 198 0
174 198 0
171 196 0
176 198 0
174 198 0
173 197 0
175 198 0
173 197 0
175 198 0
174 198 0
175 198 0
174 198 0
175 198 0
176 199 0
173 197 0
174 197 0
176 199 0
175 198 0
176 199 0
173 197 0
176 199 0
174 197 0
176 199 0
177 199 0
174 197 0
174 198 0
175 198 0
175 198 0
175 198 0
173 197 0
176 198 0
175 198 0
175 198 0
173 197 0
175 198 0
176 199 0
175 198 0
172 196 0
177 199 0
175 198 0
174 196 0
174 198 0
175 198 0
173 197 0
175 198 0
173 197 0
175 198 0
173 197 0
175 198 0
174 198 0
174 198 0
174 198 0
175 198 0
176 199 0
175 198 0
172 197 0
173 197 0
175 198 0
175 198 0
176 198 0
176 199 0
177 199 0
175 198 0
175 198 0
176 199 0
175 198 0
175 198 0
175 198 0
177 199 0
175 197 0
174 198 0
174 198 0
176 199 0
174 198 0
172 197 0
172 197 0
176 199 0
174 198 0
174 197 0
175 198 0
174 198 0
174 197 0
174 198 0
177 199 0
174 198 0
171 196 0
174 198 0
175 198 0
175 198 0
175 198 0
174 198 0
173 197 0
175 198 0
176 199 0
173 197 0
175 198 0
174 198 0
174 197 0
175 198 0
174 198 0
178 200 0
174 197 0
174 197 0
174 197 0
173 197 0
174 197 0
176 198 0
175 198 0
174 198 0
171 196 0
178 199 0
176 199 0
174 198 0
177 199 0
174 198 0
174 198 0
177 199 0
174 198 0
173 197 0
176 199 0
175 198 0
173 197 0
174 198 0
174 198 0
175 198 0
174 197 0
175 198 0
174 198 0
174 197 0
176 199 0
174 198 0
175 198 0
171 194 0
173 197 0
174 197 0
174 198 0
174 198 0
172 197 0
174 198 0
172 197 0
174 198 0
173 197 0
174 198 0
174 198 0
177 199 0
175 198 0
173 197 0
175 198 0
174 197 0
176 198 0
173 197 0
176 199 0
173 197 0
174 198 0
176 199 0
174 198 0
177 199 0
175 198 0
175 198 0
174 197 0
176 198 0
174 198 0
173 197 0
174 197 0
174 197 0
176 198 0
175 198 0
175 198 0
174 198 0
173 197 0
174 197 0
174 197 0
173 197 0
173 197 0
175 198 0
174 198 0
174 198 0
173 197 0
177 199 0
173 197 0
177 199 0
174 198 0
174 198 0
176 198 0
177 199 0
174 197 0
173 197 0
173 197 0
172 196 0
172 197 0
174 198 0
176 199 0
176 199 0
175 198 0
173 197 0
176 199 0
176 198 0
173 197 0
174 197 0
174 198 0
175 198 0
174 198 0
174 198 0
175 198 0
174 198 0
174 197 0
175 198 0
173 197 0
174 198 0
174 197 0
174 198 0
176 199 0
174 198 0
175 198 0
172 196 0
174 197 0
175 198 0
175 198 0
175 198 0
175 198 0
175 198 0
176 199 0
174 198 0
176 199 0
173 197 0
172 197 0
175 198 0
174 198 0
175 198 0
175 198 0
176 199 0
176 198 0
174 198 0
175 198 0
173 197 0
176 199 0
172 197 0
175 198 0
173 197 0
173 197 0
175 198 0
174 197 0
174 197 0
174 198 0
173 197 0
175 198 0
174 198 0
172 197 0
177 199 0
175 198 0
174 198 0
176 199 0
176 198 0
175 198 0
175 198 0
174 198 0
176 199 0
175 198 0
174 197 0
175 198 0
174 197 0
174 198 0
175 198 0
172 196 0
174 197 0
175 198 0
173 197 0
172 197 0
174 197 0
175 198 0
174 198 0
174 198 0
175 198 0
173 197 0
179 200 0
174 198 0
175 198 0
175 198 0
173 197 0
174 198 0
173 197 0
175 198 0
174 197 0
175 198 0
176 199 0
176 199 0
176 199 0
176 198 0
173 197 0
176 198 0
173 197 0
175 198 0
176 198 0
175 198 0
178 200 0
173 197 0
177 199 0
176 199 0
172 197 0
176 199 0
174 198 0
175 198 0
174 197 0
175 198 0
174 198 0
174 197 0
174 198 0
175 198 0
176 198 0
175 198 0
174 198 0
175 198 0
174 197 0
173 197 0
175 198 0
176 199 0
172 196 0
175 198 0
175 198 0
175 198 0
173 197 0
175 198 0
173 197 0
174 197 0
174 198 0
174 198 0
172 197 0
173 197 0
175 198 0
174 198 0
175 198 0
175 198 0
174 198 0
174 198 0
173 197 0
176 198 0
176 198 0
174 197 0
174 198 0
174 198 0
173 197 0
176 199 0
174 198 0
177 199 0
177 199 0
174 198 0
175 198 0
175 198 0
173 197 0
176 198 0
175 198 0
175 197 0
174 197 0
173 197 0
173 197 0
176 198 0
176 199 0
175 198 0
175 198 0
173 197 0
172 196 0
175 198 0
172 196 0
175 198 0
175 198 0
173 197 0
173 197 0
175 198 0
173 197 0
177 199 0
175 198 0
175 198 0
174 197 0
172 197 0
175 198 0
175 198 0
174 198 0
175 198 0
176 199 0
173 197 0
174 198 0
172 197 0
176 199 0
176 199 0
174 198 0
173 197 0
176 199 0
174 198 0
176 199 0
174 198 0
173 197 0
175 198 0
176 199 0
174 198 0
174 197 0
176 199 0
174 198 0
177 199 0
173 197 0
178 200 0
174 198 0
176 199 0
175 198 0
174 197 0
176 198 0
174 197 0
175 198 0
176 199 0
174 198 0
174 197 0
174 198 0
175 197 0
175 198 0
174 197 0
175 198 0
174 197 0
174 198 0
176 199 0
175 198 0
175 198 0
173 197 0
175 198 0
175 198 0
175 198 0
174 198 0
173 197 0
173 197 0
175 198 0
174 197 0
173 197 0
175 198 0
178 199 0
176 198 0
172 196 0
174 198 0
174 198 0
175 198 0
175 198 0
173 197 0
173 197 0
174 198 0
174 198 0
174 198 0
176 199 0
176 199 0
173 197 0
174 198 0
176 199 0
175 198 0
176 199 0
172 195 0
172 197 0
172 197 0
174 198 0
174 197 0
174 197 0
175 198 0
176 199 0
174 197 0
175 198 0
175 198 0
173 197 0
173 197 0
174 198 0
173 197 0
174 197 0
175 198 0
173 197 0
173 197 0
174 198 0
173 197 0
173 197 0
175 198 0
172 197 0
175 198 0
175 198 0
176 199 0
172 197 0
172 197 0
175 198 0
175 198 0
174 198 0
174 198 0
176 199 0
176 199 0
174 198 0
176 199 0
175 198 0
176 199 0
177 199 0
172 197 0
174 198 0
174 198 0
176 198 0
173 197 0
174 198 0
175 198 0
174 198 0
174 198 0
175 198 0
175 198 0
174 197 0
173 197 0
176 198 0
173 197 0
175 198 0
173 197 0
176 199 0
173 196 0
174 197 0
176 198 0
175 198 0
175 197 0
177 199 0
174 197 0
176 199 0
173 197 0
173 197 0
173 196 0
174 197 0
175 198 0
174 198 0
176 199 0
177 199 0
173 197 0
177 199 0
174 198 0
173 197 0
174 198 0
177 199 0
173 197 0
173 197 0
174 197 0
175 198 0
174 197 0
174 198 0
176 199 0
173 197 0
175 198 0
176 199 0
176 198 0
176 199 0
174 198 0
173 197 0
175 198 0
176 199 0
174 198 0
175 198 0
174 197 0
172 196 0
174 197 0
174 198 0
176 199 0
173 197 0
174 198 0
174 197 0
176 198 0
174 197 0
174 198 0
173 197 0
175 198 0
176 198 0
174 198 0
174 198 0
176 199 0
173 197 0
175 198 0
175 198 0
172 196 0
175 198 0
174 198 0
176 199 0
174 198 0
177 199 0
175 198 0
173 197 0
173 197 0
175 198 0
176 199 0
174 198 0
175 198 0
173 197 0
178 200 0
175 198 0
173 197 0
175 198 0
173 197 0
173 197 0
174 198 0
174 198 0
174 197 0
173 197 0
173 197 0
174 198 0
176 199 0
175 198 0
177 199 0
176 199 0
173 197 0
173 197 0
174 198 0
174 198 0
174 198 0
174 198 0
174 197 0
173 197 0
173 197 0
176 199 0
176 199 0
175 198 0
175 198 0
176 199 0
176 199 0
174 198 0
174 198 0
174 197 0
174 197 0
175 198 0
173 197 0
176 199 0
175 198 0
176 199 0
174 198 0
176 198 0
174 197 0
173 197 0
172 196 0
176 198 0
175 198 0
175 198 0
174 198 0
176 199 0
176 199 0
174 198 0
172 197 0
172 197 0
173 197 0
176 199 0
173 197 0
173 197 0
175 198 0
173 197 0
173 197 0
173 197 0
175 198 0
177 199 0
176 199 0
175 198 0
175 198 0
176 199 0
174 198 0
175 198 0
174 198 0
174 198 0
175 198 0
176 199 0
175 198 0
175 198 0
173 197 0
174 198 0
176 198 0
173 197 0
174 198 0
174 198 0
176 199 0
174 197 0
173 197 0
173 197 0
175 198 0
173 197 0
174 198 0
174 197 0
174 198 0
174 197 0
173 197 0
176 198 0
175 198 0
175 198 0
173 197 0
175 198 0
173 197 0
174 198 0
175 198 0
174 198 0
175 198 0
174 197 0
177 199 0
172 197 0
175 198 0
174 198 0
172 196 0
176 199 0
174 197 0
174 198 0
176 199 0
175 198 0
173 197 0
174 197 0
173 197 0
175 198 0
174 198 0
175 198 0
175 198 0
175 198 0
174 198 0
176 198 0
174 198 0
175 198 0
174 198 0
175 198 0
173 197 0
174 197 0
174 198 0
177 199 0
174 197 0
175 198 0
173 197 0
174 197 0
177 199 0
175 198 0
174 198 0
172 197 0
177 199 0
175 198 0
174 198 0
173 196 0
176 198 0
173 197 0
174 198 0
176 198 0
173 197 0
177 199 0
172 197 0
176 199 0
176 198 0
177 199 0
172 197 0
174 197 0
175 198 0
172 197 0
174 198 0
174 198 0
174 198 0
175 198 0
172 197 0
172 197 0
175 198 0
175 198 0
174 198 0
174 198 0
175 198 0
175 198 0
174 198 0
175 198 0
172 196 0
176 199 0
173 197 0
174 197 0
174 197 0
175 198 0
173 197 0
174 198 0
175 198 0
176 199 0
175 198 0
174 198 0
176 199 0
173 197 0
174 197 0
175 198 0
173 197 0
173 196 0
175 198 0
172 197 0
173 197 0
175 198 0
174 198 0
175 198 0
173 197 0
175 198 0
175 198 0
172 196 0
172 197 0
174 197 0
175 198 0
174 197 0
174 198 0
173 197 0
174 198 0
174 197 0
172 196 0
173 197 0
175 198 0
176 199 0
175 198 0
173 197 0
174 197 0
171 195 0
175 198 0
177 199 0
174 198 0
175 198 0
173 197 0
173 197 0
175 198 0
173 197 0
174 197 0
174 198 0
175 198 0
173 197 0
176 199 0
173 197 0
172 197 0
174 197 0
173 197 0
174 198 0
173 197 0
174 198 0
174 198 0
173 196 0
173 197 0
173 197 0
176 199 0
174 198 0
176 199 0
174 198 0
175 198 0
174 198 0
174 198 0
175 198 0
176 199 0
176 199 0
176 199 0
173 197 0
179 200 0
174 198 0
177 199 0
175 198 0
177 199 0
174 198 0
175 198 0
175 198 0
172 196 0
176 199 0
173 197 0
174 198 0
173 197 0
172 197 0
176 199 0
174 198 0
172 197 0
175 198 0
175 198 0
174 198 0
175 198 0
176 199 0
173 197 0
175 198 0
176 199 0
175 198 0
174 198 0
173 197 0
174 198 0
172 197 0
174 198 0
175 198 0
173 197 0
175 198 0
176 198 0
176 198 0
176 199 0
174 198 0
174 198 0
173 197 0
175 198 0
177 199 0
173 197 0
173 197 0
174 197 0
175 198 0
176 199 0
173 197 0
176 199 0
173 197 0
174 198 0
176 199 0
174 198 0
174 198 0
175 198 0
175 198 0
176 199 0
175 198 0
175 198 0
174 198 0
176 198 0
173 197 0
174 198 0
175 198 0
175 198 0
175 198 0
174 198 0
174 198 0
173 197 0
174 197 0
175 198 0
175 197 0
174 198 0
174 198 0
172 197 0
174 198 0
174 198 0
174 198 0
176 198 0
176 199 0
175 198 0
176 199 0
174 198 0
175 198 0
172 196 0
175 198 0
174 198 0
175 198 0
173 197 0
173 197 0
174 197 0
173 197 0
175 198 0
174 197 0
175 198 0
174 197 0
176 198 0
175 198 0
174 198 0
171 196 0
174 197 0
175 198 0
174 197 0
175 198 0
176 199 0
176 199 0
173 197 0
174 198 0
174 198 0
174 198 0
174 198 0
173 197 0
177 199 0
176 199 0
176 199 0
175 198 0
172 196 0
174 198 0
174 197 0
176 198 0
175 198 0
174 197 0
173 197 0
174 197 0
172 197 0
175 198 0
175 198 0
174 197 0
174 198 0
174 198 0
175 198 0
176 199 0
176 199 0
175 198 0
177 199 0
176 199 0
175 198 0
174 197 0
176 199 0
175 198 0
175 198 0
175 198 0
175 198 0
175 198 0
174 198 0
175 198 0
174 197 0
175 198 0
177 199 0
175 198 0
175 198 0
175 198 0
174 197 0
174 197 0
174 198 0
175 198 0
173 197 0
175 198 0
173 197 0
173 197 0
174 198 0
176 198 0
173 197 0
172 197 0
175 198 0
176 199 0
176 199 0
173 197 0
173 197 0
173 197 0
174 198 0
173 197 0
173 197 0
175 198 0
176 199 0
174 197 0
175 198 0
171 196 0
174 198 0
174 198 0
175 198 0
175 198 0
175 198 0
176 198 0
174 198 0
175 198 0
174 197 0
176 199 0
176 199 0
174 197 0
177 199 0
175 198 0
174 198 0
175 198 0
174 198 0
175 198 0
174 197 0
173 197 0
174 198 0
174 198 0
174 198 0
174 197 0
174 198 0
174 197 0
176 198 0
176 199 0
173 197 0
175 198 0
177 199 0
173 197 0
175 198 0
175 198 0
174 198 0
174 198 0
173 197 0
174 198 0
176 199 0
173 197 0
174 198 0
175 198 0
174 198 0
173 197 0
175 198 0
171 196 0
175 198 0
176 199 0
174 198 0
173 197 0
172 197 0
174 198 0
175 198 0
173 197 0
176 198 0
174 198 0
174 198 0
174 197 0
174 198 0
174 198 0
172 196 0
178 200 0
174 198 0
174 198 0
174 198 0
178 200 0
175 198 0
174 197 0
173 197 0
175 198 0
174 198 0
175 198 0
175 198 0
174 197 0
174 198 0
175 198 0
174 198 0
174 198 0
175 198 0
174 197 0
175 198 0
174 198 0
173 197 0
174 197 0
174 198 0
172 197 0
174 197 0
176 198 0
176 198 0
177 199 0
172 196 0
174 197 0
173 197 0
177 199 0
174 197 0
175 198 0
173 197 0
173 197 0
173 197 0
173 197 0
173 197 0
174 198 0
171 196 0
176 198 0
176 199 0
174 197 0
177 199 0
174 197 0
173 197 0
175 198 0
172 196 0
176 199 0
175 198 0
174 198 0
175 198 0
176 199 0
174 198 0
175 198 0
176 198 0
173 197 0
173 197 0
173 197 0
174 198 0
173 197 0
178 200 0
173 197 0
178 200 0
177 199 0
174 197 0
173 197 0
174 198 0
176 199 0
173 197 0
175 198 0
174 197 0
174 197 0
175 198 0
174 198 0
174 198 0
176 198 0
175 198 0
176 199 0
175 198 0
175 198 0
174 197 0
174 197 0
176 199 0
175 198 0
176 199 0
174 197 0
177 199 0
176 199 0
177 199 0
174 198 0
178 200 0
175 198 0
173 197 0
173 197 0
176 199 0
174 198 0
173 197 0
172 197 0
174 197 0
175 198 0
174 197 0
174 198 0
173 197 0
175 198 0
172 197 0
173 197 0
176 199 0
174 198 0
174 198 0
174 198 0
176 198 0
176 199 0
176 199 0
173 197 0
173 197 0
172 197 0
174 198 0
175 198 0
175 198 0
174 198 0
176 199 0
173 197 0
174 197 0
172 196 0
172 197 0
176 199 0
174 198 0
175 198 0
175 198 0
174 197 0
173 197 0
174 198 0
175 198 0
175 198 0
173 197 0
175 198 0
175 198 0
173 197 0
176 199 0
172 197 0
174 198 0
172 197 0
174 198 0
173 197 0
174 198 0
172 197 0
175 198 0
178 200 0
175 198 0
173 197 0
173 196 0
176 199 0
173 197 0
176 199 0
176 199 0
174 198 0
175 198 0
177 199 0
172 197 0
173 196 0
171 196 0
174 198 0
175 198 0
176 198 0
175 198 0
175 198 0
174 197 0
176 199 0
174 198 0
172 197 0
173 196 0
174 197 0
174 198 0
175 198 0
173 197 0
177 199 0
174 197 0
172 197 0
176 199 0
174 197 0
173 197 0
173 197 0
173 197 0
175 198 0
174 197 0
176 199 0
175 198 0
175 198 0
174 198 0
173 197 0
174 197 0
175 198 0
175 198 0
175 198 0
174 198 0
173 197 0
174 196 0
175 198 0
174 198 0
174 198 0
173 197 0
173 197 0
172 196 0
176 199 0
173 197 0
172 197 0
174 198 0
175 198 0
174 198 0
175 198 0
174 198 0
172 197 0
176 198 0
173 197 0
173 197 0
173 197 0
175 198 0
174 198 0
175 198 0
173 197 0
174 198 0
174 198 0
174 198 0
172 196 0
173 197 0
175 198 0
174 197 0
174 198 0
175 198 0
175 198 0
176 199 0
174 197 0
176 199 0
174 198 0
174 198 0
175 198 0
172 196 0
175 198 0
172 196 0
175 198 0
173 197 0
174 197 0
176 198 0
176 199 0
173 197 0
175 198 0
174 198 0
176 199 0
175 198 0
173 197 0
172 197 0
175 198 0
173 197 0
172 197 0
176 199 0
176 198 0
173 197 0
173 197 0
172 196 0
176 198 0
175 198 0
173 197 0
174 198 0
176 199 0
176 199 0
173 196 0
177 199 0
173 197 0
176 199 0
176 198 0
173 197 0
173 197 0
172 197 0
176 199 0
175 198 0
174 198 0
174 198 0
173 197 0
175 198 0
175 198 0
174 197 0
174 198 0
174 198 0
172 197 0
174 198 0
173 197 0
175 198 0
176 198 0
177 199 0
175 198 0
174 198 0
175 198 0
174 197 0
175 198 0
173 197 0
175 198 0
174 198 0
175 198 0
176 199 0
175 198 0
174 197 0
177 199 0
174 198 0
171 196 0
172 196 0
176 199 0
175 198 0
175 198 0
174 197 0
172 197 0
177 199 0
173 197 0
174 198 0
173 197 0
176 199 0
176 198 0
174 197 0
174 198 0
175 198 0
176 199 0
173 197 0
176 199 0
173 197 0
174 197 0
175 198 0
172 197 0
176 199 0
174 198 0
174 198 0
175 198 0
175 198 0
174 197 0
176 199 0
173 197 0
175 198 0
173 197 0
174 198 0
173 197 0
172 196 0
172 197 0
174 197 0
173 197 0
175 198 0
175 198 0
177 199 0
175 198 0
175 198 0
172 197 0
175 198 0
174 197 0
175 198 0
174 197 0
175 198 0
175 198 0
173 197 0
173 197 0
176 199 0
174 197 0
177 199 0
175 198 0
174 197 0
176 199 0
173 197 0
172 197 0
174 197 0
174 198 0
176 198 0
176 198 0
173 197 0
178 200 0
174 197 0
173 197 0
176 199 0
174 197 0
173 197 0
173 197 0
173 197 0
177 199 0
174 198 0
176 199 0
174 197 0
174 198 0
172 196 0
177 199 0
175 198 0
173 197 0
173 197 0
175 198 0
174 198 0
176 199 0
173 197 0
176 199 0
174 198 0
177 199 0
172 196 0
174 198 0
175 198 0
176 199 0
175 198 0
172 196 0
175 198 0
175 198 0
173 197 0
174 197 0
174 198 0
175 198 0
175 198 0
175 198 0
175 198 0
174 197 0
176 199 0
173 197 0
175 198 0
174 198 0
175 198 0
176 198 0
174 198 0
175 198 0
175 198 0
174 198 0
176 199 0
174 197 0
175 198 0
175 198 0
174 197 0
174 198 0
175 198 0
173 197 0
174 198 0
172 197 0
176 198 0
175 198 0
174 198 0
171 196 0
176 198 0
175 198 0
175 198 0
174 198 0
173 197 0
173 197 0
175 198 0
175 198 0
174 198 0
174 197 0
176 199 0
177 199 0
176 198 0
175 198 0
174 197 0
176 198 0
174 198 0
176 199 0
176 199 0
175 198 0
173 196 0
175 198 0
174 197 0
176 199 0
173 197 0
173 197 0
175 198 0
176 199 0
172 197 0
175 198 0
174 198 0
174 197 0
174 198 0
177 199 0
176 199 0
175 198 0
173 197 0
174 198 0
177 199 0
174 198 0
175 198 0
176 199 0
173 197 0
174 198 0
174 197 0
173 197 0
175 198 0
176 198 0
177 199 0
175 198 0
175 198 0
172 197 0
175 198 0
173 197 0
174 198 0
175 198 0
175 198 0
175 198 0
176 199 0
173 197 0
175 198 0
174 198 0
174 198 0
175 198 0
175 198 0
175 198 0
173 197 0
175 198 0
173 197 0
176 198 0
173 197 0
177 199 0
175 198 0
173 197 0
174 198 0
174 198 0
174 198 0
174 198 0
175 198 0
175 198 0
174 197 0
175 198 0
172 197 0
174 198 0
174 198 0
172 197 0
174 198 0
173 197 0
175 198 0
174 197 0
173 197 0
174 196 0
176 199 0
175 198 0
172 196 0
176 199 0
172 197 0
172 197 0
174 197 0
174 197 0
177 199 0
175 198 0
177 199 0
174 197 0
175 198 0
174 197 0
175 198 0
174 198 0
174 198 0
172 196 0
175 198 0
176 199 0
174 197 0
176 198 0
176 198 0
173 197 0
177 199 0
174 197 0
177 199 0
173 197 0
174 198 0
174 198 0
174 198 0
177 199 0
174 197 0
173 197 0
174 198 0
172 197 0
173 197 0
176 199 0
174 198 0
174 197 0
173 197 0
176 198 0
176 198 0
174 198 0
173 197 0
175 197 0
174 197 0
177 199 0
173 197 0
173 197 0
175 198 0
174 197 0
176 199 0
174 198 0
174 197 0
174 198 0
175 198 0
175 198 0
175 198 0
175 198 0
174 198 0
174 198 0
174 198 0
173 197 0
176 199 0
173 197 0
175 198 0
174 197 0
176 198 0
174 198 0
174 198 0
174 198 0
174 198 0
175 198 0
173 197 0
175 198 0
172 196 0
172 196 0
174 198 0
173 197 0
173 197 0
171 196 0
174 197 0
175 198 0
177 199 0
173 197 0
172 197 0
176 199 0
177 199 0
175 198 0
173 197 0
174 197 0
175 198 0
173 197 0
175 198 0
173 197 0
175 198 0
175 198 0
174 198 0
176 199 0
176 199 0
174 198 0
174 198 0
175 198 0
173 197 0
174 197 0
174 198 0
176 199 0
173 197 0
173 197 0
175 198 0
175 198 0
174 198 0
174 198 0
174 198 0
173 197 0
173 197 0
174 197 0
175 198 0
172 196 0
174 197 0
174 198 0
175 198 0
172 196 0
173 197 0
174 198 0
174 198 0
173 197 0
172 196 0
174 198 0
174 198 0
176 198 0
174 198 0
173 197 0
176 199 0
173 197 0
173 197 0
174 197 0
175 198 0
176 199 0
172 196 0
175 198 0
173 197 0
173 197 0
175 198 0
173 197 0
171 196 0
173 197 0
175 198 0
176 198 0
174 197 0
176 198 0
174 198 0
174 197 0
176 199 0
176 199 0
174 198 0
174 198 0
173 197 0
177 199 0
173 197 0
173 197 0
172 196 0
175 198 0
175 198 0
173 197 0
175 198 0
174 198 0
176 198 0
175 198 0
174 198 0
175 198 0
178 200 0
174 198 0
175 198 0
174 197 0
175 198 0
177 198 0
173 197 0
176 199 0
172 197 0
174 198 0
177 199 0
174 198 0
177 199 0
175 197 0
175 198 0
175 198 0
175 198 0
172 197 0
173 197 0
174 197 0
175 198 0
174 198 0
175 198 0
176 198 0
175 198 0
176 199 0
174 197 0
175 198 0
176 199 0
176 199 0
173 197 0
176 199 0
174 198 0
174 197 0
176 199 0
175 198 0
175 198 0
175 198 0
174 197 0
174 198 0
175 198 0
175 198 0
174 198 0
174 198 0
174 198 0
170 196 0
172 197 0
174 197 0
173 197 0
175 198 0
174 198 0
175 198 0
174 198 0
174 198 0
176 198 0
175 198 0
171 196 0
173 197 0
175 198 0
173 197 0
172 197 0
174 198 0
173 197 0
175 198 0
175 198 0
177 199 0
175 198 0
175 198 0
173 197 0
177 199 0
174 198 0
175 198 0
173 197 0
174 197 0
174 198 0
175 198 0
174 197 0
175 198 0
172 197 0
172 197 0
176 199 0
173 197 0
175 198 0
175 198 0
176 199 0
176 198 0
176 199 0
173 197 0
174 198 0
176 199 0
176 199 0
174 197 0
178 200 0
175 198 0
175 198 0
174 198 0
176 199 0
175 198 0
174 198 0
174 198 0
176 199 0
174 198 0
172 197 0
177 199 0
174 198 0
177 199 0
174 197 0
175 198 0
178 200 0
174 197 0
172 197 0
174 198 0
175 198 0
173 197 0
175 198 0
176 198 0
174 198 0
171 196 0
174 198 0
174 198 0
174 197 0
172 197 0
175 198 0
173 197 0
173 197 0
173 197 0
175 198 0
175 198 0
174 197 0
173 197 0
173 197 0
174 198 0
172 197 0
173 197 0
177 199 0
173 197 0
175 198 0
174 198 0
173 197 0
177 199 0
173 197 0
174 198 0
175 198 0
177 199 0
172 197 0
175 198 0
176 199 0
174 198 0
173 197 0
172 197 0
175 198 0
174 198 0
173 197 0
175 198 0
173 197 0
175 198 0
174 198 0
176 199 0
175 198 0
177 199 0
173 197 0
174 198 0
174 198 0
173 197 0
175 198 0
174 197 0
174 198 0
174 197 0
174 198 0
176 198 0
172 197 0
176 199 0
176 199 0
176 199 0
174 197 0
175 198 0
175 198 0
174 198 0
173 197 0
174 198 0
176 198 0
174 197 0
175 198 0
173 197 0
176 198 0
173 197 0
175 198 0
175 198 0
174 197 0
175 198 0
175 198 0
174 197 0
175 198 0
174 197 0
176 198 0
173 197 0
176 199 0
174 198 0
175 198 0
175 198 0
175 198 0
175 198 0
172 197 0
172 197 0
175 198 0
175 198 0
176 198 0
176 199 0
174 198 0
174 197 0
173 197 0
176 198 0
175 198 0
173 197 0
173 197 0
174 197 0
172 196 0
173 197 0
176 199 0
175 198 0
174 198 0
173 197 0
173 196 0
175 198 0
176 199 0
174 197 0
176 199 0
175 198 0
176 199 0
173 197 0
174 198 0
174 198 0
176 198 0
171 196 0
173 197 0
172 197 0
176 199 0
176 198 0
173 197 0
175 198 0
175 198 0
174 198 0
173 197 0
175 198 0
171 196 0
174 198 0
174 198 0
173 197 0
175 197 0
173 197 0
176 199 0
175 197 0
176 199 0
174 198 0
172 197 0
174 198 0
174 198 0
171 196 0
172 196 0
175 198 0
176 199 0
175 198 0
175 198 0
175 198 0
173 197 0
175 198 0
174 198 0
175 198 0
173 197 0
174 197 0
174 198 0
174 198 0
177 199 0
175 198 0
173 197 0
176 198 0
175 198 0
173 197 0
174 197 0
178 200 0
175 198 0
173 197 0
173 196 0
175 198 0
173 197 0
175 198 0
175 198 0
175 198 0
172 196 0
173 197 0
176 199 0
176 198 0
174 198 0
173 197 0
174 197 0
174 198 0
173 197 0
174 197 0
173 197 0
172 196 0
175 198 0
176 199 0
174 198 0
175 198 0
174 198 0
175 198 0
177 199 0
176 198 0
173 197 0
173 197 0
174 198 0
175 198 0
176 199 0
173 197 0
173 196 0
175 198 0
177 199 0
176 199 0
173 197 0
175 198 0
175 198 0
175 198 0
176 199 0
171 195 0
176 199 0
173 197 0
175 198 0
175 198 0
176 199 0
173 197 0
177 199 0
174 198 0
174 198 0
175 198 0
173 197 0
177 199 0
174 198 0
174 198 0
175 198 0
174 198 0
176 198 0
174 198 0
173 197 0
174 198 0
176 199 0
177 199 0
174 198 0
172 197 0
177 199 0
175 197 0
173 197 0
174 197 0
173 196 0
175 198 0
173 197 0
174 198 0
174 198 0
175 198 0
175 198 0
174 198 0
173 196 0
174 197 0
175 198 0
174 198 0
174 198 0
173 197 0
175 198 0
175 198 0
174 197 0
176 198 0
174 198 0
175 198 0
175 198 0
174 198 0
175 198 0
175 198 0
173 197 0
173 197 0
175 198 0
174 198 0
175 198 0
173 196 0
175 198 0
174 198 0
175 198 0
175 198 0
174 198 0
179 200 0
174 198 0
173 197 0
174 197 0
173 197 0
175 198 0
174 197 0
174 197 0
175 198 0
174 197 0
174 198 0
177 199 0
173 197 0
177 199 0
174 198 0
175 198 0
174 197 0
176 199 0
174 197 0
174 198 0
174 197 0
174 198 0
175 198 0
174 197 0
173 197 0
173 197 0
173 197 0
174 198 0
174 197 0
174 198 0
174 198 0
175 198 0
172 196 0
173 197 0
174 198 0
175 198 0
176 198 0
175 198 0
177 199 0
173 197 0
176 198 0
173 196 0
174 198 0
174 198 0
175 198 0
174 198 0
173 197 0
174 198 0
171 196 0
173 197 0
177 199 0
174 198 0
174 198 0
174 197 0
175 198 0
173 196 0
174 197 0
175 198 0
175 198 0
173 197 0
172 197 0
174 197 0
173 197 0
174 198 0
172 197 0
174 198 0
176 199 0
172 196 0
175 198 0
173 197 0
174 197 0
173 197 0
172 197 0
174 197 0
176 199 0
175 198 0
173 197 0
178 200 0
176 199 0
176 199 0
175 198 0
176 199 0
173 197 0
172 196 0
174 198 0
176 199 0
176 199 0
173 197 0
175 198 0
174 198 0
172 196 0
173 197 0
173 197 0
175 198 0
173 197 0
178 199 0
177 199 0
174 198 0
175 198 0
173 197 0
176 198 0
175 198 0
176 199 0
175 198 0
175 198 0
173 197 0
173 197 0
174 197 0
176 198 0
177 199 0
175 198 0
175 198 0
173 197 0
173 197 0
174 198 0
175 198 0
174 198 0
175 198 0
176 199 0
174 197 0
175 198 0
177 199 0
172 196 0
174 198 0
175 198 0
174 197 0
176 198 0
172 197 0
175 198 0
173 197 0
174 198 0
175 198 0
176 199 0
172 196 0
173 197 0
172 197 0
173 197 0
175 198 0
176 199 0
175 198 0
174 198 0
175 198 0
174 197 0
175 198 0
175 198 0
174 197 0
174 198 0
174 198 0
174 198 0
174 198 0
174 198 0
174 197 0
176 198 0
173 197 0
174 198 0
176 199 0
174 198 0
176 198 0
175 198 0
176 199 0
174 198 0
176 199 0
176 199 0
175 198 0
175 198 0
174 198 0
177 199 0
173 197 0
174 198 0
176 198 0
173 197 0
174 197 0
175 198 0
174 198 0
172 196 0
174 198 0
175 198 0
175 198 0
173 197 0
177 199 0
174 198 0
176 199 0
174 198 0
173 197 0
176 199 0
175 198 0
177 199 0
174 197 0
174 198 0
177 199 0
174 198 0
174 198 0
175 198 0
176 199 0
174 198 0
176 199 0
173 197 0
173 197 0
174 198 0
176 198 0
173 197 0
173 197 0
175 198 0
175 198 0
173 197 0
175 198 0
175 198 0
175 198 0
173 197 0
175 198 0
175 198 0
174 198 0
176 199 0
172 197 0
172 197 0
174 197 0
174 198 0
174 198 0
173 197 0
175 198 0
175 198 0
174 198 0
175 198 0
176 198 0
174 198 0
173 197 0
174 198 0
174 197 0
173 197 0
173 197 0
174 197 0
176 199 0
174 197 0
174 197 0
173 197 0
176 198 0
174 197 0
175 198 0
172 197 0
175 198 0
176 199 0
177 199 0
175 198 0
176 199 0
175 198 0
174 198 0
175 198 0
176 199 0
173 197 0
174 198 0
177 199 0
173 197 0
175 198 0
175 198 0
174 198 0
174 198 0
175 198 0
175 198 0
175 198 0
174 198 0
175 198 0
173 197 0
175 198 0
175 198 0
174 197 0
175 198 0
173 197 0
175 198 0
176 199 0
175 198 0
173 197 0
174 198 0
173 197 0
173 197 0
172 197 0
174 197 0
173 197 0
173 197 0
174 198 0
173 197 0
174 198 0
176 199 0
174 197 0
175 198 0
173 197 0
174 197 0
174 198 0
176 199 0
177 199 0
173 197 0
175 198 0
171 196 0
174 197 0
176 198 0
174 198 0
174 198 0
177 199 0
175 198 0
173 197 0
174 198 0
172 196 0
172 197 0
174 198 0
176 199 0
175 198 0
173 197 0
176 199 0
174 198 0
173 196 0
175 198 0
174 198 0
175 198 0
173 196 0
174 198 0
175 198 0
175 198 0
174 197 0
173 197 0
174 198 0
174 197 0
175 198 0
173 196 0
172 196 0
174 198 0
176 199 0
174 197 0
175 198 0
173 196 0
175 198 0
171 196 0
175 198 0
176 199 0
174 197 0
175 198 0
176 198 0
176 199 0
175 198 0
173 197 0
172 197 0
175 198 0
174 198 0
174 198 0
175 197 0
173 197 0
172 196 0
173 197 0
174 197 0
175 198 0
176 198 0
177 199 0
175 198 0
176 199 0
174 198 0
176 199 0
176 198 0
175 197 0
173 197 0
173 197 0
174 198 0
174 198 0
175 198 0
175 198 0
177 199 0
174 197 0
173 197 0
172 196 0
173 197 0
175 198 0
175 198 0
172 197 0
172 197 0
175 198 0
177 199 0
173 197 0
174 198 0
174 197 0
175 198 0
174 198 0
174 197 0
172 196 0
174 198 0
176 198 0
173 197 0
175 198 0
170 195 0
173 197 0
173 197 0
175 198 0
175 198 0
174 198 0
172 196 0
174 197 0
175 198 0
177 199 0
175 198 0
173 197 0
174 198 0
175 198 0
175 198 0
174 198 0
175 198 0
174 197 0
175 198 0
174 198 0
174 198 0
173 197 0
175 198 0
173 197 0
172 195 0
172 197 0
175 198 0
178 200 0
175 198 0
174 198 0
174 197 0
173 197 0
173 197 0
173 197 0
176 199 0
175 198 0
174 198 0
174 197 0
173 197 0
173 197 0
174 198 0
173 197 0
174 198 0
176 198 0
176 199 0
173 197 0
173 197 0
175 198 0
174 198 0
174 198 0
172 196 0
175 198 0
173 196 0
175 198 0
175 198 0
174 198 0
173 197 0
175 198 0
177 199 0
175 198 0
176 198 0
175 198 0
174 198 0
175 198 0
177 199 0
175 198 0
172 197 0
175 198 0
174 197 0
175 198 0
176 199 0
176 198 0
176 199 0
174 198 0
174 198 0
175 198 0
173 197 0
175 198 0
177 199 0
175 198 0
173 197 0
174 197 0
175 198 0
175 198 0
175 198 0
172 197 0
173 197 0
174 198 0
175 198 0
176 199 0
174 197 0
173 197 0
175 198 0
175 198 0
175 198 0
176 199 0
173 197 0
174 198 0
175 198 0
173 197 0
175 198 0
177 199 0
174 198 0
174 198 0
174 198 0
174 198 0
175 198 0
174 198 0
175 198 0
175 198 0
174 198 0
176 199 0
172 197 0
176 199 0
176 199 0
175 198 0
175 198 0
176 199 0
175 198 0
175 198 0
175 198 0
173 197 0
175 197 0
174 198 0
174 197 0
176 198 0
178 199 0
178 200 0
174 197 0
173 197 0
175 198 0
175 198 0
175 198 0
176 198 0
175 198 0
172 196 0
176 199 0
174 198 0
177 199 0
174 197 0
174 197 0
175 198 0
178 200 0
176 199 0
172 197 0
177 199 0
173 197 0
174 198 0
175 198 0
175 198 0
176 199 0
175 198 0
175 198 0
175 198 0
174 197 0
174 197 0
174 198 0
175 198 0
174 197 0
176 199 0
175 198 0
175 198 0
175 198 0
174 197 0
173 197 0
173 197 0
171 196 0
176 199 0
175 198 0
174 198 0
175 198 0
173 197 0
175 198 0
174 198 0
172 197 0
176 199 0
177 199 0
175 198 0
175 198 0
173 197 0
174 197 0
176 198 0
176 199 0
172 196 0
175 198 0
174 197 0
173 197 0
173 197 0
176 199 0
176 198 0
175 198 0
176 199 0
174 198 0
177 199 0
176 199 0
175 198 0
176 199 0
176 199 0
176 198 0
173 197 0
176 199 0
173 197 0
175 198 0
174 197 0
174 197 0
173 197 0
174 197 0
176 199 0
172 197 0
175 198 0
174 197 0
174 197 0
174 198 0
173 197 0
173 197 0
175 198 0
175 198 0
174 198 0
175 198 0
176 198 0
175 198 0
172 196 0
176 198 0
176 199 0
174 197 0
174 197 0
174 197 0
173 197 0
175 198 0
176 199 0
175 198 0
175 198 0
175 198 0
176 198 0
174 198 0
175 198 0
173 196 0
174 198 0
173 197 0
174 197 0
175 198 0
172 196 0
177 199 0
174 198 0
174 198 0
173 196 0
173 197 0
173 197 0
171 195 0
171 196 0
173 197 0
175 198 0
172 197 0
175 198 0
174 198 0
176 199 0
176 199 0
174 198 0
173 197 0
173 197 0
177 199 0
174 198 0
175 198 0
175 198 0
173 197 0
173 197 0
174 198 0
170 195 0
176 199 0
174 198 0
175 198 0
174 197 0
175 198 0
176 199 0
175 198 0
172 196 0
176 199 0
175 198 0
171 195 0
172 195 0
176 199 0
174 198 0
176 198 0
175 198 0
173 197 0
176 199 0
174 198 0
173 197 0
174 198 0
174 198 0
175 198 0
174 198 0
175 197 0
175 198 0
175 198 0
176 198 0
174 198 0
174 197 0
174 197 0
175 198 0
174 198 0
175 198 0
172 197 0
174 197 0
173 197 0
172 197 0
173 196 0
175 198 0
173 196 0
175 198 0
175 198 0
176 198 0
175 198 0
175 198 0
175 198 0
175 198 0
176 199 0
176 199 0
174 198 0
174 198 0
175 198 0
175 198 0
174 198 0
172 197 0
173 197 0
175 197 0
174 198 0
172 196 0
175 198 0
174 197 0
176 199 0
177 199 0
175 198 0
176 199 0
176 199 0
175 198 0
175 198 0
173 197 0
175 198 0
175 198 0
175 198 0
175 198 0
172 197 0
176 198 0
174 197 0
174 198 0
175 198 0
174 197 0
175 198 0
176 198 0
173 197 0
174 198 0
174 198 0
174 198 0
176 198 0
174 197 0
176 199 0
174 197 0
174 197 0
177 199 0
175 198 0
174 198 0
175 198 0
176 198 0
177 198 0
174 198 0
175 198 0
175 198 0
173 197 0
175 198 0
173 197 0
174 198 0
173 197 0
177 199 0
174 197 0
173 197 0
172 197 0
173 197 0
177 199 0
176 199 0
175 198 0
173 197 0
177 199 0
174 197 0
177 199 0
176 199 0
175 198 0
175 198 0
177 199 0
174 197 0
174 198 0
175 198 0
176 199 0
176 198 0
176 198 0
174 198 0
173 197 0
172 197 0
173 197 0
175 198 0
175 198 0
173 197 0
175 198 0
174 197 0
174 198 0
176 199 0
174 198 0
173 197 0
175 198 0
173 197 0
174 197 0
176 198 0
175 198 0
174 198 0
175 198 0
174 197 0
174 197 0
175 198 0
177 199 0
176 198 0
175 198 0
175 198 0
176 198 0
175 198 0
175 198 0
175 198 0
172 197 0
173 197 0
176 198 0
174 198 0
173 197 0
174 198 0
177 199 0
174 198 0
176 199 0
175 198 0
175 198 0
175 198 0
176 199 0
175 198 0
173 197 0
175 198 0
176 199 0
176 199 0
173 197 0
176 199 0
175 198 0
174 198 0
176 199 0
174 197 0
173 197 0
173 197 0
173 197 0
172 196 0
174 197 0
173 197 0
176 198 0
174 198 0
175 198 0
176 199 0
176 199 0
172 196 0
175 198 0
174 197 0
175 198 0
172 197 0
172 197 0
173 197 0
177 199 0
174 198 0
175 198 0
176 199 0
172 197 0
176 199 0
175 198 0
174 198 0
176 198 0
175 198 0
176 198 0
175 198 0
174 197 0
175 198 0
176 199 0
173 197 0
175 198 0
175 198 0
177 199 0
175 198 0
175 198 0
174 198 0
174 198 0
173 197 0
175 198 0
174 197 0
175 198 0
174 198 0
174 198 0
176 199 0
175 198 0
178 200 0
174 198 0
176 198 0
175 198 0
174 198 0
173 197 0
175 198 0
174 197 0
173 197 0
173 197 0
175 198 0
174 198 0
178 199 0
175 198 0
175 198 0
175 198 0
174 198 0
175 198 0
173 197 0
174 198 0
175 198 0
174 198 0
178 200 0
174 197 0
174 198 0
175 198 0
175 198 0
175 198 0
173 197 0
176 199 0
175 198 0
173 197 0
175 198 0
174 197 0
173 197 0
176 199 0
174 198 0
174 198 0
174 197 0
174 197 0
175 198 0
173 197 0
175 198 0
176 199 0
174 198 0
174 198 0
174 198 0
175 198 0
173 197 0
174 197 0
173 197 0
177 199 0
177 199 0
177 199 0
178 199 0
174 197 0
175 198 0
175 198 0
174 197 0
173 197 0
176 198 0
173 197 0
175 198 0
173 197 0
175 198 0
176 199 0
174 198 0
177 199 0
175 198 0
175 198 0
171 195 0
176 199 0
176 199 0
174 197 0
173 197 0
174 197 0
173 197 0
176 199 0
175 198 0
174 198 0
174 198 0
175 198 0
176 199 0
172 197 0
173 197 0
176 198 0
176 199 0
174 198 0
176 199 0
174 198 0
176 198 0
176 199 0
173 197 0
175 198 0
173 197 0
174 198 0
176 199 0
175 198 0
175 198 0
172 197 0
174 197 0
174 198 0
175 198 0
173 197 0
173 197 0
175 198 0
175 198 0
174 197 0
173 197 0
175 198 0
176 199 0
176 199 0
176 199 0
174 198 0
174 197 0
174 198 0
175 198 0
173 197 0
174 198 0
174 198 0
176 199 0
174 198 0
174 197 0
175 198 0
174 197 0
176 198 0
175 198 0
174 198 0
174 197 0
173 197 0
177 199 0
174 198 0
175 198 0
175 198 0
174 197 0
172 197 0
175 198 0
175 198 0
175 198 0
176 198 0
174 198 0
175 198 0
175 198 0
175 198 0
174 198 0
175 198 0
174 198 0
174 197 0
177 199 0
174 198 0
177 199 0
177 199 0
175 198 0
175 198 0
172 196 0
172 197 0
174 197 0
176 198 0
176 199 0
172 197 0
174 198 0
172 197 0
176 199 0
176 199 0
175 198 0
175 198 0
173 197 0
176 199 0
172 197 0
172 196 0
175 198 0
177 199 0
174 198 0
174 198 0
175 198 0
172 197 0
174 198 0
173 197 0
173 197 0
174 198 0
174 198 0
174 197 0
174 198 0
173 197 0
176 199 0
172 197 0
174 198 0
176 199 0
175 198 0
174 198 0
175 198 0
171 195 0
174 198 0
172 197 0
173 197 0
171 196 0
174 198 0
173 197 0
176 199 0
176 198 0
172 196 0
173 197 0
174 198 0
177 199 0
173 197 0
173 197 0
176 198 0
173 197 0
172 196 0
174 197 0
172 197 0
174 197 0
174 198 0
176 199 0
175 197 0
175 198 0
173 197 0
176 199 0
173 197 0
175 198 0
175 198 0
175 198 0
174 197 0
175 198 0
173 197 0
174 198 0
174 198 0
173 197 0
174 198 0
175 198 0
174 197 0
175 198 0
174 198 0
176 199 0
175 198 0
175 198 0
176 199 0
174 197 0
175 198 0
173 197 0
173 197 0
174 198 0
174 198 0
175 198 0
172 197 0
175 198 0
174 198 0
175 198 0
173 197 0
174 198 0
174 197 0
175 198 0
175 198 0
175 198 0
177 199 0
174 197 0
174 198 0
172 197 0
173 197 0
171 196 0
175 198 0
176 199 0
174 197 0
175 198 0
175 198 0
175 198 0
174 197 0
174 197 0
173 197 0
173 197 0
174 197 0
176 199 0
174 198 0
176 198 0
177 199 0
175 198 0
176 199 0
174 198 0
174 198 0
172 196 0
173 197 0
176 199 0
175 198 0
174 197 0
176 199 0
176 199 0
176 199 0
175 198 0
175 198 0
172 197 0
174 197 0
174 198 0
175 198 0
175 198 0
173 197 0
175 198 0
173 197 0
175 198 0
177 199 0
173 197 0
173 197 0
174 197 0
174 197 0
176 199 0
174 197 0
176 198 0
173 197 0
176 199 0
174 198 0
174 198 0
177 199 0
172 197 0
176 199 0
174 197 0
174 198 0
173 197 0
173 196 0
176 199 0
173 197 0
177 199 0
175 198 0
175 198 0
175 198 0
174 197 0
174 198 0
177 199 0
173 197 0
174 198 0
177 199 0
173 197 0
173 197 0
175 197 0
174 198 0
175 198 0
175 198 0
173 197 0
174 197 0
177 199 0
176 199 0
175 198 0
173 197 0
174 198 0
175 198 0
174 197 0
172 196 0
178 200 0
175 198 0
173 197 0
175 198 0
174 198 0
174 198 0
177 199 0
175 198 0
172 197 0
174 198 0
175 198 0
175 198 0
174 198 0
175 198 0
175 198 0
173 197 0
174 198 0
176 199 0
174 197 0
175 198 0
173 197 0
172 197 0
176 199 0
173 197 0
176 199 0
174 197 0
173 197 0
175 198 0
174 198 0
174 198 0
172 196 0
172 196 0
174 198 0
172 197 0
174 198 0
174 198 0
175 198 0
175 198 0
177 199 0
175 198 0
175 198 0
172 197 0
176 199 0
175 198 0
175 198 0
174 197 0
175 198 0
174 197 0
176 199 0
173 197 0
175 198 0
173 197 0
174 198 0
174 198 0
174 198 0
174 197 0
175 198 0
175 198 0
173 197 0
172 197 0
173 197 0
174 197 0
173 197 0
173 197 0
174 198 0
174 198 0
175 198 0
174 198 0
174 198 0
176 199 0
170 195 0
174 198 0
173 197 0
175 198 0
174 197 0
173 197 0
176 198 0
175 198 0
174 198 0
174 198 0
174 197 0
174 197 0
175 198 0
174 198 0
172 197 0
175 198 0
176 199 0
174 198 0
174 197 0
175 198 0
175 198 0
174 198 0
175 198 0
174 198 0
174 198 0
172 197 0
174 198 0
175 198 0
174 198 0
174 198 0
174 198 0
175 198 0
173 197 0
174 198 0
178 200 0
177 199 0
174 197 0
174 198 0
175 198 0
177 199 0
175 198 0
173 197 0
174 198 0
174 198 0
174 198 0
176 198 0
172 197 0
176 199 0
175 198 0
175 198 0
175 198 0
176 198 0
177 199 0
174 198 0
174 198 0
174 197 0
175 198 0
174 198 0
175 198 0
174 198 0
175 198 0
175 198 0
174 197 0
174 198 0
174 198 0
176 199 0
174 198 0
175 198 0
174 197 0
175 198 0
176 199 0
174 197 0
172 197 0
174 198 0
173 197 0
172 197 0
174 198 0
173 197 0
173 197 0
173 197 0
174 198 0
175 198 0
176 198 0
174 198 0
176 198 0
175 198 0
173 197 0
172 197 0
173 197 0
174 197 0
173 197 0
174 197 0
174 198 0
176 199 0
172 197 0
171 195 0
172 197 0
173 197 0
176 199 0
175 198 0
175 198 0
172 197 0
175 198 0
174 197 0
174 198 0
177 199 0
175 198 0
175 198 0
173 197 0
176 199 0
176 198 0
175 198 0
174 198 0
174 197 0
177 199 0
176 199 0
175 198 0
176 199 0
176 199 0
174 197 0
176 199 0
174 198 0
174 197 0
173 197 0
174 197 0
174 197 0
174 197 0
174 197 0
175 198 0
174 198 0
175 198 0
174 198 0
175 198 0
174 197 0
174 198 0
174 198 0
175 198 0
172 196 0
175 198 0
175 198 0
173 197 0
173 197 0
176 198 0
175 198 0
175 198 0
175 198 0
174 198 0
173 197 0
176 198 0
176 199 0
175 198 0
173 197 0
173 196 0
176 199 0
175 198 0
174 198 0
173 197 0
172 197 0
174 197 0
174 198 0
172 196 0
175 198 0
173 197 0
174 197 0
175 198 0
175 198 0
174 198 0
175 198 0
170 194 0
174 198 0
175 198 0
176 198 0
173 197 0
172 197 0
174 198 0
174 197 0
173 197 0
175 198 0
176 199 0
175 198 0
172 196 0
175 198 0
175 198 0
176 198 0
174 198 0
177 199 0
174 197 0
173 197 0
177 199 0
173 197 0
175 198 0
174 197 0
173 196 0
174 197 0
176 198 0
175 198 0
173 197 0
173 196 0
175 198 0
176 198 0
175 198 0
174 198 0
175 197 0
174 198 0
173 196 0
175 198 0
174 197 0
173 197 0
175 198 0
174 197 0
174 197 0
173 197 0
173 197 0
177 199 0
172 196 0
175 198 0
175 198 0
175 198 0
173 197 0
175 198 0
174 198 0
173 197 0
174 197 0
177 199 0
176 198 0
176 198 0
173 196 0
175 198 0
175 198 0
174 197 0
174 198 0
175 198 0
175 198 0
176 199 0
176 198 0
175 198 0
175 198 0
173 197 0
174 197 0
173 197 0
176 198 0
174 198 0
172 197 0
174 197 0
174 198 0
174 197 0
177 199 0
175 198 0
173 197 0
172 197 0
177 199 0
173 197 0
175 198 0
175 198 0
172 196 0
175 198 0
174 197 0
172 196 0
174 197 0
172 197 0
175 198 0
174 198 0
173 195 0
174 198 0
178 200 0
173 197 0
177 199 0
173 197 0
175 198 0
175 198 0
174 198 0
175 198 0
176 199 0
174 198 0
174 198 0
175 198 0
175 198 0
175 198 0
174 197 0
175 198 0
175 198 0
175 198 0
177 199 0
177 199 0
174 197 0
175 198 0
174 198 0
175 198 0
173 197 0
172 196 0
175 198 0
174 198 0
173 197 0
175 198 0
174 197 0
175 198 0
175 198 0
175 198 0
175 198 0
172 197 0
174 198 0
174 198 0
174 197 0
174 198 0
176 199 0
173 197 0
176 199 0
174 198 0
174 197 0
176 199 0
174 198 0
174 197 0
172 197 0
175 198 0
175 198 0
174 198 0
176 199 0
176 199 0
174 198 0
175 198 0
175 198 0
175 198 0
175 198 0
174 198 0
174 197 0
174 198 0
175 198 0
173 197 0
175 198 0
175 198 0
174 197 0
174 197 0
172 196 0
175 198 0
175 198 0
173 197 0
176 199 0
173 197 0
172 197 0
174 198 0
174 197 0
176 198 0
174 198 0
173 197 0
175 198 0
174 198 0
172 197 0
175 198 0
173 197 0
175 198 0
175 198 0
174 198 0
177 199 0
173 197 0
176 199 0
175 198 0
175 198 0
172 196 0
175 198 0
175 198 0
176 198 0
173 197 0
174 198 0
173 197 0
175 198 0
178 200 0
174 197 0
173 197 0
173 197 0
175 198 0
174 197 0
173 197 0
175 198 0
174 198 0
172 197 0
175 198 0
176 199 0
175 198 0
176 199 0
176 199 0
175 198 0
175 198 0
174 198 0
175 198 0
176 199 0
174 198 0
175 198 0
175 198 0
175 198 0
175 198 0
174 197 0
173 197 0
174 198 0
174 198 0
176 198 0
175 198 0
174 198 0
173 196 0
174 198 0
174 198 0
176 199 0
173 197 0
172 196 0
174 198 0
173 197 0
173 197 0
174 198 0
171 196 0
174 198 0
174 197 0
172 197 0
175 198 0
173 197 0
175 198 0
174 198 0
173 197 0
173 197 0
174 198 0
176 199 0
175 198 0
176 199 0
173 197 0
176 199 0
176 199 0
177 199 0
174 198 0
173 197 0
173 197 0
173 197 0
174 198 0
173 197 0
173 197 0
174 197 0
174 198 0
175 198 0
174 198 0
174 197 0
176 198 0
174 198 0
174 197 0
176 199 0
177 199 0
175 198 0
174 198 0
174 198 0
173 197 0
175 198 0
174 197 0
172 197 0
174 197 0
176 198 0
174 198 0
173 197 0
173 197 0
174 198 0
173 197 0
176 199 0
175 198 0
175 198 0
172 197 0
175 198 0
173 196 0
175 198 0
176 199 0
173 197 0
173 197 0
173 197 0
172 196 0
176 199 0
175 198 0
172 197 0
175 198 0
175 198 0
173 197 0
174 198 0
174 197 0
173 197 0
175 198 0
172 197 0
172 197 0
177 199 0
175 198 0
173 197 0
177 199 0
175 198 0
175 198 0
174 198 0
173 197 0
176 199 0
175 198 0
175 198 0
174 198 0
175 198 0
173 197 0
176 199 0
173 197 0
175 198 0
174 198 0
174 198 0
176 199 0
174 198 0
175 198 0
176 199 0
175 198 0
172 197 0
175 198 0
174 197 0
175 198 0
175 198 0
175 198 0
174 197 0
175 197 0
177 199 0
174 197 0
172 196 0
174 198 0
172 197 0
173 197 0
176 199 0
177 199 0
174 197 0
176 198 0
175 198 0
174 198 0
174 198 0
173 197 0
174 197 0
172 197 0
174 198 0
176 198 0
174 198 0
174 198 0
174 197 0
176 199 0
175 198 0
175 198 0
173 197 0
176 199 0
173 197 0
177 199 0
174 198 0
173 197 0
174 197 0
175 197 0
174 197 0
175 198 0
174 197 0
175 198 0
172 197 0
174 197 0
176 199 0
175 198 0
173 197 0
174 198 0
173 197 0
175 198 0
172 197 0
172 197 0
176 199 0
174 198 0
176 198 0
176 198 0
175 198 0
173 197 0
176 198 0
174 198 0
174 197 0
175 198 0
173 197 0
173 197 0
176 198 0
174 197 0
177 199 0
177 199 0
173 197 0
177 199 0
172 197 0
175 198 0
172 196 0
174 198 0
175 198 0
175 198 0
175 198 0
173 197 0
174 198 0
176 199 0
176 199 0
174 198 0
176 198 0
174 198 0
173 197 0
175 198 0
175 198 0
174 197 0
175 197 0
173 197 0
172 197 0
173 196 0
174 198 0
175 198 0
174 198 0
176 199 0
174 198 0
176 199 0
174 198 0
174 198 0
175 198 0
175 198 0
176 199 0
173 197 0
173 197 0
175 198 0
175 198 0
173 196 0
174 198 0
176 198 0
174 198 0
176 199 0
174 198 0
174 197 0
175 198 0
175 198 0
175 198 0
173 197 0
173 196 0
175 198 0
176 199 0
174 198 0
174 196 0
174 198 0
175 198 0
173 197 0
176 198 0
175 198 0
175 198 0
176 199 0
175 198 0
175 198 0
173 196 0
172 197 0
174 197 0
174 198 0
174 197 0
174 198 0
173 197 0
175 198 0
173 197 0
173 197 0
175 198 0
173 197 0
172 197 0
176 199 0
176 199 0
173 197 0
174 197 0
174 197 0
174 196 0
174 198 0
172 196 0
173 196 0
174 198 0
175 198 0
173 197 0
174 197 0
175 198 0
173 197 0
174 198 0
172 196 0
176 199 0
174 197 0
173 197 0
176 198 0
174 198 0
174 197 0
171 193 0
174 198 0
174 197 0
175 198 0
174 197 0
173 197 0
175 198 0
174 197 0
172 196 0
173 197 0
172 196 0
174 197 0
174 198 0
172 197 0
173 197 0
172 196 0
175 198 0
176 199 0
174 197 0
175 198 0
175 198 0
175 197 0
175 197 0
175 198 0
174 198 0
174 198 0
173 197 0
175 198 0
175 198 0
174 198 0
174 197 0
174 197 0
175 198 0
174 198 0
173 197 0
173 197 0
175 198 0
177 199 0
175 198 0
176 199 0
175 198 0
173 197 0
173 197 0
175 198 0
172 197 0
174 198 0
175 198 0
174 198 0
175 198 0
172 197 0
172 197 0
173 197 0
174 198 0
174 197 0
175 198 0
174 198 0
176 199 0
175 198 0
176 198 0
174 197 0
175 198 0
174 198 0
175 198 0
176 199 0
174 198 0
175 198 0
176 198 0
174 197 0
177 199 0
174 198 0
175 198 0
173 197 0
174 198 0
173 197 0
175 198 0
176 199 0
176 199 0
174 198 0
173 197 0
175 198 0
172 197 0
175 198 0
175 198 0
175 198 0
175 198 0
175 198 0
174 198 0
177 199 0
175 198 0
177 199 0
175 198 0
176 199 0
175 198 0
176 199 0
178 200 0
176 198 0
172 196 0
176 199 0
174 198 0
173 197 0
175 198 0
174 198 0
174 197 0
174 197 0
175 198 0
176 199 0
174 198 0
175 198 0
174 198 0
174 197 0
175 198 0
174 197 0
175 198 0
172 196 0
173 197 0
172 197 0
174 198 0
173 197 0
174 197 0
174 197 0
175 198 0
175 198 0
173 197 0
175 198 0
175 198 0
173 197 0
175 198 0
175 198 0
176 199 0
176 198 0
176 198 0
175 198 0
175 198 0
176 199 0
175 198 0
176 198 0
172 196 0
174 198 0
173 197 0
177 199 0
172 197 0
176 199 0
174 197 0
174 198 0
175 198 0
175 198 0
174 197 0
175 198 0
174 198 0
172 197 0
175 198 0
172 196 0
177 199 0
174 197 0
173 197 0
176 199 0
173 197 0
173 197 0
176 199 0
175 198 0
175 198 0
174 197 0
175 198 0
172 197 0
177 199 0
173 197 0
176 198 0
178 200 0
175 198 0
175 198 0
172 196 0
174 198 0
174 197 0
175 198 0
171 196 0
173 197 0
174 198 0
175 198 0
176 198 0
175 197 0
175 198 0
172 197 0
175 198 0
174 198 0
175 198 0
174 198 0
174 198 0
176 198 0
173 197 0
173 197 0
174 197 0
174 197 0
175 197 0
177 199 0
174 198 0
176 198 0
175 198 0
172 197 0
174 197 0
176 198 0
173 197 0
172 196 0
175 198 0
175 198 0
175 198 0
174 198 0
175 198 0
175 198 0
174 198 0
172 197 0
175 198 0
174 198 0
172 196 0
173 197 0
174 198 0
175 198 0
175 198 0
173 196 0
176 198 0
177 199 0
176 198 0
176 199 0
176 199 0
173 197 0
175 198 0
176 199 0
173 197 0
176 199 0
175 198 0
177 199 0
173 197 0
172 197 0
176 198 0
174 198 0
173 197 0
175 198 0
175 198 0
176 199 0
173 197 0
174 197 0
175 198 0
174 197 0
173 197 0
175 198 0
173 197 0
173 197 0
175 198 0
176 199 0
175 198 0
173 197 0
175 198 0
174 198 0
174 198 0
175 197 0
174 198 0
173 197 0
175 198 0
175 198 0
172 197 0
175 198 0
173 196 0
176 199 0
174 198 0
173 196 0
174 198 0
175 198 0
174 198 0
175 198 0
175 198 0
174 198 0
173 197 0
172 196 0
175 198 0
173 197 0
177 199 0
178 200 0
174 198 0
175 198 0
176 199 0
177 199 0
173 197 0
175 198 0
175 198 0
175 198 0
171 196 0
175 198 0
174 198 0
174 198 0
176 199 0
174 198 0
177 199 0
175 198 0
173 197 0
174 198 0
175 198 0
175 198 0
175 198 0
177 199 0
174 198 0
174 198 0
175 198 0
174 198 0
175 198 0
173 197 0
173 197 0
175 198 0
172 196 0
172 196 0
175 198 0
175 198 0
175 198 0
176 199 0
172 196 0
172 196 0
174 197 0
173 197 0
174 198 0
174 198 0
175 198 0
175 198 0
175 198 0
175 198 0
174 198 0
173 197 0
173 197 0
174 198 0
173 197 0
174 198 0
173 197 0
175 198 0
175 198 0
173 197 0
173 197 0
173 197 0
173 197 0
176 199 0
175 198 0
174 198 0
174 197 0
176 198 0
175 198 0
175 198 0
174 198 0
176 199 0
174 198 0
174 198 0
172 197 0
175 198 0
174 198 0
174 198 0
175 198 0
172 196 0
176 198 0
174 198 0
175 198 0
173 197 0
174 197 0
173 197 0
174 197 0
176 199 0
176 198 0
176 198 0
174 198 0
175 198 0
176 199 0
173 197 0
174 198 0
174 198 0
174 198 0
176 199 0
175 198 0
174 197 0
175 198 0
177 199 0
177 199 0
175 198 0
175 198 0
172 197 0
175 198 0
170 195 0
174 198 0
174 198 0
172 196 0
174 198 0
171 196 0
173 197 0
174 198 0
174 197 0
174 198 0
174 198 0
174 198 0
171 194 0
174 198 0
175 198 0
174 198 0
172 197 0
177 199 0
174 198 0
174 198 0
173 197 0
174 197 0
173 197 0
173 197 0
172 197 0
174 198 0
174 198 0
177 199 0
174 198 0
173 197 0
174 197 0
177 199 0
174 198 0
173 197 0
171 195 0
172 196 0
176 199 0
172 197 0
172 197 0
172 197 0
172 196 0
173 197 0
174 198 0
173 197 0
173 197 0
174 198 0
175 198 0
173 197 0
175 198 0
174 197 0
175 198 0
173 197 0
174 198 0
175 198 0
177 199 0
176 199 0
172 196 0
175 198 0
172 197 0
173 197 0
173 197 0
176 199 0
176 198 0
175 198 0
174 197 0
173 197 0
176 199 0
174 198 0
174 198 0
174 198 0
173 196 0
173 197 0
175 198 0
173 197 0
174 198 0
174 198 0
175 198 0
173 197 0
175 198 0
172 196 0
174 198 0
176 199 0
174 198 0
175 198 0
175 198 0
175 198 0
176 199 0
174 198 0
172 197 0
174 198 0
175 198 0
173 197 0
176 198 0
172 197 0
174 197 0
174 197 0
176 199 0
176 199 0
174 198 0
174 197 0
174 198 0
173 197 0
177 199 0
173 197 0
175 198 0
173 197 0
175 198 0
175 198 0
175 198 0
174 197 0
175 198 0
175 198 0
176 198 0
173 197 0
175 198 0
174 198 0
174 198 0
178 200 0
175 198 0
175 198 0
175 198 0
174 197 0
175 198 0
175 198 0
173 197 0
173 197 0
176 199 0
177 199 0
174 197 0
172 196 0
172 196 0
174 198 0
176 199 0
176 197 0
173 197 0
175 198 0
175 198 0
172 196 0
174 198 0
175 198 0
177 199 0
176 198 0
175 198 0
177 199 0
174 198 0
175 198 0
175 198 0
175 198 0
173 197 0
173 197 0
176 199 0
173 196 0
177 199 0
174 197 0
175 198 0
175 198 0
173 197 0
175 198 0
175 198 0
176 198 0
176 199 0
176 199 0
175 198 0
177 199 0
174 198 0
173 197 0
175 198 0
175 198 0
174 198 0
175 198 0
172 197 0
173 197 0
174 198 0
174 198 0
173 197 0
174 198 0
176 198 0
174 198 0
172 197 0
173 197 0
173 197 0
175 198 0
174 198 0
174 198 0
175 198 0
171 196 0
176 199 0
176 199 0
175 198 0
176 199 0
173 197 0
174 197 0
173 197 0
172 195 0
174 197 0
175 198 0
176 198 0
172 196 0
176 199 0
173 197 0
174 197 0
175 198 0
174 198 0
175 198 0
175 198 0
179 200 0
176 199 0
173 197 0
177 199 0
173 196 0
175 198 0
177 199 0
175 198 0
174 198 0
175 198 0
173 197 0
175 198 0
173 197 0
176 199 0
175 198 0
174 198 0
175 198 0
174 197 0
174 197 0
177 199 0
175 198 0
174 197 0
174 198 0
176 199 0
177 199 0
173 196 0
176 198 0
176 199 0
174 197 0
175 198 0
173 197 0
175 198 0
176 199 0
175 198 0
174 198 0
177 199 0
174 198 0
172 196 0
174 198 0
176 199 0
173 197 0
176 198 0
173 196 0
175 198 0
173 197 0
177 199 0
174 198 0
177 199 0
174 198 0
175 198 0
175 198 0
171 195 0
178 200 0
174 198 0
173 197 0
174 197 0
172 196 0
174 197 0
175 198 0
174 197 0
175 198 0
172 196 0
176 199 0
176 199 0
174 198 0
174 197 0
174 196 0
174 198 0
174 197 0
174 198 0
176 198 0
175 198 0
174 197 0
175 198 0
175 198 0
174 198 0
173 197 0
174 198 0
171 195 0
176 199 0
174 198 0
174 197 0
173 197 0
176 199 0
174 197 0
178 200 0
174 197 0
174 197 0
173 197 0
173 197 0
175 198 0
173 197 0
174 197 0
173 196 0
173 197 0
173 197 0
175 198 0
174 198 0
174 197 0
175 198 0
173 196 0
175 198 0
176 199 0
174 197 0
176 199 0
174 198 0
174 198 0
174 198 0
176 199 0
174 198 0
172 197 0
172 197 0
174 198 0
176 199 0
174 197 0
173 197 0
174 198 0
175 198 0
175 198 0
176 198 0
174 198 0
176 199 0
176 199 0
174 198 0
174 198 0
174 197 0
174 198 0
174 198 0
174 198 0
173 197 0
173 197 0
174 198 0
174 198 0
176 198 0
176 198 0
176 199 0
174 198 0
174 197 0
174 198 0
174 198 0
174 198 0
173 197 0
174 197 0
177 199 0
174 197 0
172 196 0
177 199 0
174 197 0
175 198 0
176 199 0
174 198 0
175 198 0
175 198 0
173 197 0
175 198 0
176 199 0
172 197 0
175 198 0
174 197 0
173 197 0
174 197 0
176 198 0
173 197 0
173 197 0
174 196 0
176 198 0
174 198 0
173 197 0
174 197 0
174 198 0
174 197 0
173 197 0
176 199 0
174 197 0
176 199 0
175 198 0
175 198 0
174 198 0
176 199 0
174 198 0
175 198 0
173 197 0
175 198 0
175 198 0
173 197 0
173 196 0
175 198 0
175 198 0
174 198 0
172 196 0
175 198 0
173 197 0
178 200 0
176 199 0
174 198 0
175 198 0
174 198 0
174 197 0
177 199 0
174 198 0
175 197 0
176 198 0
175 198 0
176 199 0
174 197 0
173 197 0
173 197 0
175 198 0
174 197 0
174 198 0
172 196 0
175 198 0
174 198 0
175 198 0
173 197 0
174 198 0
173 197 0
173 196 0
175 198 0
175 198 0
176 198 0
173 196 0
174 197 0
174 197 0
173 197 0
174 197 0
172 197 0
176 198 0
174 198 0
173 197 0
177 199 0
175 198 0
173 197 0
176 199 0
175 198 0
174 198 0
176 199 0
174 198 0
173 197 0
174 197 0
173 197 0
174 197 0
174 198 0
176 198 0
174 197 0
174 198 0
173 197 0
175 198 0
172 196 0
173 197 0
175 198 0
174 198 0
174 198 0
175 198 0
174 198 0
175 198 0
173 197 0
173 197 0
173 197 0
173 197 0
175 198 0
175 198 0
173 197 0
176 199 0
174 198 0
174 198 0
177 199 0
175 198 0
175 198 0
176 198 0
174 198 0
176 198 0
174 198 0
174 197 0
176 199 0
172 196 0
176 199 0
175 198 0
173 197 0
173 197 0
172 195 0
172 197 0
176 199 0
173 197 0
174 198 0
174 198 0
175 198 0
176 199 0
176 198 0
174 197 0
176 199 0
173 197 0
175 198 0
176 199 0
176 198 0
176 199 0
174 198 0
174 198 0
174 197 0
178 200 0
174 198 0
175 198 0
173 196 0
173 197 0
176 199 0
175 198 0
175 198 0
175 198 0
175 198 0
175 198 0
177 199 0
174 197 0
172 197 0
175 198 0
175 198 0
175 198 0
173 197 0
177 199 0
173 197 0
175 198 0
175 198 0
174 198 0
176 198 0
175 198 0
175 198 0
175 198 0
175 198 0
175 198 0
178 200 0
173 197 0
175 198 0
173 197 0
175 198 0
174 198 0
176 198 0
176 199 0
173 197 0
173 197 0
176 199 0
178 200 0
173 197 0
175 198 0
174 198 0
175 198 0
175 198 0
173 197 0
172 197 0
175 198 0
175 198 0
174 198 0
175 198 0
176 199 0
173 197 0
173 197 0
173 197 0
173 197 0
177 199 0
175 198 0
175 198 0
174 197 0
174 198 0
176 199 0
172 197 0
172 197 0
175 198 0
175 198 0
172 197 0
174 198 0
176 199 0
175 198 0
175 198 0
174 198 0
176 199 0
173 197 0
174 198 0
174 198 0
172 197 0
176 198 0
174 198 0
176 198 0
173 197 0
174 198 0
176 199 0
173 197 0
176 198 0
173 197 0
173 197 0
177 199 0
176 199 0
175 198 0
173 197 0
176 198 0
175 198 0
174 197 0
174 198 0
175 198 0
173 197 0
175 198 0
176 199 0
176 199 0
177 199 0
175 198 0
175 198 0
177 199 0
174 198 0
172 197 0
175 198 0
172 197 0
173 197 0
176 199 0
173 197 0
175 198 0
173 197 0
174 197 0
174 197 0
174 198 0
174 198 0
174 197 0
174 198 0
173 197 0
174 198 0
176 198 0
177 199 0
173 197 0
176 199 0
174 198 0
174 198 0
173 197 0
174 198 0
173 197 0
174 198 0
175 198 0
173 197 0
174 198 0
173 197 0
176 199 0
174 197 0
175 198 0
174 198 0
174 198 0
175 198 0
174 198 0
174 198 0
175 198 0
175 198 0
171 195 0
175 198 0
172 196 0
176 198 0
173 197 0
173 197 0
174 198 0
175 198 0
173 197 0
175 198 0
178 200 0
175 198 0
174 197 0
176 198 0
174 198 0
174 197 0
175 198 0
176 199 0
174 197 0
173 197 0
173 197 0
174 198 0
174 198 0
173 197 0
175 198 0
175 198 0
175 198 0
175 198 0
175 198 0
175 198 0
174 198 0
172 196 0
175 198 0
175 198 0
176 199 0
175 198 0
175 198 0
175 198 0
173 197 0
176 198 0
176 199 0
172 197 0
173 197 0
174 197 0
174 197 0
175 198 0
175 198 0
176 199 0
173 197 0
175 198 0
174 197 0
174 198 0
175 198 0
177 199 0
177 199 0
177 199 0
174 197 0
173 197 0
173 197 0
174 198 0
174 198 0
175 198 0
176 198 0
175 198 0
175 198 0
175 198 0
176 198 0
173 197 0
175 198 0
175 198 0
174 198 0
174 198 0
174 197 0
177 199 0
172 197 0
174 198 0
174 197 0
174 197 0
175 198 0
173 197 0
176 198 0
173 197 0
172 195 0
173 197 0
174 198 0
173 197 0
174 198 0
173 197 0
176 199 0
172 197 0
174 198 0
174 197 0
174 198 0
175 198 0
175 198 0
175 197 0
174 198 0
176 199 0
172 197 0
174 198 0
174 197 0
176 199 0
175 198 0
176 198 0
174 198 0
175 198 0
173 196 0
174 197 0
174 197 0
176 198 0
172 196 0
174 197 0
176 199 0
173 197 0
173 197 0
176 198 0
171 195 0
174 198 0
176 199 0
175 197 0
173 197 0
175 198 0
172 196 0
174 197 0
174 198 0
173 197 0
175 198 0
173 197 0
174 198 0
175 197 0
174 198 0
177 199 0
173 197 0
173 197 0
176 198 0
173 197 0
174 198 0
175 198 0
177 199 0
174 198 0
175 198 0
176 198 0
171 196 0
173 197 0
174 197 0
177 199 0
175 198 0
176 198 0
174 198 0
174 198 0
171 195 0
175 198 0
175 198 0
173 197 0
176 199 0
174 198 0
175 198 0
174 197 0
176 199 0
174 197 0
174 197 0
172 197 0
174 197 0
172 196 0
173 197 0
176 198 0
176 198 0
175 198 0
176 199 0
174 197 0
173 197 0
174 198 0
175 198 0
173 197 0
174 198 0
173 197 0
174 197 0
172 196 0
175 198 0
175 198 0
174 198 0
174 198 0
175 198 0
174 198 0
173 197 0
172 197 0
174 197 0
174 198 0
174 198 0
176 198 0
176 199 0
174 198 0
176 199 0
173 197 0
172 196 0
176 199 0
173 197 0
173 197 0
173 197 0
173 197 0
174 196 0
176 198 0
173 196 0
175 198 0
175 198 0
172 196 0
174 198 0
173 197 0
172 196 0
177 199 0
176 198 0
175 198 0
175 198 0
174 198 0
174 198 0
176 199 0
174 197 0
173 197 0
173 197 0
174 197 0
174 197 0
174 198 0
170 196 0
177 199 0
175 198 0
173 197 0
174 197 0
174 198 0
173 197 0
174 198 0
175 198 0
175 198 0
173 197 0
174 198 0
175 198 0
173 197 0
176 199 0
174 197 0
176 199 0
173 197 0
175 198 0
174 197 0
174 198 0
174 198 0
177 199 0
177 199 0
173 197 0
173 197 0
172 196 0
173 197 0
174 197 0
172 197 0
173 197 0
174 198 0
174 197 0
174 198 0
175 198 0
174 198 0
175 198 0
173 197 0
174 197 0
174 198 0
174 198 0
175 198 0
173 197 0
176 199 0
175 198 0
174 198 0
174 198 0
174 198 0
174 198 0
173 197 0
175 198 0
174 197 0
175 198 0
175 198 0
177 199 0
176 198 0
176 199 0
175 198 0
175 198 0
174 198 0
173 197 0
175 198 0
173 197 0
175 198 0
175 198 0
177 199 0
173 197 0
174 198 0
174 198 0
173 197 0
176 199 0
173 197 0
175 198 0
174 198 0
173 197 0
173 197 0
174 198 0
176 198 0
174 198 0
176 198 0
172 197 0
174 198 0
175 198 0
176 199 0
174 198 0
174 197 0
178 200 0
177 199 0
174 198 0
175 198 0
175 197 0
175 198 0
174 197 0
174 197 0
175 198 0
176 199 0
172 195 0
175 198 0
173 197 0
176 199 0
174 197 0
174 197 0
174 198 0
173 197 0
175 198 0
173 197 0
174 198 0
175 198 0
174 197 0
173 196 0
175 198 0
173 197 0
174 198 0
174 197 0
175 198 0
175 198 0
175 198 0
173 197 0
176 199 0
173 197 0
175 198 0
176 199 0
175 198 0
175 198 0
173 197 0
175 198 0
178 200 0
174 198 0
175 198 0
173 197 0
175 198 0
172 197 0
175 198 0
174 197 0
175 198 0
176 198 0
175 198 0
176 199 0
173 197 0
174 198 0
175 198 0
176 198 0
177 199 0
174 198 0
175 198 0
176 199 0
175 198 0
173 197 0
173 197 0
175 198 0
175 198 0
173 197 0
175 197 0
176 199 0
177 199 0
173 197 0
174 198 0
174 198 0
176 199 0
173 197 0
174 198 0
172 196 0
174 197 0
175 198 0
175 198 0
174 198 0
172 196 0
173 197 0
173 197 0
173 197 0
173 197 0
174 198 0
174 198 0
174 197 0
174 197 0
175 198 0
175 198 0
173 197 0
174 197 0
175 198 0
173 197 0
173 197 0
175 198 0
174 198 0
175 198 0
175 197 0
176 199 0
174 198 0
177 199 0
175 198 0
174 198 0
175 198 0
172 197 0
174 198 0
175 198 0
176 199 0
175 198 0
175 198 0
175 198 0
176 199 0
174 197 0
173 197 0
174 198 0
175 198 0
176 198 0
174 197 0
173 197 0
173 196 0
175 198 0
173 197 0
173 196 0
177 199 0
174 198 0
175 198 0
174 198 0
175 198 0
175 198 0
175 198 0
174 198 0
174 198 0
174 197 0
175 198 0
176 199 0
173 197 0
175 198 0
176 199 0
171 195 0
177 199 0
174 197 0
176 199 0
175 198 0
175 198 0
173 197 0
176 198 0
175 198 0
175 198 0
173 197 0
175 198 0
173 197 0
176 199 0
173 197 0
174 197 0
176 198 0
172 197 0
173 197 0
173 197 0
175 198 0
174 198 0
172 197 0
178 200 0
173 197 0
173 197 0
174 198 0
175 198 0
175 198 0
174 198 0
175 198 0
175 198 0
175 198 0
173 197 0
173 197 0
171 196 0
176 199 0
175 198 0
175 198 0
176 199 0
174 198 0
174 198 0
177 199 0
172 197 0
176 199 0
173 197 0
176 199 0
172 195 0
173 196 0
176 199 0
175 198 0
173 197 0
175 198 0
175 198 0
174 197 0
174 198 0
176 198 0
175 198 0
174 198 0
173 197 0
175 198 0
175 198 0
175 197 0
176 199 0
174 197 0
172 197 0
177 199 0
174 198 0
175 198 0
173 197 0
175 198 0
176 198 0
172 197 0
173 197 0
174 198 0
175 198 0
174 197 0
173 197 0
175 198 0
173 197 0
173 196 0
175 198 0
176 199 0
173 196 0
171 195 0
175 198 0
174 197 0
176 198 0
175 197 0
175 198 0
176 198 0
175 198 0
174 198 0
173 197 0
176 199 0
175 198 0
174 198 0
173 197 0
177 199 0
175 198 0
176 199 0
170 194 0
172 197 0
173 197 0
173 197 0
173 197 0
176 199 0
172 197 0
173 197 0
174 198 0
175 198 0
177 199 0
174 197 0
175 198 0
173 197 0
173 197 0
175 198 0
172 197 0
175 198 0
173 197 0
173 197 0
172 197 0
174 197 0
176 199 0
175 198 0
173 197 0
175 197 0
175 197 0
171 196 0
175 198 0
174 197 0
173 197 0
175 198 0
174 198 0
176 199 0
174 197 0
173 197 0
174 197 0
175 198 0
172 196 0
173 196 0
177 199 0
174 198 0
172 197 0
172 196 0
172 196 0
174 198 0
173 197 0
173 196 0
176 199 0
176 198 0
174 197 0
172 195 0
175 198 0
173 197 0
175 198 0
172 197 0
175 198 0
176 199 0
173 197 0
175 198 0
173 197 0
174 197 0
176 199 0
173 197 0
173 197 0
174 198 0
173 196 0
176 199 0
175 198 0
173 197 0
176 199 0
174 198 0
172 197 0
174 198 0
175 198 0
175 198 0
173 197 0
176 199 0
175 198 0
175 198 0
174 198 0
174 198 0
175 198 0
175 198 0
176 199 0
176 199 0
176 199 0
174 197 0
174 197 0
174 197 0
175 198 0
174 198 0
172 196 0
176 199 0
176 199 0
176 198 0
175 198 0
175 198 0
177 199 0
177 199 0
177 199 0
173 197 0
173 197 0
175 198 0
175 198 0
173 197 0
175 198 0
174 198 0
176 198 0
174 198 0
174 198 0
174 197 0
172 197 0
176 199 0
173 196 0
174 198 0
173 197 0
176 199 0
171 196 0
175 198 0
177 199 0
174 198 0
176 199 0
173 197 0
174 198 0
174 198 0
174 198 0
174 198 0
174 197 0
174 198 0
174 198 0
177 199 0
173 197 0
176 199 0
175 198 0
174 197 0
175 198 0
175 198 0
175 198 0
172 197 0
173 197 0
178 200 0
175 198 0
174 198 0
174 198 0
175 198 0
174 197 0
176 199 0
175 198 0
174 197 0
175 198 0
175 198 0
174 198 0
178 200 0
173 197 0
174 198 0
173 197 0
174 197 0
176 199 0
174 198 0
177 199 0
171 196 0
175 198 0
176 199 0
173 197 0
172 196 0
173 197 0
174 198 0
176 199 0
176 199 0
175 198 0
174 198 0
173 197 0
175 198 0
172 196 0
175 198 0
174 198 0
175 198 0
173 197 0
174 198 0
176 198 0
174 198 0
175 198 0
174 197 0
175 198 0
174 198 0
174 197 0
173 197 0
175 198 0
173 197 0
173 197 0
174 197 0
174 198 0
179 200 0
173 197 0
176 198 0
173 197 0
174 198 0
172 196 0
174 198 0
172 195 0
174 198 0
173 197 0
174 198 0
176 199 0
177 199 0
176 198 0
173 197 0
176 198 0
175 198 0
175 198 0
176 199 0
172 197 0
177 199 0
175 198 0
173 197 0
174 197 0
174 198 0
176 199 0
175 198 0
176 199 0
172 197 0
174 197 0
174 197 0
174 198 0
176 199 0
176 199 0
174 198 0
177 199 0
173 197 0
172 196 0
177 199 0
176 198 0
175 198 0
173 197 0
173 197 0
176 199 0
176 199 0
177 199 0
175 198 0
174 198 0
177 199 0
175 198 0
174 198 0
175 198 0
174 197 0
173 197 0
175 198 0
174 198 0
172 196 0
173 197 0
177 199 0
176 199 0
173 197 0
174 198 0
175 198 0
174 197 0
174 198 0
174 198 0
173 197 0
172 196 0
174 198 0
174 198 0
174 198 0
176 198 0
175 198 0
173 196 0
177 199 0
174 197 0
175 198 0
174 198 0
173 197 0
173 197 0
174 198 0
174 197 0
174 198 0
176 199 0
175 198 0
175 198 0
176 199 0
171 195 0
174 198 0
177 199 0
172 197 0
175 198 0
171 195 0
174 197 0
172 197 0
175 198 0
175 198 0
173 197 0
171 196 0
175 198 0
174 197 0
173 195 0
175 198 0
174 198 0
174 197 0
172 195 0
176 198 0
174 197 0
175 198 0
174 198 0
176 199 0
175 198 0
174 198 0
173 197 0
175 197 0
172 197 0
174 197 0
172 197 0
175 198 0
172 197 0
173 196 0
174 198 0
174 198 0
177 199 0
173 197 0
173 197 0
174 197 0
174 197 0
175 198 0
173 197 0
175 197 0
175 198 0
173 197 0
174 198 0
175 198 0
175 198 0
173 197 0
175 198 0
173 197 0
174 198 0
173 196 0
176 199 0
174 198 0
174 198 0
175 198 0
173 197 0
174 197 0
172 197 0
178 200 0
173 197 0
175 198 0
174 198 0
175 198 0
171 194 0
173 197 0
175 198 0
175 198 0
175 198 0
175 197 0
175 198 0
172 197 0
175 198 0
176 199 0
175 198 0
173 197 0
175 198 0
173 197 0
173 197 0
172 197 0
175 198 0
173 197 0
177 199 0
173 196 0
172 196 0
176 199 0
174 197 0
173 197 0
175 198 0
175 198 0
173 197 0
176 198 0
174 198 0
172 196 0
174 198 0
175 198 0
177 199 0
172 196 0
173 197 0
174 198 0
173 197 0
174 197 0
175 198 0
174 198 0
175 198 0
174 198 0
174 197 0
175 198 0
174 198 0
173 197 0
174 198 0
174 197 0
175 198 0
174 198 0
173 197 0
176 198 0
175 198 0
173 197 0
175 198 0
174 198 0
174 198 0
176 198 0
173 197 0
175 198 0
173 197 0
174 198 0
175 198 0
174 198 0
173 197 0
174 198 0
176 198 0
177 199 0
174 198 0
174 197 0
171 196 0
176 198 0
177 199 0
172 197 0
174 197 0
175 198 0
173 197 0
175 198 0
176 199 0
175 198 0
172 196 0
177 199 0
175 198 0
174 198 0
174 197 0
172 197 0
175 198 0
175 198 0
170 195 0
175 198 0
175 198 0
175 198 0
175 198 0
174 198 0
175 197 0
175 198 0
173 197 0
172 196 0
175 198 0
175 198 0
173 197 0
174 198 0
174 198 0
173 197 0
176 199 0
173 197 0
173 197 0
173 197 0
175 198 0
174 197 0
172 196 0
172 196 0
174 198 0
176 198 0
173 197 0
174 197 0
173 197 0
174 197 0
173 197 0
176 198 0
175 198 0
175 198 0
176 199 0
174 197 0
175 198 0
174 198 0
173 197 0
174 198 0
174 198 0
173 197 0
175 198 0
173 197 0
174 198 0
176 198 0
176 199 0
177 199 0
176 198 0
174 197 0
171 196 0
174 198 0
173 197 0
175 198 0
174 198 0
175 198 0
173 197 0
175 198 0
176 198 0
172 197 0
172 196 0
174 198 0
174 198 0
174 198 0
173 197 0
174 198 0
174 198 0
174 197 0
174 198 0
173 197 0
173 197 0
173 197 0
175 198 0
174 198 0
173 197 0
174 198 0
173 197 0
174 197 0
174 198 0
173 196 0
172 197 0
173 197 0
175 198 0
175 198 0
174 198 0
172 197 0
177 199 0
174 197 0
176 199 0
174 197 0
173 197 0
175 198 0
177 199 0
172 196 0
174 198 0
176 199 0
176 199 0
175 198 0
176 199 0
173 197 0
176 199 0
174 198 0
173 197 0
175 198 0
175 198 0
175 198 0
172 197 0
174 198 0
173 197 0
175 198 0
176 199 0
174 198 0
174 197 0
173 197 0
176 199 0
175 198 0
175 198 0
175 198 0
175 198 0
175 198 0
173 197 0
174 198 0
172 197 0
174 197 0
173 197 0
172 196 0
173 197 0
173 197 0
174 198 0
173 197 0
173 197 0
174 198 0
176 199 0
175 198 0
177 199 0
175 198 0
174 197 0
174 198 0
175 198 0
175 198 0
174 197 0
174 198 0
172 196 0
177 199 0
173 197 0
175 198 0
175 198 0
174 198 0
174 198 0
176 199 0
175 198 0
175 198 0
174 198 0
172 196 0
175 198 0
174 197 0
174 198 0
172 197 0
173 196 0
173 197 0
176 198 0
175 198 0
175 198 0
172 197 0
173 197 0
173 197 0
175 198 0
175 198 0
173 197 0
175 198 0
175 198 0
174 197 0
175 198 0
173 197 0
175 198 0
176 199 0
173 197 0
174 198 0
173 196 0
174 197 0
176 199 0
175 198 0
172 196 0
175 198 0
177 199 0
173 197 0
174 198 0
174 198 0
174 198 0
176 199 0
175 198 0
174 197 0
176 199 0
174 198 0
174 198 0
175 198 0
172 196 0
172 197 0
173 197 0
175 198 0
172 197 0
174 197 0
175 198 0
173 197 0
176 199 0
174 198 0
172 197 0
175 198 0
174 198 0
173 197 0
174 197 0
176 198 0
172 197 0
175 198 0
176 199 0
176 198 0
174 198 0
173 197 0
173 197 0
174 198 0
174 198 0
175 198 0
175 198 0
175 198 0
173 197 0
175 198 0
176 199 0
175 198 0
178 200 0
171 196 0
172 197 0
175 198 0
175 198 0
175 198 0
172 196 0
174 198 0
174 198 0
176 198 0
175 198 0
173 197 0
173 197 0
174 197 0
172 196 0
175 198 0
174 198 0
173 197 0
174 198 0
173 197 0
178 200 0
173 197 0
174 198 0
174 198 0
174 198 0
175 198 0
175 198 0
175 198 0
174 198 0
174 198 0
173 197 0
175 198 0
173 197 0
174 197 0
173 197 0
174 197 0
173 196 0
173 196 0
173 197 0
170 195 0
174 198 0
174 197 0
171 196 0
174 198 0
174 198 0
173 195 0
174 198 0
176 199 0
174 197 0
173 197 0
173 197 0
171 196 0
173 197 0
172 197 0
172 196 0
175 198 0
174 198 0
172 196 0
174 197 0
176 199 0
176 199 0
174 198 0
174 198 0
174 198 0
176 199 0
174 198 0
174 198 0
174 197 0
176 199 0
174 197 0
175 198 0
176 198 0
175 198 0
173 197 0
171 195 0
172 196 0
173 197 0
172 195 0
174 198 0
173 197 0
174 198 0
174 198 0
173 197 0
174 197 0
175 197 0
175 198 0
174 198 0
172 196 0
177 199 0
174 198 0
176 199 0
172 196 0
175 198 0
173 197 0
172 197 0
175 197 0
174 198 0
173 196 0
174 198 0
174 198 0
174 197 0
175 198 0
173 197 0
173 197 0
177 198 0
174 197 0
173 196 0
174 198 0
175 198 0
174 198 0
175 198 0
175 198 0
174 198 0
172 197 0
173 196 0
173 196 0
174 197 0
174 197 0
175 198 0
173 197 0
174 198 0
174 198 0
175 198 0
173 197 0
173 196 0
174 197 0
173 195 0
174 198 0
173 197 0
173 197 0
175 198 0
172 196 0
174 198 0
176 199 0
174 197 0
175 198 0
174 198 0
175 198 0
173 196 0
173 196 0
173 197 0
174 197 0
176 199 0
177 199 0
173 197 0
175 198 0
175 198 0
175 198 0
176 198 0
177 199 0
176 199 0
175 198 0
173 197 0
174 197 0
172 197 0
174 198 0
174 197 0
175 198 0
175 198 0
174 198 0
177 199 0
174 197 0
176 198 0
175 198 0
178 200 0
175 197 0
173 197 0
172 197 0
175 198 0
175 198 0
175 198 0
174 197 0
175 198 0
173 197 0
176 199 0
172 197 0
176 199 0
174 198 0
175 198 0
175 198 0
175 198 0
173 197 0
175 198 0
173 197 0
176 198 0
174 198 0
173 197 0
172 195 0
174 198 0
173 197 0
175 198 0
174 198 0
174 198 0
174 198 0
175 198 0
175 198 0
175 198 0
174 198 0
176 199 0
173 197 0
174 197 0
178 200 0
176 199 0
173 197 0
174 198 0
174 197 0
174 197 0
174 197 0
173 197 0
173 197 0
175 198 0
174 197 0
174 197 0
174 198 0
175 198 0
171 196 0
175 198 0
177 199 0
174 197 0
176 198 0
172 196 0
176 198 0
173 197 0
175 198 0
174 198 0
174 198 0
172 195 0
176 199 0
175 198 0
176 199 0
173 197 0
175 198 0
173 197 0
176 199 0
173 197 0
174 198 0
176 198 0
175 198 0
172 197 0
174 198 0
174 198 0
174 198 0
172 196 0
176 198 0
176 198 0
173 197 0
176 199 0
176 199 0
173 197 0
174 198 0
172 197 0
174 197 0
176 199 0
175 198 0
175 198 0
173 197 0
174 198 0
174 197 0
175 198 0
173 197 0
175 198 0
175 198 0
174 198 0
175 198 0
174 198 0
173 197 0
172 197 0
175 198 0
175 198 0
173 197 0
175 198 0
175 198 0
173 197 0
174 198 0
177 199 0
174 197 0
175 198 0
174 198 0
175 198 0
174 198 0
175 198 0
174 197 0
174 197 0
175 198 0
175 198 0
171 196 0
174 198 0
174 198 0
175 198 0
173 197 0
176 199 0
176 199 0
173 197 0
177 199 0
175 198 0
173 197 0
176 199 0
175 198 0
173 197 0
173 197 0
175 198 0
174 198 0
175 198 0
176 199 0
173 197 0
173 197 0
174 198 0
176 199 0
175 198 0
174 197 0
174 197 0
174 198 0
172 197 0
174 197 0
174 198 0
174 198 0
177 199 0
175 198 0
174 197 0
175 198 0
175 198 0
173 197 0
174 198 0
176 199 0
176 199 0
176 198 0
176 199 0
175 198 0
174 197 0
175 198 0
173 197 0
173 197 0
174 197 0
174 198 0
177 199 0
172 196 0
178 199 0
176 199 0
175 198 0
172 197 0
174 198 0
173 197 0
175 198 0
172 197 0
176 199 0
173 197 0
174 198 0
175 198 0
175 198 0
176 198 0
176 198 0
175 198 0
174 198 0
175 198 0
175 198 0
175 198 0
176 199 0
173 197 0
173 197 0
173 197 0
175 198 0
174 196 0
173 196 0
174 198 0
173 197 0
174 197 0
175 198 0
175 198 0
174 198 0
175 198 0
177 199 0
174 198 0
173 197 0
171 196 0
176 199 0
174 197 0
175 198 0
174 198 0
175 198 0
175 198 0
175 198 0
174 198 0
171 195 0
176 198 0
174 197 0
176 199 0
174 197 0
172 196 0
174 198 0
173 197 0
175 198 0
173 197 0
173 197 0
177 199 0
175 198 0
174 197 0
176 198 0
174 198 0
175 198 0
174 197 0
175 198 0
175 198 0
172 196 0
174 198 0
175 198 0
175 198 0
175 198 0
174 198 0
174 198 0
176 199 0
175 198 0
174 198 0
175 198 0
173 197 0
177 199 0
177 199 0
175 198 0
173 197 0
174 198 0
174 198 0
172 197 0
174 197 0
175 198 0
174 198 0
173 197 0
174 197 0
172 197 0
173 197 0
175 198 0
173 196 0
171 196 0
175 198 0
174 198 0
172 196 0
175 198 0
173 197 0
175 198 0
174 197 0
173 197 0
175 198 0
173 196 0
174 197 0
171 196 0
174 197 0
173 197 0
173 197 0
173 197 0
174 198 0
175 198 0
174 197 0
177 199 0
171 195 0
171 195 0
177 199 0
176 198 0
175 198 0
173 197 0
176 199 0
176 199 0
174 197 0
177 199 0
173 197 0
173 197 0
175 198 0
174 197 0
174 198 0
174 198 0
175 198 0
175 198 0
175 197 0
174 198 0
174 198 0
174 197 0
174 197 0
174 198 0
174 197 0
174 198 0
176 198 0
174 198 0
175 198 0
174 198 0
176 198 0
174 198 0
173 197 0
172 196 0
172 196 0
174 198 0
175 198 0
174 197 0
172 196 0
175 197 0
175 198 0
175 198 0
173 197 0
173 197 0
174 197 0
174 198 0
173 197 0
173 197 0
175 198 0
173 197 0
172 196 0
174 198 0
173 196 0
175 197 0
177 199 0
175 198 0
175 198 0
173 197 0
174 197 0
173 197 0
176 198 0
173 197 0
174 197 0
175 197 0
175 198 0
173 197 0
173 195 0
175 198 0
175 198 0
173 197 0
175 198 0
175 198 0
175 197 0
171 196 0
176 198 0
173 197 0
177 199 0
174 198 0
175 198 0
174 197 0
172 197 0
174 198 0
174 197 0
174 198 0
175 198 0
173 197 0
175 198 0
172 196 0
176 199 0
176 198 0
174 197 0
175 198 0
175 198 0
171 196 0
173 197 0
173 197 0
172 197 0
172 196 0
173 196 0
171 195 0
173 197 0
174 196 0
174 197 0
176 199 0
176 198 0
174 198 0
176 199 0
175 198 0
173 197 0
174 198 0
175 198 0
174 198 0
173 197 0
175 197 0
174 198 0
172 197 0
174 198 0
174 198 0
175 198 0
174 198 0
175 198 0
173 197 0
174 198 0
174 198 0
178 200 0
175 198 0
175 198 0
174 197 0
174 197 0
174 197 0
174 197 0
174 197 0
176 199 0
174 198 0
175 198 0
176 199 0
175 198 0
173 197 0
174 198 0
172 197 0
175 197 0
173 197 0
176 199 0
176 199 0
175 198 0
173 197 0
172 196 0
175 198 0
174 198 0
176 199 0
173 197 0
174 198 0
174 198 0
174 198 0
174 198 0
173 197 0
177 199 0
177 199 0
172 197 0
176 199 0
173 196 0
177 199 0
174 198 0
172 197 0
174 197 0
175 198 0
175 198 0
174 197 0
173 197 0
176 199 0
173 196 0
174 197 0
173 197 0
175 198 0
175 198 0
175 198 0
173 197 0
173 197 0
176 198 0
173 197 0
172 197 0
173 196 0
174 198 0
172 196 0
172 197 0
175 198 0
173 197 0
174 198 0
172 197 0
173 197 0
175 198 0
172 196 0
176 198 0
173 197 0
175 198 0
175 198 0
175 198 0
174 198 0
175 198 0
173 197 0
174 198 0
172 197 0
174 197 0
174 198 0
175 198 0
176 199 0
174 198 0
174 197 0
173 197 0
176 199 0
172 197 0
174 197 0
175 198 0
174 198 0
176 198 0
172 197 0
175 198 0
174 198 0
173 197 0
173 197 0
175 198 0
173 197 0
177 199 0
174 197 0
174 198 0
176 199 0
176 198 0
176 199 0
175 198 0
174 198 0
175 198 0
175 198 0
175 198 0
177 199 0
173 197 0
175 198 0
175 198 0
175 198 0
177 199 0
173 197 0
175 198 0
171 195 0
175 198 0
172 196 0
175 198 0
175 198 0
175 198 0
176 198 0
174 198 0
176 199 0
175 198 0
176 199 0
174 198 0
174 198 0
176 199 0
174 197 0
174 197 0
174 198 0
173 197 0
175 198 0
174 198 0
176 199 0
173 197 0
173 197 0
175 198 0
170 195 0
175 198 0
175 198 0
176 199 0
174 198 0
175 198 0
178 199 0
173 197 0
177 199 0
174 197 0
174 198 0
173 197 0
172 197 0
174 198 0
173 197 0
173 197 0
174 198 0
176 199 0
172 196 0
175 198 0
174 197 0
174 198 0
176 199 0
173 197 0
174 197 0
174 198 0
173 197 0
174 197 0
175 198 0
174 198 0
175 198 0
176 199 0
175 198 0
176 199 0
174 198 0
172 197 0
176 198 0
173 197 0
173 197 0
175 198 0
175 198 0
174 198 0
173 197 0
176 199 0
175 198 0
175 198 0
175 198 0
176 198 0
174 198 0
176 199 0
172 197 0
176 199 0
171 196 0
175 198 0
173 197 0
175 198 0
175 198 0
175 198 0
175 198 0
171 195 0
176 199 0
175 198 0
175 198 0
173 197 0
172 197 0
176 198 0
173 197 0
176 199 0
173 197 0
174 197 0
175 198 0
175 198 0
176 199 0
173 197 0
173 197 0
173 197 0
174 197 0
175 198 0
175 198 0
173 197 0
175 198 0
176 199 0
176 199 0
174 198 0
174 198 0
175 198 0
174 198 0
175 198 0
175 198 0
175 198 0
173 197 0
174 197 0
176 199 0
175 198 0
171 195 0
174 198 0
175 198 0
170 196 0
174 198 0
174 198 0
173 197 0
175 198 0
174 198 0
173 197 0
175 198 0
175 198 0
172 195 0
174 197 0
174 197 0
175 198 0
175 198 0
176 199 0
174 198 0
177 199 0
173 196 0
176 199 0
175 198 0
175 198 0
172 195 0
173 197 0
175 198 0
175 198 0
173 197 0
174 198 0
176 199 0
175 198 0
175 198 0
175 198 0
173 197 0
175 198 0
173 197 0
172 197 0
173 196 0
175 198 0
172 196 0
172 196 0
174 197 0
173 196 0
172 196 0
174 198 0
174 197 0
175 198 0
176 199 0
175 198 0
173 197 0
174 197 0
172 196 0
175 198 0
175 198 0
174 198 0
176 199 0
173 197 0
174 197 0
173 197 0
174 198 0
173 197 0
174 197 0
174 197 0
173 197 0
173 197 0
174 198 0
175 198 0
176 199 0
176 199 0
176 199 0
173 197 0
173 197 0
173 196 0
176 199 0
173 196 0
174 198 0
173 197 0
174 197 0
171 196 0
176 199 0
176 198 0
174 197 0
174 197 0
173 197 0
174 198 0
171 195 0
172 196 0
174 198 0
173 197 0
174 197 0
174 198 0
177 199 0
173 197 0
175 198 0
175 198 0
176 199 0
175 198 0
174 198 0
177 199 0
172 196 0
174 198 0
175 198 0
175 198 0
173 197 0
177 199 0
174 198 0
175 198 0
175 198 0
175 198 0
175 198 0
174 196 0
173 196 0
172 197 0
175 197 0
173 197 0
178 200 0
175 198 0
175 198 0
176 199 0
174 197 0
174 197 0
175 198 0
176 199 0
176 199 0
174 198 0
173 196 0
173 197 0
173 197 0
173 197 0
175 198 0
175 198 0
175 198 0
175 198 0
175 198 0
172 196 0
176 199 0
174 198 0
173 197 0
175 198 0
174 198 0
172 197 0
173 197 0
173 197 0
174 198 0
173 197 0
176 199 0
176 199 0
174 197 0
174 197 0
174 197 0
174 197 0
174 198 0
174 198 0
175 198 0
175 198 0
174 198 0
171 194 0
172 197 0
174 198 0
174 198 0
174 197 0
175 198 0
175 197 0
175 198 0
175 198 0
174 197 0
173 196 0
177 199 0
173 197 0
175 198 0
174 196 0
172 197 0
175 198 0
174 197 0
173 197 0
174 198 0
173 197 0
177 199 0
172 196 0
176 199 0
176 198 0
175 198 0
176 199 0
173 197 0
174 197 0
173 197 0
173 197 0
174 198 0
173 197 0
173 197 0
172 196 0
174 197 0
172 197 0
173 197 0
174 197 0
174 197 0
173 197 0
175 198 0
175 198 0
174 198 0
172 197 0
176 198 0
173 196 0
175 198 0
174 197 0
175 198 0
172 197 0
177 199 0
172 197 0
174 198 0
173 197 0
172 197 0
172 196 0
176 199 0
174 198 0
176 199 0
174 197 0
175 198 0
175 198 0
174 197 0
174 198 0
173 196 0
174 197 0
175 198 0
174 197 0
173 197 0
174 197 0
172 197 0
176 199 0
175 198 0
171 196 0
175 198 0
174 197 0
173 197 0
176 199 0
174 198 0
174 197 0
174 197 0
173 197 0
176 198 0
175 198 0
173 197 0
174 198 0
174 198 0
175 198 0
175 198 0
175 198 0
174 198 0
173 197 0
175 198 0
175 198 0
173 197 0
175 198 0
175 198 0
176 199 0
174 198 0
175 198 0
173 197 0
173 197 0
177 199 0
175 198 0
175 198 0
173 197 0
175 198 0
173 197 0
175 198 0
173 197 0
176 199 0
175 198 0
174 198 0
174 198 0
173 197 0
177 199 0
174 197 0
174 198 0
179 200 0
174 197 0
175 198 0
173 197 0
174 198 0
177 199 0
175 198 0
176 199 0
176 199 0
173 197 0
173 197 0
174 198 0
174 198 0
175 198 0
174 198 0
174 198 0
175 198 0
175 198 0
175 198 0
174 198 0
174 198 0
176 199 0
174 198 0
174 198 0
175 198 0
174 198 0
175 198 0
176 199 0
173 197 0
173 197 0
174 197 0
174 198 0
178 200 0
175 198 0
176 199 0
173 197 0
174 198 0
171 196 0
175 198 0
174 197 0
176 198 0
174 198 0
175 198 0
173 197 0
176 198 0
172 197 0
175 198 0
172 197 0
175 198 0
174 197 0
175 198 0
174 197 0
175 198 0
174 198 0
173 197 0
174 198 0
176 199 0
175 198 0
175 198 0
172 196 0
175 198 0
173 197 0
174 198 0
175 198 0
175 198 0
176 198 0
172 197 0
175 198 0
176 198 0
174 197 0
176 198 0
171 195 0
176 199 0
174 198 0
175 198 0
177 199 0
173 197 0
174 198 0
173 197 0
175 198 0
172 196 0
176 198 0
175 198 0
175 198 0
175 198 0
174 198 0
172 197 0
175 198 0
175 198 0
173 196 0
175 198 0
177 199 0
175 198 0
175 198 0
174 197 0
175 198 0
175 198 0
172 197 0
173 197 0
174 198 0
173 197 0
174 198 0
174 198 0
174 196 0
175 198 0
172 197 0
173 196 0
172 197 0
175 198 0
173 197 0
175 198 0
174 198 0
175 198 0
175 198 0
172 197 0
174 198 0
175 198 0
174 197 0
173 197 0
172 197 0
174 198 0
176 199 0
176 199 0
174 197 0
175 198 0
175 198 0
171 196 0
173 196 0
174 197 0
173 197 0
174 198 0
175 198 0
174 198 0
173 197 0
173 197 0
175 198 0
173 197 0
176 199 0
175 198 0
171 196 0
174 197 0
176 199 0
172 195 0
173 197 0
173 197 0
174 198 0
174 198 0
173 197 0
175 198 0
175 198 0
174 198 0
174 198 0
176 199 0
176 199 0
176 199 0
176 199 0
174 197 0
174 198 0
176 199 0
177 199 0
175 198 0
175 198 0
175 198 0
174 198 0
173 197 0
173 196 0
175 198 0
175 198 0
173 197 0
174 198 0
171 195 0
175 198 0
174 197 0
175 198 0
173 196 0
173 197 0
172 196 0
175 198 0
176 199 0
174 198 0
175 198 0
174 197 0
175 198 0
174 198 0
175 198 0
174 197 0
174 198 0
172 197 0
175 198 0
174 198 0
174 198 0
173 197 0
174 197 0
173 197 0
175 198 0
176 199 0
174 198 0
175 198 0
173 197 0
174 198 0
176 199 0
174 197 0
174 198 0
176 199 0
174 197 0
175 198 0
173 196 0
174 198 0
175 198 0
175 198 0
174 197 0
174 197 0
172 196 0
174 198 0
173 196 0
173 197 0
174 197 0
174 198 0
174 197 0
175 198 0
174 198 0
177 199 0
172 196 0
172 197 0
175 198 0
175 198 0
175 198 0
174 197 0
172 197 0
174 198 0
176 199 0
176 199 0
172 196 0
174 198 0
174 198 0
173 196 0
176 198 0
174 197 0
175 198 0
174 197 0
175 198 0
176 198 0
172 195 0
176 198 0
172 197 0
175 198 0
172 196 0
175 198 0
174 198 0
172 196 0
174 198 0
176 199 0
177 199 0
174 197 0
173 196 0
175 198 0
174 198 0
171 196 0
175 198 0
172 196 0
172 196 0
176 198 0
173 195 0
172 197 0
174 198 0
175 198 0
174 197 0
174 198 0
172 195 0
175 198 0
175 198 0
172 196 0
176 198 0
172 195 0
176 199 0
176 199 0
174 198 0
174 197 0
176 199 0
174 198 0
176 198 0
175 197 0
174 197 0
174 198 0
174 198 0
174 197 0
173 197 0
173 197 0
174 198 0
174 198 0
175 198 0
173 196 0
175 198 0
175 198 0
175 198 0
176 199 0
175 198 0
176 199 0
175 198 0
173 197 0
173 197 0
172 196 0
176 199 0
178 200 0
174 198 0
174 198 0
174 197 0
174 198 0
174 198 0
173 197 0
173 197 0
174 197 0
173 197 0
173 197 0
174 198 0
172 197 0
174 197 0
174 198 0
175 198 0
174 197 0
175 198 0
174 198 0
174 198 0
174 198 0
173 197 0
174 198 0
173 197 0
172 197 0
173 197 0
174 198 0
175 198 0
173 196 0
176 199 0
173 197 0
173 197 0
177 199 0
176 199 0
176 199 0
172 196 0
173 197 0
173 197 0
173 197 0
174 198 0
175 198 0
173 197 0
175 198 0
175 198 0
174 198 0
174 198 0
175 198 0
175 198 0
175 198 0
174 198 0
175 198 0
176 198 0
173 197 0
174 198 0
176 199 0
173 197 0
176 199 0
175 198 0
174 197 0
174 198 0
175 198 0
176 199 0
175 198 0
174 198 0
173 197 0
173 197 0
175 198 0
174 198 0
176 199 0
175 198 0
173 197 0
176 199 0
175 198 0
174 197 0
176 199 0
174 198 0
176 199 0
175 198 0
173 197 0
174 197 0
177 199 0
175 198 0
176 199 0
173 196 0
176 199 0
175 198 0
174 198 0
173 197 0
175 198 0
173 197 0
175 198 0
175 198 0
173 197 0
174 198 0
173 197 0
174 197 0
177 199 0
176 198 0
174 198 0
174 198 0
176 199 0
174 197 0
175 198 0
174 198 0
176 199 0
175 198 0
175 198 0
175 198 0
175 198 0
175 198 0
175 198 0
175 198 0
176 199 0
174 198 0
173 196 0
176 199 0
175 198 0
175 198 0
175 198 0
172 197 0
174 198 0
175 198 0
174 198 0
174 198 0
175 198 0
174 198 0
173 197 0
176 199 0
172 197 0
177 199 0
175 198 0
175 198 0
172 197 0
175 198 0
174 197 0
174 198 0
175 198 0
174 198 0
172 197 0
175 198 0
173 197 0
174 198 0
175 198 0
175 198 0
171 195 0
176 199 0
172 197 0
173 197 0
173 197 0
176 199 0
171 196 0
176 199 0
174 198 0
174 198 0
174 197 0
171 196 0
172 197 0
175 198 0
174 197 0
173 197 0
174 198 0
174 197 0
174 198 0
176 199 0
175 198 0
174 198 0
173 197 0
174 198 0
175 198 0
173 197 0
176 199 0
174 198 0
173 197 0
174 198 0
173 197 0
173 197 0
175 198 0
174 198 0
176 199 0
175 198 0
173 197 0
173 197 0
174 198 0
175 198 0
173 197 0
173 197 0
177 199 0
174 198 0
173 197 0
173 196 0
173 197 0
173 197 0
174 198 0
175 198 0
174 198 0
174 198 0
172 196 0
175 198 0
175 198 0
173 197 0
176 199 0
174 197 0
177 199 0
171 195 0
172 197 0
172 197 0
173 197 0
173 197 0
177 199 0
173 197 0
175 198 0
174 198 0
175 198 0
172 196 0
174 198 0
174 198 0
174 198 0
174 198 0
173 196 0
175 198 0
172 197 0
175 198 0
172 197 0
174 198 0
175 198 0
174 197 0
176 199 0
175 198 0
172 197 0
175 197 0
173 197 0
172 196 0
173 197 0
173 197 0
173 197 0
173 197 0
175 198 0
174 198 0
174 197 0
171 195 0
173 197 0
174 198 0
174 198 0
171 196 0
174 198 0
175 198 0
172 197 0
173 197 0
176 198 0
174 197 0
173 197 0
173 197 0
176 199 0
173 196 0
174 198 0
174 198 0
177 199 0
176 198 0
173 197 0
176 199 0
172 196 0
177 199 0
175 198 0
174 197 0
175 198 0
174 198 0
175 197 0
173 197 0
173 197 0
174 197 0
173 197 0
172 196 0
177 199 0
173 197 0
173 197 0
174 198 0
173 196 0
175 198 0
174 198 0
173 197 0
174 198 0
173 197 0
171 195 0
175 198 0
173 197 0
175 197 0
175 198 0
172 196 0
173 196 0
172 197 0
173 197 0
175 198 0
174 198 0
173 197 0
173 196 0
176 199 0
172 197 0
170 195 0
174 198 0
174 197 0
171 194 0
173 197 0
174 197 0
172 196 0
174 198 0
174 197 0
176 198 0
175 198 0
173 196 0
174 197 0
173 197 0
173 196 0
176 199 0
176 199 0
172 197 0
174 198 0
174 198 0
176 198 0
176 199 0
174 198 0
174 198 0
176 199 0
173 197 0
175 198 0
176 198 0
174 197 0
177 199 0
174 197 0
173 196 0
174 198 0
174 198 0
173 197 0
175 198 0
175 198 0
175 198 0
178 200 0
174 198 0
175 198 0
176 199 0
174 197 0
174 198 0
176 199 0
175 198 0
174 198 0
175 198 0
172 197 0
175 198 0
174 197 0
176 199 0
173 196 0
175 198 0
176 198 0
176 199 0
175 197 0
173 196 0
174 197 0
174 198 0
174 198 0
176 199 0
177 199 0
174 197 0
176 197 0
173 197 0
173 197 0
173 197 0
175 198 0
175 198 0
175 198 0
173 197 0
173 197 0
173 197 0
174 197 0
174 198 0
175 198 0
175 198 0
174 198 0
172 197 0
174 198 0
175 198 0
174 197 0
175 198 0
175 198 0
174 198 0
176 198 0
175 198 0
175 198 0
174 198 0
172 196 0
174 197 0
176 199 0
173 197 0
176 198 0
172 196 0
173 197 0
175 198 0
175 198 0
175 197 0
174 198 0
174 197 0
174 198 0
173 197 0
175 198 0
176 199 0
173 197 0
172 196 0
175 198 0
175 198 0
176 198 0
175 197 0
170 195 0
174 198 0
175 198 0
174 198 0
174 198 0
173 197 0
176 199 0
174 198 0
175 198 0
174 198 0
176 199 0
174 198 0
173 197 0
174 197 0
173 196 0
175 198 0
171 195 0
174 198 0
172 196 0
173 197 0
175 198 0
175 198 0
172 196 0
176 199 0
176 198 0
176 199 0
173 197 0
175 198 0
176 198 0
175 197 0
174 197 0
176 199 0
175 198 0
174 198 0
172 196 0
174 197 0
175 198 0
175 198 0
175 198 0
173 197 0
173 197 0
173 197 0
174 198 0
172 196 0
175 198 0
175 198 0
177 199 0
175 198 0
174 197 0
173 197 0
173 197 0
175 198 0
173 197 0
175 198 0
175 198 0
174 198 0
177 199 0
174 198 0
174 198 0
174 198 0
173 197 0
174 198 0
175 198 0
174 198 0
174 196 0
174 198 0
173 197 0
173 197 0
174 197 0
174 197 0
175 198 0
175 198 0
176 199 0
175 198 0
174 198 0
174 198 0
174 198 0
173 197 0
175 198 0
174 198 0
175 198 0
176 198 0
174 198 0
175 198 0
175 198 0
175 198 0
177 199 0
176 199 0
173 197 0
175 197 0
176 199 0
174 197 0
174 198 0
174 197 0
175 198 0
174 198 0
175 198 0
175 198 0
175 198 0
175 198 0
175 198 0
177 199 0
175 198 0
174 198 0
175 198 0
175 198 0
174 198 0
175 198 0
175 198 0
175 198 0
176 198 0
174 197 0
175 198 0
172 197 0
173 197 0
174 197 0
176 198 0
173 197 0
174 197 0
174 197 0
174 198 0
177 199 0
175 198 0
173 197 0
175 198 0
175 198 0
174 197 0
177 199 0
174 198 0
176 198 0
174 198 0
176 198 0
171 196 0
173 197 0
174 198 0
174 198 0
174 198 0
173 197 0
177 199 0
175 198 0
175 198 0
175 198 0
175 198 0
175 198 0
176 199 0
175 198 0
174 198 0
176 199 0
174 198 0
174 198 0
175 198 0
175 198 0
174 197 0
174 198 0
175 198 0
174 198 0
174 198 0
175 198 0
172 197 0
174 198 0
175 198 0
173 197 0
172 197 0
175 198 0
174 198 0
174 198 0
173 197 0
174 197 0
176 199 0
175 198 0
175 198 0
174 198 0
176 198 0
174 197 0
175 198 0
173 197 0
175 198 0
174 197 0
172 197 0
172 196 0
174 197 0
174 197 0
173 196 0
175 198 0
174 198 0
174 198 0
173 197 0
173 197 0
177 199 0
174 198 0
173 197 0
172 196 0
174 198 0
173 196 0
174 198 0
175 198 0
175 198 0
174 198 0
173 197 0
174 197 0
176 198 0
174 198 0
173 196 0
176 198 0
177 199 0
173 197 0
171 196 0
174 198 0
175 198 0
174 197 0
175 198 0
175 198 0
174 198 0
174 198 0
174 197 0
174 197 0
173 197 0
172 197 0
173 197 0
174 198 0
176 198 0
171 195 0
172 196 0
175 198 0
175 198 0
175 198 0
174 197 0
175 198 0
173 197 0
174 197 0
175 198 0
174 198 0
177 199 0
174 198 0
172 197 0
174 198 0
175 198 0
176 198 0
173 197 0
175 198 0
172 197 0
177 199 0
174 198 0
174 198 0
177 199 0
175 198 0
175 198 0
175 198 0
173 197 0
175 198 0
173 197 0
170 195 0
175 198 0
173 197 0
175 198 0
174 197 0
176 199 0
174 197 0
175 198 0
173 197 0
175 198 0
175 197 0
175 198 0
174 198 0
173 197 0
170 195 0
176 199 0
174 198 0
176 199 0
174 198 0
172 197 0
173 197 0
175 198 0
173 196 0
173 197 0
174 198 0
175 198 0
175 197 0
177 199 0
173 197 0
176 198 0
176 198 0
174 198 0
175 198 0
172 195 0
175 198 0
173 197 0
176 199 0
170 195 0
174 197 0
174 198 0
174 197 0
170 194 0
173 197 0
175 198 0
176 199 0
173 197 0
174 198 0
173 197 0
176 199 0
173 197 0
174 198 0
173 197 0
173 197 0
175 198 0
174 197 0
174 197 0
175 198 0
174 198 0
176 198 0
175 198 0
176 199 0
175 198 0
174 197 0
174 197 0
174 198 0
172 196 0
174 198 0
175 198 0
173 196 0
173 195 0
175 198 0
175 198 0
175 198 0
175 198 0
175 198 0
172 197 0
174 197 0
174 197 0
173 196 0
175 198 0
175 198 0
172 197 0
174 197 0
173 197 0
171 195 0
175 198 0
177 199 0
174 197 0
173 197 0
173 196 0
175 198 0
175 197 0
174 197 0
175 197 0
176 198 0
174 197 0
174 197 0
173 196 0
174 198 0
177 199 0
175 198 0
173 197 0
177 199 0
172 197 0
175 198 0
177 199 0
176 198 0
175 197 0
176 199 0
174 198 0
172 195 0
176 199 0
173 197 0
174 198 0
171 196 0
178 200 0
177 199 0
175 198 0
171 196 0
176 199 0
172 195 0
175 198 0
175 198 0
175 198 0
175 198 0
174 198 0
174 197 0
176 198 0
175 198 0
173 197 0
176 199 0
176 199 0
173 197 0
175 198 0
175 198 0
172 196 0
173 197 0
173 197 0
174 198 0
173 197 0
173 197 0
174 197 0
176 199 0
173 197 0
175 198 0
171 196 0
174 198 0
175 198 0
174 198 0
177 199 0
175 198 0
176 199 0
173 197 0
175 198 0
174 198 0
176 199 0
175 198 0
175 197 0
173 197 0
175 198 0
175 198 0
177 199 0
175 198 0
174 197 0
174 197 0
176 198 0
174 198 0
173 197 0
174 198 0
175 198 0
175 198 0
174 198 0
175 197 0
172 195 0
174 197 0
171 195 0
176 199 0
174 197 0
173 197 0
176 198 0
173 197 0
174 198 0
174 198 0
175 198 0
173 197 0
174 198 0
177 199 0
174 197 0
175 198 0
174 198 0
173 197 0
173 197 0
172 197 0
172 197 0
174 198 0
175 198 0
173 197 0
176 198 0
175 198 0
172 197 0
175 198 0
173 197 0
177 199 0
172 197 0
173 197 0
176 198 0
173 197 0
175 198 0
174 197 0
175 198 0
175 198 0
173 197 0
177 199 0
175 198 0
175 198 0
176 199 0
176 199 0
174 198 0
175 198 0
173 197 0
174 197 0
175 198 0
174 198 0
176 199 0
175 198 0
173 197 0
173 197 0
174 197 0
173 197 0
174 198 0
173 197 0
175 198 0
174 198 0
175 198 0
174 198 0
172 197 0
175 198 0
175 198 0
174 197 0
175 198 0
177 199 0
174 198 0
174 198 0
175 198 0
173 197 0
175 198 0
174 197 0
173 197 0
173 197 0
174 198 0
174 198 0
175 198 0
177 199 0
175 198 0
173 197 0
175 198 0
175 198 0
175 198 0
175 198 0
172 197 0
173 197 0
174 198 0
173 196 0
173 197 0
173 197 0
173 197 0
171 196 0
176 198 0
176 199 0
176 199 0
175 198 0
174 197 0
173 197 0
171 196 0
173 197 0
173 197 0
173 197 0
174 198 0
175 198 0
173 197 0
172 197 0
174 198 0
175 198 0
174 198 0
173 197 0
174 198 0
175 198 0
174 198 0
177 199 0
174 198 0
175 198 0
176 199 0
175 197 0
175 198 0
176 199 0
172 197 0
173 197 0
173 197 0
175 198 0
173 197 0
175 198 0
174 198 0
175 198 0
175 198 0
173 197 0
175 198 0
175 198 0
174 197 0
174 198 0
175 198 0
173 197 0
175 198 0
175 198 0
176 198 0
172 196 0
175 198 0
176 199 0
175 198 0
176 198 0
175 198 0
173 197 0
176 199 0
175 198 0
174 198 0
173 197 0
176 199 0
175 198 0
176 198 0
172 197 0
174 198 0
174 197 0
175 198 0
175 198 0
175 198 0
174 198 0
173 197 0
173 197 0
175 197 0
175 198 0
174 197 0
170 195 0
174 198 0
176 198 0
176 199 0
172 197 0
174 198 0
174 198 0
175 198 0
175 198 0
172 196 0
174 198 0
173 197 0
172 197 0
174 197 0
174 197 0
174 197 0
176 199 0
174 197 0
175 198 0
175 198 0
175 198 0
174 198 0
174 198 0
175 198 0
176 199 0
176 199 0
175 198 0
174 198 0
176 198 0
174 197 0
176 199 0
174 197 0
175 198 0
173 197 0
178 200 0
174 197 0
174 198 0
176 199 0
174 198 0
175 198 0
175 198 0
177 199 0
173 197 0
174 197 0
174 197 0
175 198 0
174 198 0
174 198 0
176 199 0
173 197 0
175 198 0
171 195 0
171 196 0
175 198 0
175 198 0
173 197 0
173 197 0
175 198 0
174 198 0
177 199 0
174 197 0
176 199 0
172 197 0
176 198 0
176 199 0
173 196 0
174 198 0
173 197 0
174 198 0
173 197 0
173 197 0
172 197 0
174 198 0
175 198 0
176 199 0
174 198 0
170 194 0
176 199 0
175 198 0
173 197 0
177 199 0
174 198 0
175 198 0
174 197 0
173 197 0
172 196 0
176 199 0
175 198 0
176 198 0
174 198 0
175 198 0
175 198 0
172 197 0
175 197 0
175 198 0
174 197 0
173 197 0
174 196 0
175 198 0
176 199 0
175 198 0
172 195 0
173 197 0
174 197 0
171 196 0
175 198 0
173 197 0
174 198 0
175 198 0
175 198 0
174 197 0
172 197 0
174 197 0
176 199 0
176 198 0
174 197 0
175 198 0
175 198 0
173 197 0
175 198 0
173 197 0
177 199 0
173 197 0
174 197 0
172 196 0
171 195 0
176 198 0
175 198 0
174 198 0
175 198 0
175 198 0
175 198 0
175 198 0
172 196 0
175 197 0
173 197 0
172 197 0
173 197 0
175 198 0
174 198 0
173 197 0
171 195 0
174 198 0
175 198 0
173 197 0
174 197 0
175 198 0
175 198 0
172 197 0
175 198 0
173 197 0
174 198 0
174 198 0
174 197 0
174 197 0
172 196 0
174 198 0
176 199 0
171 196 0
175 198 0
177 199 0
175 198 0
174 198 0
175 198 0
174 198 0
172 195 0
175 198 0
175 198 0
174 198 0
173 197 0
175 198 0
176 198 0
170 195 0
174 197 0
175 198 0
173 196 0
174 197 0
176 199 0
176 199 0
173 197 0
173 197 0
174 197 0
171 194 0
176 198 0
176 199 0
176 199 0
175 198 0
175 198 0
173 197 0
173 196 0
173 196 0
175 198 0
173 197 0
176 199 0
172 196 0
174 198 0
173 197 0
174 197 0
174 197 0
174 197 0
174 197 0
173 197 0
177 199 0
174 198 0
174 198 0
174 198 0
175 198 0
175 197 0
174 198 0
175 198 0
175 198 0
173 196 0
176 199 0
172 197 0
173 197 0
174 197 0
175 198 0
174 198 0
174 197 0
173 197 0
170 194 0
175 198 0
174 197 0
173 197 0
172 197 0
175 198 0
174 198 0
174 197 0
174 198 0
176 199 0
174 197 0
175 198 0
173 197 0
174 197 0
171 196 0
174 198 0
175 198 0
174 198 0
173 197 0
173 197 0
175 197 0
176 199 0
175 198 0
174 198 0
174 197 0
176 199 0
174 197 0
175 198 0
175 198 0
174 198 0
172 197 0
174 198 0
174 198 0
176 199 0
176 199 0
173 197 0
175 198 0
176 199 0
173 197 0
174 197 0
175 198 0
174 198 0
174 198 0
173 197 0
174 198 0
175 198 0
176 199 0
174 198 0
174 198 0
173 197 0
174 198 0
172 197 0
174 197 0
173 197 0
175 198 0
173 197 0
174 197 0
173 197 0
172 196 0
176 198 0
175 198 0
175 198 0
173 197 0
176 199 0
176 199 0
173 197 0
172 197 0
173 197 0
175 198 0
172 197 0
175 198 0
173 197 0
176 199 0
176 199 0
173 197 0
175 198 0
175 198 0
175 198 0
171 196 0
174 198 0
170 196 0
176 198 0
174 197 0
175 198 0
176 198 0
172 197 0
172 197 0
176 199 0
177 199 0
175 198 0
176 199 0
176 199 0
175 198 0
177 199 0
174 198 0
174 198 0
174 198 0
174 198 0
175 198 0
178 200 0
174 197 0
174 197 0
175 198 0
176 199 0
173 197 0
174 198 0
175 198 0
174 197 0
176 199 0
175 198 0
177 199 0
176 199 0
174 197 0
174 198 0
175 198 0
172 196 0
173 197 0
174 198 0
177 199 0
174 197 0
175 198 0
172 197 0
176 199 0
174 198 0
171 195 0
174 198 0
174 198 0
177 199 0
174 198 0
175 198 0
175 198 0
173 197 0
177 199 0
177 199 0
176 199 0
175 198 0
174 198 0
173 197 0
174 197 0
175 198 0
175 198 0
173 197 0
172 197 0
177 199 0
174 198 0
175 198 0
175 198 0
173 197 0
174 198 0
173 197 0
174 197 0
175 198 0
175 198 0
173 197 0
175 198 0
174 198 0
177 199 0
174 198 0
174 198 0
173 197 0
174 198 0
174 197 0
173 196 0
173 197 0
174 198 0
173 197 0
175 198 0
174 198 0
175 198 0
175 198 0
174 198 0
176 199 0
176 199 0
175 198 0
173 197 0
177 199 0
177 199 0
175 198 0
174 198 0
174 198 0
172 197 0
175 198 0
174 198 0
174 197 0
176 199 0
174 198 0
176 198 0
174 198 0
173 197 0
175 198 0
175 198 0
174 198 0
173 197 0
172 197 0
171 195 0
174 198 0
174 198 0
175 198 0
177 199 0
175 198 0
174 198 0
175 198 0
173 197 0
175 198 0
173 197 0
175 198 0
175 198 0
170 194 0
175 198 0
175 198 0
175 198 0
172 197 0
173 197 0
174 198 0
175 198 0
175 198 0
177 199 0
173 197 0
171 196 0
176 198 0
174 198 0
174 197 0
172 197 0
174 198 0
174 197 0
174 198 0
175 198 0
173 197 0
176 199 0
174 197 0
171 195 0
175 198 0
176 198 0
174 198 0
173 197 0
175 198 0
175 198 0
172 196 0
174 198 0
174 198 0
174 198 0
173 197 0
175 198 0
175 198 0
176 199 0
172 196 0
175 198 0
175 198 0
173 197 0
176 199 0
175 198 0
173 197 0
173 197 0
174 198 0
174 198 0
175 198 0
174 198 0
174 197 0
175 198 0
177 199 0
175 198 0
172 196 0
175 198 0
175 198 0
173 197 0
174 198 0
174 198 0
173 197 0
174 198 0
174 198 0
174 198 0
175 198 0
174 198 0
171 195 0
176 199 0
172 196 0
175 198 0
172 197 0
171 195 0
171 196 0
172 196 0
173 196 0
173 197 0
175 198 0
177 199 0
171 195 0
175 198 0
174 198 0
175 198 0
172 196 0
173 195 0
173 197 0
173 197 0
177 199 0
174 197 0
173 197 0
175 198 0
175 198 0
174 197 0
175 198 0
174 197 0
173 197 0
171 196 0
173 195 0
174 197 0
175 198 0
175 198 0
174 197 0
173 197 0
173 196 0
176 198 0
172 197 0
172 196 0
174 198 0
177 199 0
173 196 0
176 198 0
176 199 0
174 197 0
174 198 0
176 199 0
174 198 0
174 197 0
173 197 0
174 197 0
175 198 0
174 197 0
174 197 0
172 196 0
175 198 0
175 198 0
171 195 0
175 198 0
172 196 0
174 196 0
174 198 0
175 197 0
175 198 0
172 197 0
175 198 0
172 196 0
176 199 0
177 199 0
171 195 0
171 196 0
173 196 0
176 198 0
175 198 0
176 198 0
173 197 0
174 198 0
174 198 0
175 197 0
174 198 0
175 197 0
173 197 0
176 199 0
174 198 0
173 197 0
174 198 0
175 198 0
173 197 0
172 197 0
174 197 0
174 197 0
174 198 0
173 197 0
174 197 0
173 197 0
175 198 0
176 198 0
173 197 0
175 198 0
174 198 0
176 199 0
175 198 0
175 198 0
176 198 0
174 197 0
173 197 0
177 199 0
174 197 0
176 198 0
173 197 0
173 197 0
175 198 0
175 198 0
173 197 0
178 200 0
176 198 0
173 197 0
175 198 0
174 198 0
174 198 0
174 198 0
175 198 0
174 198 0
173 197 0
177 199 0
173 196 0
177 199 0
174 198 0
172 197 0
175 198 0
176 199 0
174 198 0
173 197 0
173 197 0
175 198 0
174 197 0
173 197 0
175 198 0
176 198 0
173 196 0
175 198 0
171 195 0
175 198 0
174 198 0
175 198 0
175 198 0
175 198 0
176 199 0
176 199 0
173 197 0
176 199 0
175 198 0
175 198 0
174 198 0
175 198 0
176 198 0
174 198 0
176 199 0
174 198 0
177 199 0
175 198 0
173 197 0
174 198 0
173 197 0
173 197 0
173 197 0
175 197 0
174 198 0
174 197 0
174 198 0
173 197 0
173 197 0
173 197 0
174 197 0
174 198 0
176 198 0
175 198 0
175 198 0
175 198 0
175 198 0
173 197 0
175 198 0
171 196 0
173 197 0
174 198 0
173 197 0
175 198 0
175 198 0
173 197 0
176 199 0
173 197 0
175 198 0
173 197 0
175 198 0
174 198 0
177 199 0
175 198 0
174 197 0
174 198 0
174 198 0
174 198 0
174 197 0
173 197 0
172 197 0
175 198 0
173 197 0
175 198 0
174 198 0
176 199 0
174 198 0
176 199 0
174 198 0
174 198 0
176 199 0
173 197 0
173 197 0
175 198 0
176 198 0
176 199 0
174 198 0
173 197 0
174 198 0
173 197 0
173 197 0
174 197 0
173 197 0
173 197 0
177 199 0
172 197 0
175 198 0
172 196 0
178 200 0
173 197 0
174 198 0
173 197 0
175 198 0
172 195 0
175 198 0
175 198 0
172 197 0
174 198 0
175 198 0
174 198 0
173 197 0
175 198 0
175 198 0
174 198 0
174 198 0
176 199 0
175 198 0
175 198 0
173 197 0
174 198 0
177 199 0
172 197 0
173 197 0
171 196 0
175 198 0
175 198 0
173 197 0
172 196 0
173 197 0
173 197 0
172 197 0
174 198 0
174 198 0
175 198 0
175 198 0
176 199 0
175 198 0
173 197 0
173 197 0
174 198 0
175 198 0
173 197 0
176 198 0
174 198 0
173 197 0
174 198 0
175 198 0
172 197 0
173 196 0
173 197 0
176 199 0
176 199 0
172 197 0
175 198 0
174 198 0
174 198 0
174 198 0
175 198 0
175 198 0
174 198 0
175 198 0
175 198 0
173 197 0
175 198 0
171 195 0
175 198 0
174 197 0
172 197 0
175 198 0
173 197 0
173 196 0
175 198 0
174 197 0
176 199 0
176 199 0
174 198 0
171 196 0
174 198 0
176 199 0
172 196 0
175 198 0
174 198 0
174 198 0
175 198 0
176 198 0
173 197 0
176 198 0
173 197 0
173 197 0
176 199 0
174 197 0
173 197 0
175 198 0
174 198 0
175 198 0
175 198 0
172 195 0
172 196 0
175 198 0
175 198 0
173 197 0
171 195 0
177 199 0
173 197 0
175 198 0
173 197 0
173 197 0
172 197 0
174 198 0
172 197 0
174 198 0
173 197 0
174 197 0
173 197 0
174 197 0
174 197 0
174 197 0
174 198 0
173 197 0
175 198 0
175 198 0
176 198 0
174 197 0
175 198 0
173 197 0
173 197 0
175 198 0
170 195 0
174 197 0
177 199 0
173 196 0
173 196 0
173 197 0
171 195 0
173 195 0
173 197 0
172 196 0
175 198 0
176 199 0
174 198 0
174 198 0
177 199 0
174 197 0
175 198 0
174 197 0
175 198 0
175 198 0
174 197 0
175 198 0
174 197 0
176 199 0
175 198 0
174 198 0
174 197 0
173 196 0
174 198 0
172 197 0
176 197 0
174 198 0
169 194 0
175 198 0
174 198 0
173 197 0
175 198 0
174 198 0
175 198 0
175 198 0
178 199 0
176 198 0
173 197 0
174 198 0
172 196 0
175 198 0
176 199 0
173 197 0
174 198 0
174 198 0
175 197 0
172 196 0
174 197 0
171 196 0
176 199 0
173 197 0
173 197 0
171 195 0
173 197 0
175 198 0
174 198 0
175 198 0
173 197 0
175 198 0
174 197 0
173 197 0
175 198 0
172 196 0
172 197 0
175 198 0
172 196 0
174 197 0
173 197 0
176 199 0
172 197 0
172 197 0
175 198 0
175 198 0
175 198 0
174 197 0
172 196 0
176 199 0
172 197 0
174 198 0
175 198 0
172 195 0
173 197 0
176 198 0
171 195 0
172 196 0
173 197 0
176 199 0
174 198 0
174 198 0
174 197 0
173 197 0
173 197 0
171 195 0
172 196 0
175 198 0
173 197 0
173 197 0
175 198 0
172 197 0
175 198 0
172 196 0
174 198 0
175 198 0
174 197 0
176 199 0
175 198 0
173 197 0
174 197 0
173 197 0
173 197 0
173 197 0
174 197 0
175 198 0
175 198 0
174 198 0
175 198 0
174 198 0
176 199 0
175 198 0
173 197 0
171 195 0
173 197 0
172 197 0
173 197 0
178 200 0
175 198 0
174 198 0
174 197 0
175 198 0
174 198 0
173 197 0
176 199 0
175 198 0
175 198 0
176 199 0
175 198 0
174 198 0
175 198 0
174 198 0
175 198 0
175 198 0
175 198 0
173 197 0
173 197 0
173 197 0
175 198 0
173 197 0
173 197 0
174 197 0
174 198 0
174 197 0
177 199 0
175 198 0
175 198 0
174 198 0
173 197 0
174 197 0
175 198 0
174 198 0
177 198 0
174 197 0
177 199 0
175 198 0
173 197 0
173 197 0
173 197 0
173 197 0
173 197 0
175 198 0
171 196 0
174 197 0
175 198 0
172 196 0
170 195 0
174 198 0
176 198 0
173 197 0
175 198 0
174 198 0
173 197 0
174 198 0
172 197 0
173 197 0
176 199 0
174 196 0
173 197 0
174 198 0
176 199 0
175 198 0
176 199 0
175 198 0
173 197 0
172 197 0
173 197 0
176 199 0
174 198 0
174 198 0
175 197 0
174 198 0
174 197 0
173 197 0
174 197 0
173 197 0
177 199 0
174 198 0
175 198 0
175 198 0
174 198 0
173 197 0
172 197 0
172 196 0
175 198 0
173 197 0
174 198 0
172 197 0
175 198 0
174 198 0
174 197 0
173 197 0
174 198 0
174 198 0
176 198 0
174 198 0
176 199 0
174 198 0
175 198 0
175 198 0
175 198 0
173 197 0
173 197 0
173 196 0
174 198 0
176 198 0
173 197 0
174 198 0
174 198 0
173 197 0
174 198 0
175 198 0
175 198 0
176 199 0
174 198 0
174 198 0
175 198 0
173 197 0
174 198 0
174 198 0
174 198 0
175 198 0
173 197 0
173 197 0
175 198 0
175 198 0
175 198 0
172 197 0
176 199 0
174 198 0
176 198 0
176 199 0
172 197 0
174 198 0
174 198 0
173 197 0
173 197 0
175 198 0
173 197 0
173 197 0
174 197 0
174 198 0
175 198 0
174 198 0
177 199 0
174 198 0
175 197 0
173 197 0
174 198 0
173 197 0
174 198 0
173 197 0
175 198 0
174 198 0
173 197 0
173 197 0
175 198 0
174 197 0
174 198 0
178 200 0
173 197 0
174 198 0
177 199 0
173 197 0
175 198 0
175 198 0
177 199 0
174 198 0
177 199 0
174 198 0
176 199 0
175 198 0
174 198 0
175 198 0
176 199 0
173 196 0
175 198 0
175 198 0
177 199 0
172 197 0
174 198 0
171 196 0
174 198 0
174 198 0
175 197 0
176 199 0
175 198 0
175 196 0
173 197 0
174 198 0
176 199 0
175 198 0
173 197 0
177 199 0
176 199 0
173 197 0
174 197 0
175 198 0
174 198 0
173 197 0
175 198 0
171 196 0
175 198 0
172 196 0
173 197 0
174 198 0
173 197 0
176 199 0
174 197 0
171 195 0
174 197 0
175 198 0
172 196 0
175 198 0
173 197 0
174 198 0
173 197 0
174 198 0
176 199 0
176 199 0
175 198 0
174 198 0
175 198 0
174 198 0
174 197 0
175 198 0
173 196 0
174 198 0
176 198 0
174 197 0
174 197 0
174 197 0
174 197 0
173 197 0
173 197 0
173 197 0
176 199 0
172 196 0
176 198 0
172 195 0
174 197 0
174 198 0
175 198 0
175 198 0
173 197 0
174 198 0
173 197 0
176 199 0
173 197 0
174 198 0
175 198 0
176 198 0
175 198 0
173 197 0
176 199 0
174 197 0
176 198 0
173 197 0
173 196 0
172 197 0
174 197 0
173 197 0
173 197 0
175 198 0
173 197 0
175 198 0
175 198 0
173 197 0
174 198 0
173 197 0
173 197 0
175 198 0
175 198 0
174 198 0
176 198 0
173 197 0
172 197 0
175 198 0
174 198 0
173 196 0
178 200 0
175 198 0
172 197 0
177 199 0
174 197 0
174 197 0
172 196 0
177 199 0
177 199 0
173 197 0
172 197 0
174 197 0
175 198 0
176 199 0
173 197 0
172 196 0
171 195 0
173 197 0
173 197 0
174 197 0
173 197 0
172 196 0
174 197 0
174 198 0
176 199 0
176 199 0
173 197 0
173 197 0
174 198 0
173 197 0
176 199 0
174 197 0
174 197 0
172 194 0
176 199 0
172 196 0
176 199 0
176 199 0
173 197 0
175 198 0
174 198 0
174 198 0
173 196 0
175 198 0
174 197 0
175 198 0
175 198 0
175 198 0
174 197 0
175 198 0
172 197 0
175 198 0
175 198 0
174 198 0
175 198 0
173 196 0
173 197 0
174 197 0
174 197 0
174 198 0
173 197 0
175 198 0
175 198 0
174 198 0
174 197 0
174 196 0
174 198 0
175 198 0
176 198 0
174 196 0
174 197 0
172 194 0
175 197 0
175 197 0
175 198 0
175 197 0
173 196 0
175 198 0
176 199 0
174 198 0
172 196 0
176 198 0
174 197 0
173 197 0
177 199 0
175 198 0
173 196 0
173 197 0
173 197 0
174 197 0
175 198 0
175 198 0
176 199 0
175 198 0
173 196 0
174 198 0
171 195 0
173 197 0
173 197 0
174 198 0
173 197 0
174 198 0
172 197 0
176 199 0
172 196 0
172 196 0
172 196 0
174 198 0
176 199 0
174 198 0
175 198 0
175 198 0
172 196 0
177 199 0
175 198 0
173 197 0
171 195 0
176 199 0
173 197 0
172 197 0
173 197 0
173 196 0
173 196 0
174 197 0
175 198 0
176 198 0
174 198 0
172 197 0
176 199 0
174 198 0
174 197 0
175 198 0
175 198 0
175 198 0
176 198 0
174 198 0
173 197 0
175 198 0
176 199 0
175 198 0
174 197 0
175 198 0
177 199 0
174 198 0
177 199 0
176 199 0
176 198 0
175 198 0
172 196 0
174 197 0
173 197 0
174 197 0
176 198 0
175 198 0
175 198 0
174 198 0
172 197 0
176 199 0
174 198 0
175 198 0
175 198 0
175 198 0
174 198 0
176 199 0
175 198 0
172 197 0
173 197 0
178 200 0
176 199 0
174 198 0
173 197 0
176 198 0
173 197 0
175 198 0
174 198 0
173 197 0
173 197 0
174 198 0
172 197 0
173 197 0
174 197 0
176 199 0
174 198 0
175 198 0
173 197 0
175 198 0
175 198 0
177 199 0
177 198 0
172 196 0
174 197 0
175 198 0
173 197 0
175 198 0
174 197 0
174 197 0
174 198 0
173 197 0
175 198 0
172 196 0
173 197 0
175 198 0
174 197 0
174 198 0
175 198 0
173 197 0
175 198 0
173 197 0
174 197 0
174 197 0
173 197 0
175 198 0
175 198 0
175 198 0
173 197 0
176 198 0
175 198 0
176 198 0
174 197 0
174 198 0
174 198 0
175 198 0
173 195 0
175 198 0
179 200 0
174 198 0
174 197 0
175 198 0
176 198 0
174 197 0
174 197 0
176 198 0
173 197 0
174 198 0
175 198 0
173 197 0
173 197 0
176 199 0
172 197 0
172 196 0
172 196 0
174 197 0
174 198 0
175 198 0
175 198 0
173 197 0
176 198 0
173 197 0
173 197 0
174 198 0
175 198 0
174 197 0
175 198 0
175 198 0
175 198 0
173 197 0
174 197 0
174 198 0
174 198 0
175 198 0
173 197 0
175 198 0
175 198 0
175 198 0
172 197 0
172 197 0
177 199 0
177 199 0
175 198 0
176 199 0
176 199 0
175 198 0
173 197 0
175 198 0
172 196 0
173 197 0
177 199 0
176 198 0
175 198 0
174 198 0
175 198 0
173 197 0
174 198 0
174 198 0
173 197 0
175 198 0
175 198 0
175 198 0
176 198 0
174 198 0
177 199 0
174 198 0
176 199 0
174 197 0
175 198 0
174 198 0
173 197 0
172 197 0
171 196 0
174 198 0
171 196 0
175 198 0
175 198 0
173 197 0
177 199 0
174 198 0
176 199 0
174 197 0
176 199 0
174 198 0
174 198 0
174 197 0
174 197 0
176 199 0
171 196 0
176 199 0
175 198 0
174 197 0
174 198 0
174 197 0
172 196 0
174 198 0
172 197 0
174 198 0
171 195 0
175 198 0
173 197 0
174 198 0
172 196 0
175 198 0
174 198 0
174 197 0
172 196 0
177 199 0
174 198 0
176 199 0
175 198 0
175 198 0
172 196 0
174 198 0
173 196 0
174 198 0
173 197 0
173 197 0
174 198 0
175 198 0
176 199 0
176 199 0
174 198 0
174 197 0
173 197 0
173 197 0
169 194 0
174 198 0
176 199 0
176 199 0
172 196 0
174 198 0
176 199 0
173 197 0
173 197 0
173 196 0
173 197 0
173 197 0
175 198 0
173 195 0
174 197 0
172 196 0
172 196 0
176 198 0
173 197 0
174 196 0
174 198 0
173 196 0
174 197 0
174 198 0
174 197 0
174 197 0
173 197 0
175 198 0
174 197 0
175 198 0
175 198 0
175 198 0
175 198 0
173 197 0
171 196 0
175 198 0
176 199 0
173 197 0
172 196 0
172 197 0
174 198 0
173 196 0
176 199 0
175 198 0
175 198 0
174 198 0
173 196 0
172 195 0
177 199 0
176 199 0
174 197 0
176 199 0
174 196 0
175 198 0
174 197 0
173 197 0
174 198 0
174 198 0
175 198 0
175 197 0
173 197 0
173 197 0
174 198 0
174 197 0
175 198 0
173 197 0
175 198 0
169 193 0
175 198 0
176 198 0
175 198 0
173 197 0
173 197 0
173 196 0
174 197 0
174 197 0
173 197 0
176 198 0
174 198 0
175 198 0
174 198 0
175 198 0
175 198 0
176 198 0
173 197 0
176 198 0
173 197 0
172 197 0
175 198 0
175 198 0
174 198 0
173 197 0
174 198 0
176 199 0
176 199 0
174 198 0
176 199 0
170 195 0
176 198 0
174 197 0
175 198 0
176 198 0
175 198 0
175 198 0
173 197 0
171 195 0
174 198 0
175 198 0
174 197 0
175 198 0
172 196 0
174 197 0
175 198 0
176 199 0
173 196 0
174 198 0
173 196 0
173 197 0
176 199 0
176 199 0
174 198 0
175 198 0
174 196 0
174 198 0
175 198 0
174 197 0
175 197 0
176 199 0
174 197 0
177 199 0
173 197 0
175 198 0
174 198 0
174 198 0
177 199 0
174 198 0
173 197 0
174 197 0
172 196 0
175 198 0
175 198 0
174 198 0
174 197 0
176 199 0
176 199 0
173 197 0
174 198 0
174 198 0
176 199 0
172 195 0
174 198 0
176 198 0
173 197 0
175 198 0
173 197 0
177 199 0
174 198 0
174 197 0
176 198 0
174 197 0
175 198 0
174 198 0
176 198 0
174 198 0
174 198 0
176 199 0
176 199 0
177 199 0
177 199 0
170 195 0
174 197 0
171 196 0
173 197 0
175 198 0
174 198 0
176 199 0
173 196 0
173 197 0
175 198 0
175 198 0
174 198 0
176 199 0
175 198 0
173 197 0
174 197 0
176 199 0
175 198 0
174 197 0
175 198 0
176 199 0
175 198 0
173 197 0
174 198 0
170 194 0
177 199 0
174 197 0
173 197 0
173 196 0
172 195 0
174 198 0
176 198 0
176 199 0
174 197 0
173 197 0
174 197 0
175 198 0
173 197 0
172 197 0
173 197 0
175 198 0
176 198 0
177 199 0
174 198 0
175 198 0
173 197 0
175 198 0
173 196 0
176 199 0
174 198 0
175 198 0
175 198 0
173 197 0
174 197 0
173 197 0
173 196 0
174 197 0
172 197 0
177 199 0
173 197 0
174 198 0
173 197 0
173 197 0
174 197 0
173 197 0
175 198 0
174 198 0
174 198 0
176 198 0
174 198 0
174 198 0
175 198 0
176 199 0
173 197 0
177 199 0
176 199 0
174 197 0
178 200 0
175 198 0
174 198 0
174 198 0
173 197 0
173 197 0
173 197 0
173 197 0
179 200 0
174 198 0
173 196 0
174 197 0
176 199 0
175 198 0
176 199 0
175 198 0
174 198 0
174 197 0
176 199 0
176 199 0
173 197 0
173 197 0
174 198 0
174 198 0
171 196 0
177 199 0
172 196 0
175 198 0
174 198 0
174 198 0
176 198 0
174 198 0
174 198 0
175 198 0
174 197 0
175 198 0
175 198 0
174 198 0
174 198 0
175 198 0
175 198 0
176 199 0
176 198 0
175 198 0
176 199 0
175 198 0
174 197 0
178 200 0
176 198 0
176 199 0
173 197 0
176 199 0
171 195 0
172 196 0
174 198 0
175 198 0
176 199 0
175 198 0
176 199 0
176 199 0
177 199 0
174 197 0
175 198 0
176 199 0
173 197 0
175 198 0
173 197 0
174 198 0
175 198 0
172 197 0
175 198 0
173 197 0
176 199 0
174 197 0
175 198 0
174 198 0
177 199 0
174 198 0
175 198 0
175 198 0
174 198 0
175 198 0
172 197 0
173 197 0
173 197 0
175 198 0
175 198 0
173 197 0
175 198 0
172 196 0
171 196 0
177 199 0
173 197 0
174 198 0
176 199 0
175 198 0
174 198 0
172 197 0
173 197 0
176 199 0
172 197 0
173 196 0
174 198 0
175 198 0
173 197 0
171 195 0
176 198 0
175 198 0
171 196 0
174 197 0
174 198 0
173 197 0
176 199 0
174 198 0
174 198 0
174 197 0
173 197 0
175 198 0
177 199 0
175 198 0
173 197 0
174 197 0
175 197 0
174 198 0
175 198 0
175 197 0
174 198 0
174 196 0
175 198 0
176 199 0
174 198 0
175 198 0
178 200 0
174 198 0
175 198 0
175 198 0
174 198 0
173 197 0
171 196 0
175 198 0
170 195 0
175 198 0
176 198 0
176 199 0
172 197 0
173 197 0
176 199 0
174 197 0
174 198 0
175 198 0
177 199 0
174 197 0
175 198 0
172 196 0
176 199 0
175 198 0
174 198 0
173 197 0
175 198 0
173 197 0
175 198 0
175 198 0
174 198 0
173 197 0
175 197 0
177 199 0
172 197 0
175 198 0
173 197 0
174 198 0
174 198 0
174 198 0
174 198 0
174 198 0
175 198 0
174 198 0
173 196 0
172 197 0
173 197 0
174 197 0
173 197 0
176 199 0
174 197 0
174 198 0
175 198 0
173 197 0
175 198 0
173 195 0
174 198 0
176 199 0
173 197 0
174 197 0
172 196 0
177 199 0
174 197 0
174 197 0
176 199 0
175 198 0
176 199 0
173 197 0
172 197 0
174 198 0
175 198 0
174 197 0
171 195 0
174 198 0
173 197 0
173 197 0
176 198 0
171 196 0
176 198 0
176 198 0
174 197 0
173 197 0
177 199 0
173 197 0
173 197 0
173 197 0
177 199 0
175 198 0
172 197 0
169 194 0
172 195 0
174 196 0
173 197 0
175 198 0
173 197 0
175 198 0
175 197 0
174 197 0
175 198 0
174 197 0
175 198 0
174 197 0
173 197 0
177 199 0
174 198 0
174 197 0
174 198 0
174 198 0
175 198 0
174 197 0
176 198 0
174 198 0
173 196 0
176 198 0
173 197 0
172 196 0
173 195 0
174 198 0
173 196 0
174 197 0
176 199 0
174 198 0
173 197 0
177 199 0
174 198 0
173 197 0
174 197 0
172 196 0
174 198 0
173 197 0
172 196 0
174 197 0
174 197 0
175 198 0
173 196 0
171 195 0
176 199 0
176 198 0
176 198 0
172 197 0
174 198 0
171 195 0
173 197 0
172 196 0
172 196 0
175 198 0
174 197 0
175 198 0
175 197 0
170 194 0
175 198 0
173 197 0
171 195 0
172 197 0
174 196 0
174 198 0
176 199 0
176 198 0
174 197 0
174 198 0
174 197 0
173 197 0
175 198 0
173 197 0
172 196 0
173 197 0
174 197 0
176 199 0
173 197 0
177 199 0
173 197 0
173 196 0
174 198 0
175 198 0
174 198 0
174 197 0
174 197 0
176 199 0
176 198 0
175 198 0
173 197 0
175 198 0
172 196 0
172 196 0
174 197 0
175 198 0
174 197 0
175 198 0
176 198 0
175 198 0
174 198 0
173 196 0
174 197 0
176 199 0
175 198 0
173 197 0
175 198 0
174 198 0
176 199 0
172 197 0
172 197 0
175 198 0
172 196 0
174 197 0
171 196 0
174 197 0
174 197 0
175 198 0
173 197 0
173 197 0
175 198 0
175 198 0
175 197 0
176 198 0
176 198 0
177 199 0
174 197 0
174 198 0
176 198 0
175 198 0
173 197 0
176 199 0
174 197 0
174 198 0
175 198 0
171 196 0
172 196 0
176 198 0
175 198 0
174 198 0
172 197 0
173 197 0
175 198 0
172 197 0
175 198 0
174 196 0
173 197 0
174 197 0
174 198 0
172 197 0
176 198 0
173 197 0
172 197 0
173 197 0
174 198 0
178 200 0
173 197 0
174 197 0
173 197 0
174 198 0
174 198 0
176 199 0
174 198 0
175 197 0
173 197 0
172 197 0
176 199 0
172 196 0
176 198 0
173 197 0
174 198 0
175 198 0
174 198 0
174 198 0
175 198 0
174 198 0
174 197 0
173 197 0
174 198 0
173 197 0
173 197 0
173 197 0
175 198 0
176 199 0
173 197 0
174 198 0
175 198 0
175 198 0
175 198 0
173 197 0
175 198 0
176 199 0
174 197 0
175 198 0
172 196 0
176 199 0
172 196 0
175 198 0
174 197 0
176 199 0
174 198 0
175 198 0
175 197 0
174 197 0
173 197 0
176 198 0
174 198 0
175 198 0
174 198 0
175 198 0
175 198 0
174 198 0
174 198 0
175 198 0
174 198 0
174 198 0
174 198 0
176 199 0
176 199 0
173 197 0
173 197 0
175 198 0
175 198 0
172 196 0
172 197 0
176 199 0
175 198 0
173 197 0
175 198 0
176 199 0
174 198 0
173 197 0
174 197 0
175 198 0
174 197 0
173 197 0
172 197 0
173 197 0
173 197 0
175 197 0
174 197 0
174 198 0
175 198 0
175 198 0
176 199 0
174 197 0
175 198 0
174 198 0
174 197 0
172 197 0
173 197 0
172 197 0
177 199 0
177 199 0
173 197 0
173 197 0
175 198 0
175 198 0
173 197 0
172 197 0
176 199 0
175 198 0
173 197 0
175 198 0
175 198 0
175 198 0
173 197 0
175 198 0
174 198 0
177 199 0
172 197 0
176 199 0
177 199 0
174 198 0
173 197 0
173 196 0
174 197 0
174 198 0
174 197 0
175 198 0
174 198 0
177 199 0
172 197 0
175 198 0
174 196 0
174 198 0
174 197 0
175 198 0
176 199 0
174 198 0
173 197 0
176 198 0
174 197 0
176 199 0
173 197 0
173 197 0
173 197 0
174 198 0
175 198 0
175 198 0
173 197 0
175 198 0
174 198 0
174 197 0
172 197 0
173 196 0
172 196 0
174 198 0
174 197 0
173 196 0
175 198 0
175 198 0
170 194 0
175 197 0
174 197 0
173 197 0
171 195 0
173 197 0
175 198 0
173 197 0
176 198 0
172 197 0
174 198 0
175 198 0
174 198 0
175 198 0
175 198 0
172 196 0
176 199 0
175 198 0
174 198 0
174 198 0
175 198 0
175 198 0
172 196 0
175 198 0
173 196 0
173 197 0
174 197 0
175 198 0
175 198 0
175 198 0
175 198 0
176 199 0
175 198 0
174 198 0
174 198 0
173 196 0
174 198 0
175 198 0
173 197 0
175 198 0
177 199 0
174 198 0
175 198 0
175 198 0
176 198 0
174 198 0
174 198 0
175 198 0
174 197 0
174 196 0
176 198 0
173 197 0
174 198 0
173 197 0
175 198 0
171 195 0
175 197 0
175 198 0
174 198 0
174 197 0
175 198 0
174 197 0
173 197 0
174 198 0
174 197 0
175 198 0
175 198 0
171 196 0
177 199 0
173 197 0
171 195 0
175 197 0
176 198 0
172 196 0
176 199 0
176 198 0
173 196 0
177 199 0
176 199 0
173 197 0
176 199 0
175 198 0
175 198 0
174 198 0
172 196 0
173 196 0
176 198 0
174 197 0
173 197 0
177 199 0
173 197 0
175 197 0
176 198 0
173 197 0
173 197 0
175 198 0
175 198 0
175 197 0
172 196 0
173 196 0
174 197 0
171 195 0
173 196 0
175 198 0
174 198 0
169 193 0
173 195 0
173 197 0
173 195 0
176 199 0
174 197 0
174 198 0
170 194 0
174 198 0
175 198 0
174 198 0
172 196 0
176 199 0
169 194 0
177 199 0
174 198 0
176 198 0
173 197 0
172 196 0
175 198 0
176 199 0
174 198 0
174 198 0
173 196 0
174 197 0
175 198 0
173 197 0
175 197 0
172 195 0
176 198 0
174 198 0
174 197 0
173 197 0
173 197 0
173 197 0
175 198 0
174 197 0
173 195 0
176 198 0
174 198 0
174 197 0
175 198 0
174 198 0
175 198 0
176 199 0
173 196 0
173 195 0
176 199 0
175 198 0
172 196 0
174 198 0
173 197 0
173 197 0
172 195 0
174 197 0
173 197 0
174 198 0
174 198 0
175 198 0
171 195 0
175 197 0
169 191 16
159 177 36
145 159 28
162 168 70
154 153 80
143 144 77
149 145 82
152 149 82
153 149 87
153 149 88
148 143 82
130 135 60
156 157 80
141 147 58
163 177 53
158 173 45
166 188 16
175 197 0
174 197 0
176 198 0
177 199 0
170 195 0
172 197 0
176 198 0
172 196 0
173 197 0
178 200 0
173 197 0
175 198 0
174 198 0
174 197 0
175 198 0
175 198 0
172 197 0
174 198 0
174 197 0
175 198 0
173 196 0
175 198 0
175 197 0
174 198 0
174 198 0
177 199 0
176 199 0
174 198 0
172 196 0
175 198 0
174 197 0
173 197 0
176 199 0
174 197 0
176 199 0
177 199 0
175 198 0
176 198 0
173 196 0
172 197 0
174 198 0
175 198 0
173 197 0
173 197 0
175 198 0
174 197 0
176 199 0
173 197 0
176 198 0
174 198 0
175 198 0
176 199 0
172 197 0
175 198 0
177 199 0
174 198 0
174 198 0
177 199 0
173 197 0
175 198 0
175 198 0
174 198 0
173 197 0
175 198 0
173 197 0
175 198 0
173 197 0
174 198 0
174 198 0
172 197 0
175 198 0
175 198 0
173 197 0
175 198 0
174 197 0
174 198 0
174 198 0
174 198 0
176 198 0
175 198 0
173 197 0
174 197 0
173 196 0
173 197 0
171 196 0
174 197 0
176 199 0
173 197 0
176 199 0
174 198 0
174 198 0
174 197 0
175 198 0
174 198 0
172 197 0
174 198 0
175 198 0
172 197 0
175 198 0
173 197 0
175 198 0
173 197 0
173 197 0
173 197 0
174 198 0
176 198 0
174 198 0
174 198 0
172 197 0
175 198 0
177 199 0
174 197 0
171 196 0
177 199 0
175 198 0
175 198 0
173 197 0
175 198 0
175 198 0
175 198 0
174 198 0
174 198 0
173 197 0
176 199 0
175 198 0
174 198 0
174 198 0
175 198 0
174 197 0
174 198 0
173 197 0
174 198 0
175 198 0
177 199 0
173 197 0
174 198 0
174 198 0
173 197 0
177 199 0
176 199 0
175 198 0
175 198 0
176 198 0
174 197 0
176 198 0
174 198 0
177 199 0
176 199 0
174 197 0
175 198 0
174 197 0
175 197 0
174 197 0
173 197 0
175 198 0
174 198 0
173 197 0
173 196 0
172 197 0
173 196 0
175 198 0
173 197 0
174 197 0
173 197 0
175 198 0
175 198 0
173 197 0
177 199 0
173 197 0
176 198 0
172 197 0
177 199 0
175 198 0
173 197 0
176 198 0
173 196 0
176 198 0
175 198 0
176 199 0
173 197 0
175 198 0
173 197 0
175 198 0
176 198 0
176 198 0
175 198 0
176 199 0
174 198 0
174 197 0
176 198 0
173 197 0
175 198 0
175 198 0
173 197 0
172 196 0
175 197 0
174 198 0
174 197 0
175 198 0
174 198 0
174 198 0
172 196 0
173 197 0
174 198 0
173 197 0
175 197 0
175 198 0
172 197 0
174 198 0
173 197 0
173 197 0
175 198 0
173 197 0
175 198 0
176 198 0
172 196 0
175 198 0
173 197 0
176 198 0
174 198 0
175 198 0
176 199 0
175 198 0
175 198 0
175 198 0
174 197 0
174 198 0
175 198 0
173 197 0
173 197 0
175 198 0
175 198 0
174 198 0
175 198 0
173 197 0
173 196 0
172 197 0
174 197 0
171 195 0
174 198 0
172 196 0
174 198 0
174 197 0
175 198 0
175 197 0
176 198 0
174 197 0
173 197 0
174 198 0
175 198 0
172 197 0
177 199 0
172 197 0
174 198 0
174 197 0
174 198 0
172 196 0
174 197 0
173 197 0
173 197 0
175 198 0
172 196 0
173 196 0
176 199 0
173 197 0
172 195 0
174 197 0
171 195 0
174 197 0
174 198 0
174 197 0
171 196 0
174 198 0
172 196 0
175 197 0
172 196 0
176 198 0
173 197 0
173 196 0
174 198 0
172 196 0
176 199 0
175 197 0
174 197 0
171 196 0
173 197 0
174 198 0
173 195 0
175 198 0
175 198 0
176 197 0
172 196 0
175 198 0
175 198 0
174 197 0
175 198 0
172 195 0
173 196 0
176 198 0
175 198 0
174 197 0
175 198 0
172 196 0
177 199 0
173 196 0
173 195 0
175 198 0
173 197 0
174 197 0
173 195 0
174 198 0
174 198 0
174 198 0
174 197 0
173 196 0
171 196 0
174 198 0
173 197 0
172 196 0
174 197 0
171 195 0
174 198 0
171 196 0
172 197 0
175 198 0
174 197 0
175 198 0
174 197 0
173 197 0
176 198 0
174 198 0
175 198 0
176 199 0
175 197 0
174 197 0
174 197 0
173 197 0
173 196 0
175 198 0
175 197 0
173 197 0
174 197 0
173 196 0
175 198 0
175 198 0
177 198 0
175 198 0
174 197 0
175 198 0
172 196 0
171 195 0
175 198 0
175 198 0
173 196 0
176 198 0
174 197 0
175 198 0
171 193 0
172 197 0
173 197 0
174 198 0
174 197 0
174 198 0
176 198 0
176 199 0
174 198 0
174 198 0
176 198 0
175 198 0
174 198 0
173 197 0
174 198 0
174 198 0
173 197 0
173 196 0
173 197 0
173 197 0
174 197 0
174 198 0
168 188 28
162 173 53
149 157 60
143 137 84
144 136 85
143 136 85
140 134 87
143 136 85
130 125 80
147 140 91
137 132 87
150 144 94
147 140 91
139 133 87
132 128 84
135 129 84
130 124 80
145 140 91
144 137 88
144 137 87
150 142 91
134 133 68
156 166 56
163 174 45
169 191 16
173 197 0
175 198 0
173 197 0
175 198 0
176 199 0
175 197 0
173 197 0
173 197 0
175 198 0
173 196 0
174 197 0
174 198 0
173 197 0
173 197 0
171 195 0
174 198 0
174 198 0
174 198 0
174 198 0
173 197 0
175 198 0
176 199 0
176 199 0
174 197 0
174 197 0
175 198 0
175 198 0
174 198 0
172 195 0
175 198 0
177 199 0
173 197 0
174 198 0
175 198 0
175 198 0
173 197 0
173 196 0
174 198 0
174 197 0
174 197 0
174 197 0
173 196 0
174 198 0
175 198 0
177 199 0
174 198 0
174 197 0
178 200 0
175 198 0
175 198 0
174 198 0
177 199 0
174 198 0
174 198 0
174 196 0
176 199 0
173 197 0
175 198 0
175 198 0
176 198 0
173 197 0
173 197 0
176 198 0
176 198 0
173 197 0
174 198 0
173 197 0
172 197 0
175 198 0
174 198 0
171 195 0
175 198 0
173 197 0
173 197 0
175 198 0
172 196 0
174 198 0
176 199 0
174 198 0
174 197 0
173 197 0
174 198 0
175 198 0
175 198 0
172 196 0
175 198 0
175 198 0
174 198 0
176 198 0
172 197 0
172 197 0
175 198 0
174 198 0
175 198 0
173 197 0
172 197 0
173 196 0
174 197 0
174 197 0
175 198 0
172 197 0
172 197 0
174 198 0
174 197 0
175 198 0
174 198 0
174 198 0
174 198 0
173 197 0
173 196 0
175 198 0
175 198 0
175 198 0
174 197 0
172 197 0
175 198 0
173 197 0
174 197 0
174 198 0
174 198 0
174 198 0
174 198 0
176 199 0
173 197 0
173 197 0
174 197 0
176 199 0
175 198 0
173 197 0
176 199 0
174 198 0
175 198 0
174 198 0
175 197 0
175 198 0
172 196 0
175 198 0
175 198 0
173 197 0
173 197 0
176 198 0
172 197 0
174 198 0
175 198 0
175 198 0
175 198 0
176 199 0
176 199 0
173 197 0
175 198 0
172 196 0
172 196 0
174 197 0
174 198 0
173 197 0
173 197 0
174 198 0
174 197 0
175 198 0
174 198 0
174 198 0
174 198 0
175 198 0
174 198 0
175 198 0
176 199 0
174 198 0
172 196 0
175 198 0
174 198 0
174 198 0
174 198 0
174 197 0
175 198 0
174 197 0
175 198 0
174 198 0
173 197 0
175 198 0
176 198 0
174 198 0
171 196 0
176 198 0
173 197 0
175 198 0
174 197 0
174 198 0
175 198 0
171 196 0
175 198 0
171 195 0
174 197 0
174 198 0
175 198 0
176 199 0
174 198 0
174 198 0
176 199 0
175 198 0
174 198 0
174 198 0
174 198 0
172 197 0
174 197 0
173 197 0
175 197 0
175 198 0
174 198 0
175 198 0
175 198 0
177 199 0
174 198 0
174 198 0
175 198 0
173 197 0
174 198 0
174 198 0
176 199 0
173 197 0
174 198 0
173 196 0
175 198 0
175 198 0
173 197 0
176 199 0
174 198 0
174 198 0
177 199 0
174 197 0
174 198 0
175 198 0
173 197 0
174 198 0
173 197 0
174 198 0
175 198 0
173 197 0
174 198 0
175 198 0
172 197 0
174 198 0
173 197 0
175 198 0
175 198 0
174 196 0
176 199 0
173 197 0
175 198 0
173 197 0
175 197 0
174 197 0
176 199 0
172 196 0
174 197 0
174 197 0
175 197 0
177 199 0
174 198 0
173 196 0
171 195 0
172 197 0
175 198 0
175 198 0
176 199 0
173 197 0
173 197 0
172 197 0
174 198 0
175 198 0
172 196 0
173 197 0
175 198 0
175 198 0
174 197 0
174 198 0
175 197 0
173 196 0
175 198 0
175 198 0
172 195 0
172 197 0
175 198 0
173 197 0
175 198 0
175 198 0
169 194 0
174 198 0
174 197 0
177 199 0
174 198 0
173 197 0
174 198 0
174 198 0
174 198 0
174 198 0
174 197 0
173 197 0
175 198 0
172 195 0
172 196 0
174 198 0
174 198 0
175 198 0
174 198 0
174 198 0
175 198 0
172 197 0
174 198 0
173 197 0
172 196 0
171 196 0
173 195 0
176 199 0
176 198 0
174 198 0
174 198 0
172 197 0
173 197 0
176 198 0
175 198 0
176 199 0
172 197 0
174 198 0
172 195 0
173 197 0
175 198 0
175 198 0
175 198 0
175 198 0
176 199 0
175 197 0
175 198 0
174 197 0
175 198 0
173 196 0
174 198 0
176 199 0
175 198 0
174 198 0
172 195 0
172 195 0
177 199 0
173 197 0
176 199 0
173 197 0
173 197 0
172 194 0
170 193 0
175 198 0
173 195 0
174 198 0
176 198 0
176 199 0
174 198 0
175 197 0
173 195 0
176 198 0
174 198 0
175 197 0
173 197 0
171 195 0
173 196 0
175 198 0
175 198 0
174 197 0
174 198 0
174 198 0
174 198 0
176 199 0
175 197 0
175 197 0
173 197 0
172 196 0
167 180 53
157 159 70
142 136 84
134 128 82
134 128 80
146 139 90
163 155 99
155 149 97
143 137 88
142 135 87
142 137 90
153 147 95
142 137 90
155 150 98
159 154 101
141 135 88
143 137 90
137 132 87
152 147 97
135 130 85
148 142 93
142 136 88
143 137 90
151 143 93
144 137 88
136 129 84
124 118 75
138 139 62
149 164 36
165 188 0
173 197 0
174 197 0
173 197 0
174 198 0
174 198 0
175 198 0
175 198 0
175 198 0
173 197 0
173 196 0
174 198 0
176 199 0
173 197 0
176 199 0
174 197 0
173 197 0
175 198 0
176 198 0
175 198 0
172 197 0
174 198 0
175 198 0
173 197 0
172 196 0
174 198 0
175 198 0
174 195 0
173 197 0
173 197 0
175 198 0
175 198 0
176 199 0
175 198 0
173 197 0
170 196 0
174 197 0
175 198 0
173 197 0
175 198 0
173 197 0
172 197 0
175 198 0
176 199 0
174 198 0
172 196 0
173 197 0
174 198 0
172 196 0
173 197 0
175 198 0
172 196 0
175 198 0
172 196 0
174 198 0
173 197 0
172 196 0
173 197 0
175 198 0
173 197 0
173 197 0
175 198 0
175 198 0
173 197 0
172 196 0
174 197 0
175 198 0
173 197 0
174 197 0
174 197 0
175 198 0
173 197 0
175 198 0
173 197 0
173 197 0
174 198 0
175 198 0
173 197 0
174 198 0
174 198 0
175 198 0
173 197 0
176 199 0
177 199 0
175 198 0
175 198 0
176 198 0
175 198 0
174 198 0
175 198 0
175 198 0
174 198 0
173 197 0
175 198 0
175 198 0
173 197 0
177 199 0
175 198 0
174 198 0
175 198 0
178 199 0
173 197 0
172 197 0
174 197 0
173 197 0
174 198 0
174 197 0
174 198 0
172 196 0
173 197 0
173 197 0
173 197 0
176 198 0
174 197 0
174 198 0
176 198 0
176 198 0
175 198 0
173 197 0
175 198 0
174 198 0
173 197 0
173 197 0
175 198 0
174 198 0
176 199 0
173 197 0
173 197 0
174 198 0
172 196 0
174 197 0
175 198 0
172 196 0
174 198 0
175 198 0
174 197 0
173 197 0
175 198 0
172 197 0
175 198 0
175 198 0
176 199 0
174 198 0
173 197 0
175 198 0
177 199 0
174 197 0
174 197 0
176 198 0
173 197 0
173 197 0
175 198 0
175 198 0
173 197 0
175 198 0
172 197 0
173 197 0
174 197 0
173 197 0
174 197 0
173 197 0
175 198 0
176 199 0
175 198 0
175 198 0
174 198 0
173 197 0
176 199 0
174 198 0
175 198 0
175 198 0
172 197 0
173 197 0
176 199 0
175 198 0
176 199 0
175 198 0
174 198 0
176 199 0
176 199 0
173 197 0
173 197 0
176 198 0
174 198 0
176 199 0
173 196 0
173 197 0
174 198 0
175 197 0
173 197 0
176 199 0
172 195 0
174 198 0
176 198 0
173 197 0
175 198 0
175 198 0
174 198 0
173 196 0
176 199 0
172 196 0
173 197 0
172 196 0
174 198 0
172 197 0
174 197 0
174 198 0
174 197 0
173 197 0
176 199 0
175 198 0
174 196 0
173 197 0
174 198 0
172 197 0
174 198 0
175 198 0
174 198 0
177 199 0
174 198 0
175 198 0
174 197 0
175 198 0
174 198 0
174 197 0
176 199 0
177 199 0
177 199 0
174 197 0
174 198 0
174 198 0
174 198 0
175 198 0
175 198 0
176 199 0
172 196 0
174 198 0
175 198 0
174 197 0
175 198 0
173 197 0
175 198 0
175 198 0
175 198 0
173 196 0
174 198 0
174 198 0
175 198 0
176 198 0
176 199 0
176 198 0
174 197 0
177 199 0
173 197 0
175 198 0
175 198 0
173 197 0
175 198 0
173 197 0
174 196 0
176 199 0
173 197 0
175 198 0
174 197 0
175 198 0
174 198 0
176 199 0
174 197 0
171 195 0
175 198 0
174 197 0
174 198 0
173 196 0
173 197 0
176 198 0
173 196 0
173 197 0
171 195 0
172 196 0
174 198 0
175 198 0
173 197 0
174 198 0
174 197 0
169 194 0
173 197 0
173 197 0
176 199 0
173 196 0
172 195 0
172 196 0
176 199 0
172 196 0
176 198 0
172 195 0
173 197 0
176 198 0
174 198 0
176 199 0
170 195 0
174 198 0
173 197 0
176 199 0
172 196 0
175 198 0
175 198 0
173 197 0
174 198 0
174 198 0
173 196 0
174 198 0
175 198 0
171 195 0
174 197 0
174 198 0
174 197 0
176 199 0
174 197 0
175 198 0
172 196 0
175 197 0
172 195 0
174 198 0
172 197 0
172 197 0
171 194 0
172 196 0
173 195 0
174 198 0
173 197 0
172 196 0
172 196 0
175 198 0
173 196 0
174 197 0
175 198 0
171 195 0
175 198 0
175 197 0
173 195 0
174 197 0
172 196 0
177 199 0
173 195 0
173 196 0
173 197 0
173 197 0
173 197 0
173 197 0
172 195 0
175 198 0
175 198 0
172 197 0
171 194 0
173 196 0
173 195 0
174 197 0
174 198 0
175 198 0
172 196 0
172 196 0
172 195 0
174 198 0
172 196 0
172 196 0
172 196 0
173 197 0
175 198 0
173 195 16
151 160 56
156 150 85
142 134 84
153 146 91
157 151 94
142 134 85
154 149 95
154 147 95
160 152 98
156 150 98
152 146 95
146 141 93
149 144 94
144 140 93
160 153 99
149 146 97
142 137 90
138 134 88
132 130 87
156 150 98
153 148 97
156 150 98
151 144 94
154 149 98
153 148 97
147 140 91
135 130 85
148 144 93
145 139 90
141 135 85
152 143 91
135 130 82
142 151 51
169 188 32
175 198 0
173 197 0
171 195 0
176 199 0
173 197 0
174 197 0
175 198 0
173 197 0
175 198 0
173 197 0
176 198 0
172 197 0
174 198 0
175 198 0
174 198 0
173 197 0
176 199 0
172 196 0
175 198 0
172 197 0
176 199 0
172 197 0
173 197 0
175 198 0
176 199 0
173 196 0
174 197 0
176 198 0
174 198 0
175 198 0
176 199 0
172 197 0
173 197 0
174 198 0
174 197 0
174 198 0
174 197 0
173 197 0
174 197 0
175 198 0
170 196 0
174 198 0
172 197 0
173 196 0
173 197 0
176 199 0
175 198 0
177 199 0
174 198 0
174 198 0
173 197 0
173 197 0
173 197 0
173 197 0
176 198 0
175 198 0
174 198 0
175 198 0
173 197 0
172 196 0
173 197 0
174 197 0
175 198 0
177 199 0
173 197 0
176 199 0
175 198 0
172 196 0
173 197 0
174 197 0
175 198 0
175 198 0
175 198 0
176 198 0
173 197 0
174 197 0
173 197 0
175 198 0
176 198 0
176 199 0
173 197 0
175 198 0
174 197 0
175 198 0
174 198 0
174 197 0
175 198 0
176 199 0
175 198 0
174 198 0
171 195 0
174 198 0
175 198 0
174 198 0
174 197 0
175 197 0
172 196 0
176 198 0
175 198 0
175 198 0
174 197 0
174 197 0
174 198 0
174 197 0
175 198 0
175 198 0
174 197 0
176 199 0
174 198 0
174 198 0
175 198 0
174 197 0
175 198 0
175 198 0
175 198 0
174 198 0
174 198 0
176 199 0
175 198 0
175 198 0
174 198 0
175 198 0
176 199 0
174 198 0
175 198 0
173 197 0
174 198 0
175 198 0
174 197 0
173 197 0
174 198 0
172 196 0
175 198 0
174 197 0
176 199 0
174 198 0
171 196 0
172 197 0
175 198 0
173 197 0
175 198 0
176 199 0
173 197 0
173 197 0
172 197 0
177 199 0
173 197 0
172 197 0
173 197 0
175 198 0
169 194 0
172 196 0
175 198 0
175 197 0
175 198 0
175 198 0
174 197 0
174 198 0
172 197 0
174 198 0
176 199 0
174 198 0
174 198 0
173 197 0
175 198 0
174 197 0
173 197 0
176 198 0
174 198 0
178 200 0
174 198 0
173 197 0
174 197 0
175 198 0
178 200 0
173 197 0
174 198 0
176 199 0
175 198 0
175 198 0
175 198 0
175 198 0
174 197 0
175 198 0
174 198 0
174 198 0
173 197 0
175 198 0
177 199 0
177 199 0
175 198 0
174 198 0
173 197 0
173 197 0
172 197 0
176 199 0
176 199 0
173 196 0
173 197 0
171 195 0
175 198 0
174 198 0
173 197 0
176 199 0
176 199 0
173 197 0
175 198 0
175 198 0
177 199 0
174 198 0
176 199 0
174 197 0
173 197 0
175 198 0
174 198 0
175 198 0
177 199 0
176 199 0
176 199 0
177 199 0
175 198 0
173 197 0
175 198 0
173 197 0
174 198 0
174 197 0
173 197 0
173 197 0
173 197 0
175 198 0
174 197 0
174 197 0
175 198 0
174 198 0
176 198 0
173 197 0
176 198 0
175 198 0
174 197 0
176 199 0
175 198 0
172 197 0
172 196 0
173 196 0
174 198 0
174 198 0
174 198 0
172 196 0
171 196 0
171 195 0
172 196 0
176 199 0
176 199 0
174 198 0
175 198 0
175 198 0
175 198 0
174 198 0
173 195 0
174 197 0
174 197 0
173 196 0
173 197 0
174 197 0
176 198 0
172 196 0
172 194 0
172 195 0
173 197 0
174 198 0
174 198 0
173 196 0
174 197 0
175 198 0
174 198 0
176 198 0
174 197 0
173 197 0
175 198 0
175 198 0
171 195 0
175 198 0
175 197 0
174 198 0
172 195 0
172 196 0
176 199 0
173 196 0
172 195 0
173 197 0
175 198 0
175 198 0
173 197 0
173 196 0
173 196 0
172 197 0
171 194 0
174 198 0
174 198 0
173 196 0
172 196 0
175 198 0
174 198 0
175 198 0
174 197 0
174 197 0
173 197 0
175 198 0
178 199 0
174 198 0
171 195 0
176 198 0
177 199 0
174 198 0
173 195 0
176 199 0
176 198 0
175 198 0
175 197 0
175 198 0
176 199 0
174 197 0
172 195 0
173 197 0
173 196 0
174 197 0
175 198 0
174 197 0
172 196 0
173 196 0
175 198 0
174 198 0
174 197 0
173 197 0
172 195 0
173 197 0
172 195 0
173 197 0
172 195 0
174 198 0
173 197 0
171 195 0
173 197 0
173 196 0
173 196 0
173 197 0
177 199 0
174 197 0
174 198 0
173 196 0
173 196 0
175 198 0
173 197 0
174 197 0
174 196 0
176 198 0
173 197 0
175 198 0
175 197 0
174 196 0
175 198 0
176 199 0
173 196 0
171 193 22
147 156 51
136 130 79
138 130 79
137 131 80
142 136 82
140 134 85
145 140 88
138 132 85
145 140 90
138 131 85
161 156 102
153 147 97
132 129 85
145 141 93
149 144 95
149 144 95
155 150 98
152 148 98
154 149 98
149 144 95
148 143 94
152 147 97
127 123 80
149 145 95
164 158 103
142 138 91
147 140 91
143 138 90
147 143 94
140 135 88
141 137 90
148 141 91
152 146 94
130 126 75
137 131 82
155 148 93
151 158 64
171 192 28
174 197 0
175 198 0
173 197 0
173 197 0
177 198 0
175 198 0
173 197 0
174 197 0
173 197 0
175 198 0
174 198 0
174 197 0
173 197 0
173 197 0
174 198 0
176 199 0
172 197 0
173 197 0
171 194 0
174 196 0
174 196 0
173 197 0
172 196 0
176 198 0
172 197 0
172 197 0
174 197 0
175 198 0
175 198 0
175 198 0
175 198 0
170 195 0
174 197 0
173 197 0
175 198 0
171 195 0
174 197 0
176 198 0
173 197 0
173 197 0
176 199 0
175 198 0
174 197 0
175 198 0
172 197 0
174 198 0
173 197 0
175 198 0
174 197 0
173 197 0
175 198 0
175 198 0
175 198 0
174 197 0
175 198 0
172 196 0
171 195 0
175 198 0
175 198 0
175 198 0
177 199 0
174 197 0
173 197 0
175 198 0
176 199 0
174 198 0
173 197 0
176 199 0
174 198 0
175 198 0
172 197 0
173 197 0
175 198 0
173 197 0
176 199 0
175 197 0
174 197 0
173 197 0
175 198 0
177 199 0
176 199 0
176 199 0
176 199 0
174 198 0
175 198 0
174 198 0
173 197 0
173 197 0
174 198 0
175 198 0
175 198 0
175 198 0
175 198 0
173 197 0
173 197 0
174 198 0
174 197 0
175 198 0
174 197 0
173 197 0
176 199 0
174 198 0
175 198 0
173 197 0
173 197 0
177 199 0
175 198 0
174 198 0
174 197 0
177 199 0
176 198 0
177 199 0
173 197 0
176 198 0
176 199 0
175 198 0
173 197 0
178 200 0
174 198 0
173 197 0
175 198 0
174 198 0
174 198 0
175 198 0
177 199 0
174 198 0
176 199 0
173 196 0
175 198 0
174 198 0
173 197 0
174 197 0
173 197 0
177 199 0
176 199 0
175 198 0
174 197 0
175 198 0
173 197 0
174 197 0
174 198 0
176 199 0
173 197 0
176 199 0
174 198 0
176 199 0
173 197 0
172 197 0
174 197 0
172 197 0
175 198 0
173 197 0
173 197 0
175 198 0
175 198 0
173 197 0
172 195 0
173 197 0
176 198 0
173 196 0
177 199 0
174 198 0
171 196 0
174 198 0
176 198 0
174 198 0
174 198 0
176 198 0
176 199 0
173 197 0
173 197 0
174 197 0
175 198 0
176 199 0
173 197 0
174 198 0
175 198 0
174 198 0
176 199 0
175 198 0
173 196 0
173 197 0
175 197 0
174 198 0
174 198 0
174 197 0
174 197 0
172 197 0
174 198 0
175 198 0
174 198 0
175 198 0
170 194 0
176 199 0
173 197 0
174 198 0
174 198 0
175 198 0
172 195 0
172 196 0
174 197 0
175 198 0
175 198 0
174 198 0
173 197 0
177 199 0
175 198 0
175 198 0
175 198 0
175 198 0
178 200 0
175 198 0
176 199 0
175 198 0
172 196 0
174 198 0
175 198 0
173 197 0
174 197 0
174 198 0
176 199 0
171 195 0
172 197 0
175 198 0
173 196 0
173 197 0
177 199 0
174 198 0
174 198 0
172 195 0
174 197 0
172 196 0
174 198 0
172 197 0
171 195 0
174 198 0
176 198 0
175 198 0
174 198 0
174 197 0
177 199 0
174 198 0
174 197 0
174 198 0
173 196 0
173 197 0
175 198 0
174 197 0
173 196 0
175 198 0
176 199 0
174 198 0
177 199 0
175 198 0
174 197 0
173 197 0
174 197 0
174 197 0
176 199 0
174 197 0
172 197 0
173 197 0
175 198 0
175 198 0
174 197 0
174 198 0
174 198 0
175 197 0
173 197 0
170 195 0
174 198 0
173 197 0
175 197 0
174 198 0
175 198 0
174 197 0
173 196 0
173 197 0
173 196 0
173 197 0
171 195 0
174 198 0
175 198 0
173 197 0
172 195 0
171 194 0
172 196 0
171 195 0
175 198 0
176 198 0
175 198 0
172 197 0
174 198 0
174 198 0
175 198 0
172 196 0
175 198 0
175 198 0
173 197 0
175 198 0
174 198 0
174 198 0
170 195 0
172 197 0
172 196 0
175 198 0
171 194 0
174 198 0
174 197 0
173 197 0
174 198 0
173 196 0
176 198 0
170 194 0
175 198 0
172 195 0
175 198 0
172 195 0
175 197 0
173 197 0
176 199 0
173 197 0
174 198 0
175 198 0
173 196 0
175 197 0
176 199 0
174 197 0
171 195 0
173 197 0
173 196 0
172 195 0
174 198 0
173 196 0
174 197 0
173 196 0
173 197 0
176 199 0
174 197 0
174 197 0
170 194 0
175 198 0
178 200 0
174 197 0
174 198 0
174 197 0
176 198 0
168 192 0
173 195 0
173 197 0
173 196 0
172 195 0
174 196 0
174 197 0
174 197 0
174 197 0
173 196 0
172 195 0
174 197 0
170 193 0
152 163 53
138 133 72
148 140 87
131 126 79
127 122 74
145 140 87
157 150 95
148 142 93
145 139 90
155 149 97
149 145 95
153 149 98
149 145 95
152 147 97
165 160 106
148 144 95
151 149 99
156 152 101
161 157 104
146 143 95
147 144 95
143 139 91
150 146 97
155 152 101
154 151 101
152 147 97
144 140 93
151 146 95
153 149 98
150 145 95
152 147 97
146 142 94
141 138 91
150 145 95
150 145 95
140 135 88
151 146 94
132 127 79
154 146 91
141 136 82
150 158 58
174 196 16
174 198 0
172 196 0
173 197 0
175 198 0
175 198 0
173 196 0
174 197 0
176 198 0
175 197 0
176 198 0
174 197 0
175 198 0
177 199 0
175 198 0
175 198 0
176 199 0
172 197 0
175 198 0
175 198 0
174 198 0
174 197 0
174 197 0
173 197 0
174 198 0
174 197 0
176 199 0
174 198 0
174 198 0
172 196 0
175 198 0
174 198 0
176 199 0
173 197 0
174 197 0
172 197 0
174 196 0
174 198 0
175 198 0
172 197 0
173 197 0
173 197 0
173 197 0
175 198 0
174 197 0
174 198 0
175 198 0
175 197 0
173 197 0
173 197 0
173 197 0
175 198 0
175 198 0
175 198 0
175 198 0
175 198 0
175 198 0
175 198 0
175 198 0
175 198 0
174 197 0
176 199 0
172 197 0
175 198 0
175 198 0
174 198 0
174 197 0
176 199 0
175 198 0
173 197 0
174 197 0
175 198 0
174 197 0
174 197 0
174 198 0
174 198 0
175 198 0
177 199 0
172 196 0
175 197 0
175 198 0
173 197 0
174 198 0
175 198 0
175 198 0
174 197 0
173 196 0
174 198 0
172 196 0
172 196 0
175 197 0
175 198 0
174 198 0
174 197 0
175 198 0
176 199 0
174 198 0
175 198 0
176 198 0
175 198 0
174 198 0
173 197 0
173 197 0
173 197 0
172 197 0
175 198 0
174 197 0
173 196 0
174 198 0
175 198 0
173 197 0
174 197 0
173 197 0
177 199 0
174 198 0
174 198 0
176 199 0
173 197 0
176 199 0
174 197 0
175 198 0
175 197 0
172 197 0
174 198 0
175 198 0
175 198 0
176 199 0
172 197 0
174 198 0
176 199 0
176 199 0
176 198 0
175 198 0
173 197 0
173 197 0
175 198 0
173 197 0
174 197 0
174 197 0
174 198 0
175 198 0
176 199 0
175 198 0
176 199 0
174 197 0
173 197 0
175 198 0
174 198 0
173 196 0
175 198 0
173 197 0
177 199 0
172 196 0
174 197 0
172 196 0
173 197 0
174 197 0
174 197 0
175 198 0
175 198 0
175 198 0
172 197 0
174 197 0
174 198 0
173 197 0
174 198 0
174 198 0
174 198 0
176 199 0
172 195 0
173 197 0
176 199 0
174 198 0
175 198 0
175 198 0
175 198 0
173 197 0
174 198 0
174 198 0
174 198 0
175 198 0
172 197 0
176 198 0
174 198 0
175 197 0
175 198 0
174 198 0
175 198 0
175 198 0
174 197 0
174 198 0
173 197 0
175 198 0
171 196 0
174 198 0
174 198 0
172 197 0
173 197 0
174 198 0
173 197 0
175 198 0
172 195 0
174 198 0
173 196 0
173 197 0
173 197 0
175 198 0
175 198 0
175 198 0
176 199 0
176 198 0
172 196 0
170 194 0
175 198 0
173 196 0
174 197 0
173 197 0
173 197 0
175 198 0
175 198 0
174 198 0
174 198 0
175 198 0
172 196 0
173 196 0
175 198 0
173 197 0
174 196 0
176 199 0
172 195 0
174 197 0
175 198 0
172 196 0
175 198 0
176 199 0
174 198 0
174 198 0
175 198 0
173 197 0
174 198 0
171 195 0
174 197 0
173 197 0
176 199 0
175 198 0
174 197 0
172 194 0
175 198 0
175 198 0
174 197 0
174 198 0
174 198 0
173 197 0
172 196 0
173 197 0
174 197 0
172 196 0
176 199 0
174 198 0
172 197 0
175 198 0
175 198 0
175 198 0
174 197 0
170 194 0
174 198 0
171 196 0
173 197 0
173 196 0
169 194 0
173 196 0
173 197 0
174 197 0
175 197 0
174 198 0
175 198 0
173 197 0
174 198 0
172 195 0
171 195 0
172 196 0
174 197 0
176 199 0
171 195 0
174 197 0
174 198 0
174 197 0
172 196 0
173 197 0
174 198 0
172 196 0
175 198 0
175 198 0
175 197 0
175 198 0
174 197 0
174 198 0
174 197 0
175 198 0
175 198 0
176 198 0
174 198 0
171 195 0
173 195 0
172 197 0
177 199 0
173 197 0
173 196 0
176 198 0
175 198 0
175 197 0
176 199 0
175 198 0
173 196 0
172 197 0
172 196 0
173 196 0
175 198 0
175 198 0
175 198 0
177 199 0
172 196 0
173 197 0
174 197 0
175 198 0
172 196 0
172 196 0
173 196 0
171 194 0
174 198 0
173 195 0
173 197 0
173 196 0
173 196 0
173 197 0
172 195 0
171 195 0
169 193 0
177 199 0
171 195 0
169 193 0
174 197 0
176 198 0
177 199 0
174 197 0
174 197 0
174 197 0
173 197 0
175 198 0
173 196 0
172 194 0
174 197 0
172 196 0
174 198 0
172 195 0
173 196 0
172 196 0
162 176 42
130 130 62
128 123 72
151 145 90
132 127 79
153 146 91
152 147 97
164 158 99
145 140 91
153 148 95
150 145 95
162 157 103
151 147 97
156 152 99
152 147 97
152 149 99
156 152 101
160 156 103
161 157 104
156 152 101
152 149 99
146 143 95
154 150 99
153 149 98
165 160 106
166 162 107
159 155 102
153 148 98
148 144 95
138 136 91
150 145 95
157 154 102
159 155 102
149 146 97
157 151 98
142 137 90
147 142 93
148 144 95
162 156 101
145 139 91
140 135 87
145 138 90
143 137 87
144 147 64
157 173 36
175 198 0
173 196 0
173 197 0
174 197 0
173 197 0
175 198 0
173 196 0
174 198 0
173 197 0
175 198 0
172 197 0
172 196 0
174 196 0
172 197 0
174 198 0
174 197 0
175 198 0
173 197 0
172 196 0
173 197 0
174 197 0
174 197 0
176 199 0
173 197 0
173 197 0
174 197 0
176 199 0
173 197 0
173 197 0
174 198 0
175 198 0
174 197 0
176 198 0
175 198 0
175 198 0
176 198 0
175 198 0
176 198 0
173 197 0
175 198 0
173 197 0
174 198 0
175 198 0
174 198 0
177 199 0
173 197 0
173 197 0
174 198 0
174 197 0
175 198 0
175 198 0
175 198 0
176 199 0
173 197 0
175 198 0
176 198 0
177 199 0
175 197 0
175 198 0
172 197 0
175 197 0
174 198 0
171 196 0
175 198 0
175 198 0
174 198 0
176 199 0
174 198 0
173 197 0
175 198 0
175 198 0
174 197 0
174 197 0
174 197 0
174 198 0
177 199 0
174 198 0
175 198 0
175 198 0
174 198 0
173 197 0
174 197 0
175 198 0
173 196 0
174 198 0
174 198 0
172 196 0
174 198 0
174 198 0
174 198 0
173 197 0
176 199 0
175 198 0
173 197 0
176 198 0
174 197 0
177 199 0
173 197 0
174 198 0
175 198 0
175 198 0
175 198 0
174 198 0
175 198 0
172 197 0
175 198 0
175 198 0
174 198 0
175 198 0
174 198 0
174 197 0
174 198 0
176 198 0
175 198 0
175 197 0
174 197 0
176 199 0
174 198 0
174 198 0
175 198 0
172 196 0
176 199 0
173 197 0
174 198 0
175 198 0
175 198 0
174 197 0
174 198 0
175 198 0
175 198 0
174 198 0
175 198 0
175 198 0
174 198 0
173 197 0
176 199 0
174 197 0
173 197 0
172 197 0
175 198 0
175 198 0
175 198 0
174 198 0
175 198 0
174 197 0
176 199 0
177 199 0
174 198 0
174 197 0
173 197 0
175 198 0
174 198 0
176 198 0
177 199 0
171 196 0
173 197 0
171 195 0
174 197 0
175 198 0
176 199 0
174 198 0
175 198 0
176 199 0
176 199 0
176 199 0
175 198 0
172 196 0
176 198 0
174 197 0
175 198 0
176 198 0
174 198 0
174 197 0
174 198 0
175 198 0
174 198 0
174 198 0
172 196 0
173 197 0
174 198 0
174 198 0
175 198 0
176 199 0
176 199 0
173 197 0
172 197 0
175 198 0
178 199 0
175 198 0
174 198 0
175 198 0
175 197 0
171 195 0
173 197 0
172 196 0
174 198 0
174 198 0
174 198 0
170 194 0
174 198 0
176 198 0
172 197 0
173 197 0
174 197 0
175 198 0
175 198 0
170 195 0
175 198 0
176 198 0
175 198 0
173 197 0
176 199 0
172 197 0
173 197 0
173 197 0
175 198 0
175 197 0
175 198 0
175 198 0
175 198 0
175 198 0
174 197 0
174 198 0
174 197 0
173 197 0
175 198 0
173 197 0
173 196 0
172 196 0
175 198 0
178 200 0
169 193 0
176 199 0
171 196 0
176 199 0
174 198 0
174 198 0
175 198 0
174 198 0
175 198 0
173 197 0
173 197 0
174 198 0
172 196 0
173 197 0
172 196 0
174 197 0
173 197 0
176 199 0
171 195 0
174 197 0
175 198 0
175 198 0
171 196 0
175 198 0
176 198 0
174 198 0
176 198 0
173 196 0
174 198 0
173 197 0
173 196 0
173 197 0
172 196 0
175 198 0
174 198 0
173 197 0
175 198 0
176 199 0
173 196 0
172 195 0
177 199 0
171 196 0
173 197 0
175 198 0
176 198 0
174 198 0
174 198 0
173 196 0
174 197 0
174 198 0
174 197 0
172 197 0
175 198 0
175 198 0
173 196 0
173 197 0
171 195 0
171 195 0
171 195 0
174 198 0
173 196 0
174 198 0
173 197 0
171 195 0
174 197 0
175 198 0
175 198 0
172 195 0
173 197 0
176 199 0
173 195 0
172 196 0
176 198 0
174 197 0
172 195 0
173 196 0
174 197 0
174 198 0
175 198 0
174 196 0
177 199 0
172 195 0
176 198 0
175 198 0
174 197 0
172 196 0
173 197 0
175 198 0
173 197 0
175 196 0
173 196 0
176 197 0
174 198 0
174 197 0
174 198 0
174 197 0
173 196 0
175 197 0
175 198 0
176 198 0
176 198 0
175 197 0
175 198 0
176 199 0
170 193 0
175 197 0
173 196 0
172 197 0
172 196 0
172 197 0
175 198 0
174 197 0
172 197 0
175 198 0
175 198 0
174 198 0
171 195 0
175 198 0
175 198 0
174 198 0
174 197 0
174 198 0
168 190 0
148 155 53
134 128 74
140 135 82
159 153 94
153 146 91
157 151 97
153 147 94
153 148 95
158 153 99
147 141 93
155 150 98
151 146 95
161 156 102
154 151 101
154 148 97
151 148 98
155 152 101
153 150 98
160 157 104
152 147 97
161 156 103
164 161 107
154 151 101
158 154 102
157 154 102
157 154 103
161 156 103
150 147 98
141 140 94
165 162 108
158 154 102
162 158 104
166 163 108
156 151 99
152 148 98
148 143 94
165 159 104
164 159 104
154 149 97
143 138 88
159 152 98
144 139 88
140 134 85
136 131 85
140 134 84
137 130 79
159 169 58
173 196 0
174 198 0
172 197 0
176 199 0
172 196 0
173 197 0
175 197 0
177 199 0
174 197 0
174 198 0
175 198 0
174 196 0
174 197 0
171 195 0
172 195 0
175 197 0
175 198 0
171 194 0
174 198 0
174 197 0
175 198 0
175 198 0
174 198 0
175 198 0
174 197 0
170 195 0
171 194 0
174 197 0
176 199 0
175 198 0
173 197 0
171 196 0
175 198 0
175 198 0
176 199 0
175 198 0
176 199 0
172 197 0
174 198 0
174 197 0
174 198 0
174 198 0
177 199 0
173 196 0
173 197 0
173 197 0
174 198 0
174 198 0
173 197 0
175 198 0
175 198 0
175 197 0
174 196 0
174 198 0
170 194 0
173 197 0
173 197 0
174 198 0
173 197 0
173 197 0
175 198 0
176 199 0
177 199 0
172 195 0
172 197 0
172 195 0
176 198 0
175 198 0
174 197 0
173 196 0
175 198 0
176 199 0
175 198 0
175 198 0
176 199 0
174 197 0
176 199 0
171 196 0
174 197 0
175 198 0
175 198 0
176 199 0
173 197 0
174 198 0
175 198 0
176 199 0
175 198 0
175 198 0
175 198 0
174 197 0
177 199 0
175 198 0
176 199 0
175 198 0
175 198 0
176 198 0
172 197 0
172 196 0
174 197 0
174 198 0
173 197 0
176 199 0
174 197 0
177 199 0
173 197 0
173 197 0
177 199 0
173 197 0
175 198 0
175 198 0
175 198 0
173 197 0
176 198 0
176 198 0
173 197 0
173 196 0
174 197 0
174 198 0
175 198 0
175 198 0
173 197 0
174 197 0
174 198 0
175 198 0
173 197 0
175 198 0
175 198 0
173 197 0
176 198 0
172 197 0
174 198 0
175 198 0
174 198 0
175 198 0
175 198 0
176 198 0
174 198 0
175 198 0
175 198 0
175 198 0
174 197 0
173 197 0
173 196 0
174 198 0
175 198 0
176 199 0
173 197 0
173 197 0
175 198 0
174 197 0
176 199 0
175 198 0
176 199 0
176 199 0
173 197 0
176 198 0
174 198 0
172 196 0
174 198 0
176 199 0
176 199 0
174 198 0
175 198 0
173 197 0
175 198 0
176 198 0
178 200 0
174 198 0
174 197 0
176 198 0
174 198 0
174 198 0
174 198 0
175 198 0
176 199 0
177 198 0
173 197 0
177 199 0
175 198 0
174 198 0
175 197 0
176 198 0
174 198 0
171 196 0
174 197 0
173 197 0
175 198 0
174 198 0
173 197 0
175 198 0
174 197 0
174 197 0
175 198 0
175 198 0
172 196 0
174 198 0
174 197 0
172 196 0
174 196 0
173 197 0
175 198 0
173 196 0
173 196 0
174 198 0
172 196 0
174 198 0
175 198 0
176 199 0
174 198 0
175 198 0
175 198 0
172 197 0
174 197 0
175 198 0
173 196 0
173 197 0
174 197 0
178 200 0
175 198 0
174 198 0
176 199 0
172 196 0
176 199 0
174 198 0
175 198 0
175 198 0
173 196 0
177 199 0
171 195 0
174 198 0
174 198 0
174 198 0
174 198 0
171 194 0
175 198 0
174 198 0
173 196 0
174 196 0
176 198 0
173 197 0
171 196 0
175 198 0
174 198 0
173 197 0
175 198 0
177 199 0
174 198 0
174 197 0
172 195 0
176 198 0
175 198 0
172 195 0
174 198 0
174 198 0
174 198 0
175 198 0
176 199 0
171 195 0
173 197 0
172 196 0
173 197 0
174 197 0
172 195 0
173 197 0
173 196 0
175 198 0
176 199 0
174 198 0
173 197 0
171 195 0
174 196 0
175 198 0
175 198 0
174 198 0
173 197 0
175 198 0
177 198 0
174 198 0
176 198 0
174 198 0
172 196 0
171 195 0
176 199 0
174 198 0
173 197 0
173 197 0
171 195 0
175 198 0
174 198 0
172 196 0
175 198 0
172 196 0
174 197 0
172 197 0
174 198 0
175 198 0
176 199 0
174 198 0
172 196 0
175 198 0
172 195 0
174 198 0
176 198 0
175 198 0
175 198 0
173 196 0
175 197 0
172 196 0
175 198 0
174 198 0
175 198 0
172 196 0
175 198 0
173 197 0
172 196 0
175 198 0
172 196 0
175 198 0
172 195 0
174 197 0
175 198 0
173 196 0
174 197 0
173 197 0
175 198 0
176 199 0
173 197 0
174 198 0
175 197 0
175 198 0
175 197 0
173 196 0
174 197 0
174 197 0
174 197 0
172 196 0
172 196 0
173 196 0
174 197 0
176 198 0
171 194 0
175 198 0
172 197 0
173 197 0
173 197 0
175 197 0
174 197 0
174 197 0
175 198 0
174 198 0
176 199 0
168 190 0
136 140 58
134 128 74
135 129 80
138 133 80
149 144 91
148 143 90
139 136 84
148 144 93
160 154 98
161 155 95
158 153 99
152 146 95
159 154 101
165 160 104
156 153 102
152 148 98
161 157 103
154 150 98
164 160 106
159 155 103
156 152 101
146 144 97
154 152 102
155 152 101
151 150 101
161 158 104
162 158 104
161 160 107
160 157 104
154 151 101
159 156 103
164 161 107
165 161 107
156 152 101
166 162 107
161 157 103
157 153 101
155 149 98
160 155 102
152 147 95
132 129 84
155 150 98
160 154 99
162 156 102
150 144 94
154 146 91
145 139 84
155 146 90
145 147 68
163 186 16
176 199 0
175 198 0
177 199 0
174 198 0
173 197 0
174 198 0
176 199 0
174 197 0
177 199 0
174 198 0
173 194 0
174 198 0
173 197 0
173 197 0
173 197 0
176 199 0
172 195 0
175 198 0
174 197 0
176 199 0
176 199 0
172 196 0
175 198 0
175 198 0
173 197 0
172 197 0
176 199 0
175 198 0
176 199 0
173 197 0
176 199 0
174 197 0
172 196 0
174 197 0
175 198 0
174 197 0
176 198 0
175 198 0
172 196 0
174 198 0
172 197 0
175 198 0
172 196 0
176 198 0
173 196 0
173 197 0
175 198 0
175 198 0
173 196 0
173 197 0
174 198 0
174 197 0
173 197 0
173 197 0
175 198 0
173 197 0
173 197 0
173 197 0
175 198 0
175 198 0
175 198 0
174 198 0
175 198 0
172 196 0
174 198 0
176 199 0
176 198 0
174 198 0
176 198 0
175 198 0
173 197 0
174 197 0
173 197 0
175 198 0
175 198 0
174 198 0
175 197 0
177 199 0
175 198 0
173 197 0
174 198 0
174 198 0
176 198 0
174 197 0
175 198 0
175 198 0
176 199 0
176 199 0
176 198 0
174 197 0
177 199 0
174 198 0
176 198 0
173 197 0
175 198 0
175 198 0
174 198 0
174 197 0
175 198 0
176 199 0
174 197 0
173 197 0
173 197 0
174 197 0
176 198 0
173 197 0
174 198 0
174 198 0
175 198 0
173 197 0
174 197 0
175 198 0
176 199 0
174 198 0
176 199 0
172 197 0
174 198 0
174 198 0
172 197 0
175 198 0
173 197 0
175 198 0
175 198 0
172 197 0
175 198 0
174 197 0
176 198 0
174 198 0
176 198 0
174 198 0
172 197 0
174 198 0
175 198 0
173 197 0
172 196 0
173 197 0
175 198 0
175 198 0
174 198 0
172 197 0
174 197 0
174 198 0
174 198 0
175 198 0
176 198 0
176 198 0
173 197 0
176 198 0
174 197 0
174 197 0
174 197 0
174 198 0
176 199 0
176 198 0
175 198 0
175 198 0
174 198 0
174 198 0
175 198 0
174 197 0
176 199 0
173 196 0
173 197 0
173 197 0
175 198 0
175 198 0
174 198 0
173 197 0
175 198 0
176 198 0
174 197 0
174 197 0
173 197 0
172 196 0
175 198 0
172 197 0
176 199 0
177 199 0
177 199 0
172 197 0
176 199 0
173 197 0
174 198 0
176 198 0
178 200 0
174 198 0
172 197 0
176 199 0
175 198 0
174 198 0
174 197 0
175 198 0
174 198 0
175 198 0
172 197 0
172 196 0
173 197 0
173 197 0
174 198 0
173 197 0
171 196 0
172 196 0
174 198 0
175 198 0
173 197 0
173 197 0
176 199 0
173 197 0
177 199 0
173 197 0
175 197 0
173 197 0
173 196 0
175 198 0
175 198 0
174 198 0
173 195 0
174 197 0
174 198 0
174 197 0
174 198 0
174 198 0
173 197 0
174 197 0
175 198 0
170 195 0
171 195 0
176 199 0
173 197 0
175 198 0
171 196 0
177 199 0
173 197 0
174 198 0
176 199 0
173 196 0
174 198 0
176 199 0
175 198 0
174 198 0
170 194 0
175 198 0
176 198 0
173 197 0
176 199 0
174 198 0
174 198 0
175 198 0
174 198 0
170 194 0
173 197 0
173 197 0
171 195 0
172 197 0
174 198 0
173 197 0
174 197 0
175 198 0
174 198 0
175 198 0
169 193 0
172 195 0
174 198 0
175 198 0
175 198 0
173 197 0
173 196 0
172 196 0
174 197 0
176 198 0
172 195 0
172 196 0
172 196 0
175 198 0
173 197 0
175 198 0
173 197 0
174 197 0
171 195 0
173 197 0
176 199 0
174 196 0
174 197 0
169 193 0
173 197 0
174 197 0
173 197 0
174 197 0
175 198 0
172 197 0
173 197 0
172 196 0
173 197 0
174 197 0
176 199 0
175 198 0
173 197 0
175 198 0
173 197 0
173 196 0
175 198 0
172 197 0
173 195 0
172 197 0
173 197 0
173 197 0
171 195 0
171 193 0
174 197 0
174 197 0
174 196 0
175 198 0
174 197 0
172 197 0
175 197 0
172 196 0
173 197 0
173 196 0
174 197 0
172 195 0
175 197 0
174 198 0
175 197 0
173 197 0
173 197 0
173 196 0
174 198 0
174 197 0
174 196 0
174 197 0
173 196 0
171 196 0
175 198 0
173 197 0
171 194 0
174 198 0
174 196 0
174 197 0
176 198 0
173 196 0
175 198 0
170 193 0
173 196 0
174 196 0
176 198 0
172 196 0
172 196 0
172 195 0
162 180 42
139 139 66
136 130 79
138 133 79
151 144 85
135 130 79
152 146 90
146 142 88
151 146 94
161 156 98
163 158 102
138 135 87
155 151 98
156 152 99
161 157 102
158 154 102
163 158 104
157 155 103
154 150 99
163 159 106
153 151 101
152 149 99
159 155 103
154 152 102
154 151 101
163 160 107
156 153 102
159 156 103
157 154 102
152 150 101
160 157 104
153 151 101
158 155 103
158 155 103
156 152 101
164 161 107
158 155 103
162 158 104
156 153 101
157 151 99
163 160 106
152 147 97
163 158 104
157 152 99
153 148 94
140 135 88
159 154 98
153 147 87
143 138 87
142 136 82
135 129 77
133 130 74
172 192 22
173 197 0
174 198 0
172 196 0
177 199 0
174 198 0
173 196 0
172 197 0
176 198 0
173 197 0
174 196 0
173 197 0
175 198 0
173 196 0
176 199 0
174 198 0
172 197 0
174 197 0
173 196 0
174 198 0
174 197 0
174 198 0
171 195 0
173 197 0
175 198 0
175 198 0
176 199 0
171 195 0
173 197 0
174 198 0
173 197 0
175 198 0
174 197 0
175 198 0
172 197 0
175 198 0
178 200 0
177 199 0
176 198 0
174 198 0
173 197 0
170 194 0
173 197 0
174 198 0
177 199 0
174 198 0
173 197 0
174 198 0
176 199 0
173 197 0
173 197 0
176 199 0
175 198 0
174 198 0
173 197 0
175 198 0
174 198 0
173 197 0
172 197 0
174 198 0
175 198 0
174 197 0
172 196 0
173 197 0
175 198 0
174 198 0
175 198 0
175 198 0
176 199 0
175 198 0
174 198 0
174 198 0
174 198 0
173 196 0
174 198 0
172 196 0
173 197 0
173 197 0
173 197 0
175 198 0
175 197 0
171 195 0
175 198 0
173 197 0
177 199 0
175 198 0
172 196 0
174 197 0
177 199 0
173 197 0
174 198 0
174 198 0
174 197 0
175 198 0
173 197 0
175 198 0
174 197 0
174 198 0
173 197 0
174 198 0
173 197 0
171 195 0
175 198 0
174 197 0
176 199 0
175 198 0
173 197 0
173 197 0
174 197 0
176 198 0
174 198 0
175 198 0
175 198 0
172 196 0
174 197 0
174 198 0
175 198 0
173 197 0
173 197 0
174 198 0
174 198 0
174 198 0
172 197 0
173 197 0
173 197 0
177 199 0
176 198 0
173 197 0
172 197 0
177 199 0
174 197 0
173 197 0
174 197 0
176 198 0
174 197 0
173 197 0
175 198 0
175 198 0
173 197 0
172 197 0
175 198 0
174 198 0
173 197 0
176 199 0
174 198 0
175 198 0
174 198 0
176 198 0
175 198 0
177 199 0
174 198 0
171 195 0
175 198 0
176 198 0
175 198 0
175 198 0
174 198 0
173 197 0
177 199 0
174 198 0
175 198 0
172 197 0
178 200 0
173 197 0
174 197 0
174 198 0
175 198 0
174 198 0
173 197 0
177 199 0
174 197 0
176 199 0
173 197 0
175 198 0
174 197 0
174 198 0
175 198 0
175 198 0
174 197 0
176 198 0
174 198 0
173 197 0
174 198 0
175 198 0
173 197 0
173 197 0
176 199 0
176 198 0
174 198 0
174 197 0
173 197 0
176 199 0
174 198 0
175 198 0
175 198 0
175 198 0
175 198 0
175 198 0
172 196 0
173 197 0
173 197 0
175 198 0
173 197 0
174 197 0
175 198 0
173 197 0
172 196 0
175 198 0
175 198 0
173 196 0
172 196 0
174 198 0
171 195 0
171 195 0
174 197 0
173 197 0
175 198 0
174 197 0
171 195 0
174 198 0
175 198 0
174 197 0
173 197 0
175 198 0
172 196 0
173 197 0
175 198 0
176 199 0
173 196 0
174 197 0
173 196 0
174 196 0
174 197 0
174 198 0
175 198 0
172 197 0
175 198 0
172 196 0
172 195 0
173 196 0
171 195 0
171 195 0
175 198 0
176 199 0
174 198 0
172 196 0
173 197 0
171 195 0
175 198 0
172 196 0
174 197 0
174 197 0
175 198 0
173 197 0
173 196 0
173 197 0
175 198 0
172 194 0
174 198 0
174 198 0
174 198 0
175 197 0
173 197 0
172 196 0
174 198 0
172 197 0
171 195 0
176 198 0
176 197 0
174 197 0
171 195 0
172 195 0
173 197 0
173 197 0
175 198 0
174 198 0
174 197 0
173 197 0
175 198 0
171 195 0
172 195 0
173 196 0
174 198 0
173 195 0
174 197 0
174 198 0
174 197 0
173 196 0
174 197 0
173 197 0
175 198 0
171 196 0
173 197 0
175 198 0
173 197 0
171 195 0
172 196 0
175 198 0
170 194 0
174 197 0
174 197 0
173 197 0
174 198 0
172 194 0
169 194 0
174 198 0
173 197 0
172 196 0
173 196 0
173 197 0
176 199 0
175 198 0
173 197 0
175 198 0
174 198 0
171 195 0
172 197 0
174 197 0
173 197 0
170 194 0
171 195 0
175 198 0
174 197 0
170 193 0
173 197 0
175 198 0
172 196 0
172 194 0
172 195 0
175 197 0
173 197 0
173 197 0
173 197 0
174 198 0
174 197 0
172 194 0
176 199 0
173 197 0
174 197 0
174 197 0
175 198 0
173 197 0
172 196 0
174 198 0
176 199 0
176 198 0
174 197 0
157 173 32
144 139 72
151 143 88
158 150 88
143 137 84
142 136 85
148 142 90
145 141 85
145 140 88
154 149 94
158 154 101
157 152 99
169 164 106
169 164 107
151 147 95
157 152 101
158 154 102
149 146 97
148 145 95
162 159 106
165 161 107
162 160 107
161 158 106
161 158 104
160 158 106
162 160 107
161 158 106
166 164 109
150 147 98
144 142 95
161 158 106
158 155 103
163 160 107
150 147 98
159 155 103
168 164 108
160 157 104
150 147 98
156 153 102
157 153 102
142 139 91
150 146 97
159 155 102
151 146 95
151 147 97
155 149 97
155 149 95
146 141 91
146 142 93
144 140 88
149 144 88
148 141 88
134 128 77
142 135 84
157 176 22
173 195 0
170 194 0
173 197 0
174 198 0
175 198 0
175 198 0
177 199 0
174 198 0
175 198 0
175 198 0
175 197 0
175 198 0
172 197 0
175 198 0
173 197 0
175 198 0
174 197 0
174 198 0
174 197 0
175 198 0
175 198 0
174 197 0
175 197 0
175 198 0
177 199 0
177 199 0
173 197 0
174 197 0
177 199 0
175 198 0
174 198 0
178 199 0
174 197 0
172 195 0
174 198 0
174 198 0
175 198 0
174 197 0
174 198 0
174 197 0
174 196 0
173 197 0
173 197 0
175 197 0
174 198 0
177 199 0
174 198 0
174 196 0
174 198 0
173 197 0
176 199 0
174 198 0
175 198 0
176 198 0
173 197 0
173 197 0
175 198 0
174 198 0
174 198 0
174 197 0
174 198 0
177 199 0
176 199 0
173 197 0
175 198 0
173 197 0
174 197 0
176 198 0
174 197 0
175 198 0
176 199 0
174 197 0
174 198 0
173 197 0
175 198 0
177 199 0
176 199 0
173 197 0
176 199 0
174 197 0
174 197 0
173 197 0
174 198 0
177 199 0
174 198 0
173 197 0
175 198 0
176 199 0
175 198 0
175 198 0
174 198 0
174 197 0
174 198 0
175 198 0
173 197 0
174 197 0
173 197 0
173 197 0
173 197 0
174 198 0
172 197 0
174 198 0
173 197 0
176 199 0
175 198 0
177 199 0
174 197 0
174 198 0
177 199 0
172 195 0
174 198 0
174 197 0
175 198 0
177 199 0
174 198 0
174 198 0
175 198 0
174 198 0
177 199 0
175 198 0
173 197 0
174 198 0
173 197 0
174 197 0
173 197 0
174 198 0
172 197 0
176 199 0
173 197 0
173 197 0
173 197 0
173 197 0
175 198 0
175 198 0
172 197 0
172 197 0
174 198 0
174 197 0
173 197 0
176 199 0
176 199 0
174 198 0
175 198 0
176 198 0
175 198 0
176 199 0
173 197 0
172 196 0
173 197 0
176 199 0
172 196 0
175 198 0
173 196 0
175 198 0
174 198 0
175 198 0
173 197 0
174 198 0
175 198 0
174 198 0
175 198 0
176 198 0
174 198 0
176 198 0
174 197 0
173 197 0
176 198 0
175 198 0
174 198 0
169 193 0
174 198 0
173 197 0
175 198 0
173 197 0
175 198 0
174 197 0
175 198 0
173 197 0
175 198 0
173 197 0
174 197 0
175 198 0
172 195 0
175 198 0
174 198 0
173 197 0
173 197 0
173 196 0
173 197 0
171 195 0
177 199 0
175 198 0
174 198 0
175 198 0
173 197 0
174 198 0
176 198 0
172 196 0
174 197 0
173 196 0
173 197 0
175 198 0
175 198 0
176 198 0
177 199 0
175 198 0
174 198 0
176 199 0
173 197 0
174 198 0
172 195 0
176 198 0
174 197 0
174 197 0
172 195 0
174 198 0
175 198 0
174 198 0
171 195 0
176 199 0
171 195 0
173 197 0
174 198 0
173 196 0
173 197 0
175 198 0
171 195 0
175 198 0
173 197 0
172 196 0
173 197 0
176 198 0
173 196 0
175 198 0
177 199 0
174 198 0
175 198 0
173 197 0
173 196 0
174 198 0
173 197 0
171 195 0
174 198 0
174 198 0
175 198 0
175 198 0
174 197 0
175 198 0
173 196 0
173 196 0
174 198 0
174 198 0
173 197 0
173 196 0
175 198 0
173 197 0
177 199 0
174 198 0
174 197 0
174 197 0
176 199 0
174 198 0
174 198 0
174 197 0
177 199 0
173 197 0
169 192 0
174 198 0
175 198 0
173 196 0
175 198 0
177 199 0
175 198 0
173 197 0
174 198 0
174 198 0
173 197 0
171 194 0
175 198 0
175 198 0
173 197 0
172 196 0
177 199 0
169 193 0
170 194 0
174 198 0
174 198 0
177 199 0
175 198 0
174 197 0
174 197 0
175 197 0
174 198 0
173 197 0
173 196 0
172 196 0
170 194 0
174 197 0
174 197 0
176 198 0
172 195 0
174 197 0
174 198 0
173 196 0
175 198 0
176 199 0
174 198 0
175 198 0
174 196 0
169 193 0
175 197 0
173 196 0
173 196 0
174 197 0
174 197 0
174 196 0
171 196 0
174 197 0
172 196 0
175 198 0
173 197 0
174 197 0
171 195 0
174 197 0
172 195 0
176 198 0
173 195 0
172 195 0
175 197 0
172 196 0
174 198 0
170 194 0
174 198 0
173 196 0
172 195 0
173 197 0
172 195 0
174 197 0
174 198 0
173 197 0
176 199 0
172 196 0
175 198 0
172 196 0
162 177 45
144 139 82
140 135 80
146 140 84
149 143 83
143 138 85
145 138 84
147 142 90
145 140 87
159 154 102
154 148 97
154 150 98
155 151 99
157 154 101
158 155 103
155 153 102
160 156 103
156 153 102
160 157 104
169 165 109
159 155 102
164 161 107
160 157 104
156 153 102
164 161 107
166 164 109
167 164 109
156 154 103
164 162 108
162 159 106
157 155 104
161 158 106
162 160 107
163 161 108
166 164 109
161 158 106
153 150 99
157 154 103
165 162 108
162 158 103
164 160 106
161 157 103
166 161 106
158 154 102
164 160 106
157 151 99
153 149 98
147 144 93
153 149 95
147 141 90
151 145 93
157 151 97
147 140 87
129 124 75
132 128 77
139 134 79
168 185 36
176 199 0
174 198 0
175 198 0
173 195 0
175 198 0
175 198 0
176 199 0
172 197 0
174 198 0
175 198 0
176 198 0
175 198 0
176 199 0
175 198 0
176 199 0
174 197 0
175 197 0
173 197 0
177 199 0
174 197 0
173 197 0
173 197 0
174 198 0
176 198 0
173 195 0
175 198 0
175 198 0
174 197 0
176 199 0
173 196 0
177 199 0
176 199 0
175 198 0
174 197 0
174 197 0
176 199 0
175 198 0
173 197 0
175 198 0
174 197 0
175 198 0
176 199 0
175 198 0
173 197 0
174 197 0
173 197 0
172 197 0
177 199 0
175 198 0
173 196 0
174 198 0
177 199 0
175 198 0
175 198 0
175 198 0
177 199 0
175 198 0
176 198 0
174 197 0
173 197 0
175 198 0
175 198 0
175 198 0
172 196 0
171 196 0
175 198 0
176 199 0
174 197 0
175 197 0
174 197 0
174 197 0
175 198 0
175 198 0
177 199 0
174 197 0
174 198 0
175 198 0
174 198 0
173 197 0
175 198 0
174 198 0
174 198 0
173 197 0
175 198 0
176 199 0
175 198 0
177 199 0
173 197 0
176 198 0
174 198 0
174 198 0
174 198 0
174 198 0
174 198 0
173 197 0
173 197 0
174 198 0
172 197 0
175 198 0
173 197 0
175 198 0
174 198 0
174 197 0
174 197 0
174 198 0
177 199 0
174 198 0
172 196 0
174 197 0
174 198 0
177 199 0
176 199 0
173 197 0
177 199 0
172 197 0
177 199 0
173 197 0
175 198 0
172 197 0
173 197 0
174 198 0
172 196 0
175 198 0
175 197 0
176 199 0
174 197 0
173 197 0
174 198 0
175 198 0
175 198 0
174 198 0
173 197 0
173 197 0
177 199 0
176 199 0
173 197 0
174 198 0
174 197 0
174 198 0
176 198 0
173 197 0
174 198 0
174 198 0
174 197 0
175 198 0
177 199 0
173 197 0
174 198 0
175 198 0
174 198 0
173 197 0
175 198 0
175 198 0
176 199 0
172 197 0
174 198 0
172 197 0
175 198 0
176 199 0
172 196 0
174 197 0
176 199 0
175 198 0
172 197 0
174 197 0
173 197 0
174 198 0
174 198 0
173 196 0
174 197 0
173 197 0
172 196 0
174 197 0
175 198 0
174 198 0
174 198 0
175 198 0
174 197 0
173 197 0
176 199 0
173 196 0
175 198 0
175 198 0
174 197 0
175 198 0
175 198 0
174 198 0
174 197 0
174 198 0
173 197 0
173 197 0
175 198 0
176 199 0
176 199 0
174 197 0
174 197 0
175 198 0
176 199 0
175 198 0
173 196 0
174 198 0
175 198 0
174 197 0
172 197 0
173 197 0
172 196 0
174 198 0
175 198 0
175 198 0
173 197 0
176 199 0
176 199 0
178 200 0
172 197 0
176 199 0
175 198 0
173 197 0
173 196 0
174 198 0
173 197 0
175 198 0
174 198 0
171 195 0
174 198 0
172 196 0
173 196 0
173 196 0
176 198 0
175 197 0
175 197 0
173 196 0
175 198 0
176 199 0
175 197 0
173 197 0
175 198 0
172 197 0
174 198 0
172 196 0
170 194 0
173 196 0
175 198 0
176 199 0
175 197 0
171 195 0
176 198 0
173 197 0
173 197 0
172 197 0
174 197 0
173 197 0
175 198 0
173 197 0
174 197 0
171 195 0
174 197 0
175 198 0
175 198 0
174 198 0
173 197 0
175 198 0
172 197 0
175 198 0
173 196 0
173 195 0
175 197 0
174 197 0
174 197 0
172 197 0
175 198 0
172 196 0
174 197 0
173 196 0
174 198 0
176 198 0
174 197 0
175 197 0
172 193 0
172 196 0
171 195 0
175 198 0
176 199 0
172 195 0
173 197 0
175 198 0
174 195 0
175 198 0
175 198 0
172 195 0
173 196 0
174 197 0
174 197 0
173 197 0
173 197 0
172 196 0
173 197 0
173 196 0
172 195 0
171 195 0
171 194 0
173 197 0
173 197 0
171 194 0
172 196 0
169 193 0
174 198 0
172 196 0
173 197 0
175 198 0
173 197 0
174 197 0
174 197 0
175 198 0
175 198 0
173 195 0
173 196 0
175 197 0
174 197 0
173 197 0
172 195 0
174 198 0
172 195 0
174 198 0
172 195 0
173 196 0
175 198 0
175 198 0
174 198 0
173 197 0
174 198 0
175 198 0
174 197 0
171 195 0
172 197 0
174 197 0
176 198 0
173 194 0
173 196 0
175 198 0
173 196 0
169 192 0
171 194 0
159 174 42
148 142 82
158 150 91
148 142 88
141 136 77
144 138 85
161 155 93
158 152 96
149 144 90
157 151 97
153 148 93
159 154 101
154 148 93
166 160 103
162 158 104
164 159 104
166 161 106
163 159 102
158 154 101
155 153 102
163 161 107
168 166 110
157 154 103
164 162 108
167 163 108
159 157 105
162 160 107
170 167 112
163 160 107
158 156 104
161 159 107
158 156 104
161 158 106
159 156 103
165 163 109
164 162 108
163 160 106
161 158 104
164 162 108
156 153 102
158 154 101
158 154 102
165 161 107
145 142 94
165 162 107
159 156 103
158 154 102
148 144 94
156 153 102
159 153 99
161 155 101
152 148 98
152 146 91
146 140 88
155 149 91
144 139 84
143 137 85
138 133 74
170 189 36
178 200 0
177 199 0
172 196 0
174 196 0
174 197 0
174 197 0
174 198 0
172 196 0
170 195 0
175 198 0
172 196 0
173 197 0
174 198 0
176 198 0
176 198 0
170 195 0
175 197 0
172 197 0
173 197 0
174 197 0
176 199 0
174 197 0
174 197 0
174 197 0
174 198 0
176 197 0
177 199 0
173 197 0
173 196 0
176 199 0
171 195 0
174 198 0
175 198 0
174 197 0
174 198 0
178 200 0
174 197 0
176 199 0
174 198 0
172 197 0
175 197 0
173 197 0
173 197 0
174 197 0
175 197 0
173 196 0
172 197 0
173 197 0
173 197 0
175 198 0
174 197 0
170 194 0
173 197 0
172 197 0
175 197 0
173 197 0
173 197 0
174 198 0
176 199 0
174 198 0
174 198 0
173 197 0
174 197 0
172 197 0
173 196 0
176 199 0
172 195 0
175 198 0
176 199 0
175 198 0
175 198 0
174 197 0
174 197 0
174 198 0
176 198 0
174 198 0
175 198 0
175 198 0
175 198 0
175 198 0
176 199 0
173 197 0
175 198 0
177 199 0
175 198 0
173 197 0
175 198 0
173 197 0
176 199 0
174 197 0
175 198 0
176 198 0
174 198 0
174 197 0
175 198 0
175 198 0
175 198 0
176 198 0
174 198 0
175 197 0
176 198 0
174 198 0
174 197 0
176 198 0
173 197 0
174 198 0
174 198 0
174 197 0
176 199 0
173 197 0
175 198 0
174 198 0
173 197 0
173 197 0
177 199 0
175 198 0
176 198 0
175 198 0
171 195 0
173 197 0
175 198 0
175 198 0
176 198 0
173 197 0
177 199 0
173 197 0
173 197 0
177 199 0
174 198 0
175 198 0
174 197 0
176 199 0
175 198 0
174 197 0
177 199 0
176 198 0
175 198 0
175 198 0
176 198 0
174 198 0
173 197 0
176 198 0
176 199 0
175 198 0
175 198 0
174 197 0
176 198 0
173 197 0
174 198 0
174 198 0
177 199 0
174 198 0
174 198 0
174 197 0
175 198 0
173 197 0
171 195 0
173 197 0
176 198 0
174 198 0
175 198 0
174 198 0
173 197 0
174 198 0
177 199 0
172 196 0
175 198 0
172 197 0
176 198 0
174 198 0
173 197 0
174 198 0
171 195 0
176 197 0
175 198 0
175 198 0
174 198 0
174 198 0
175 198 0
173 196 0
172 196 0
174 197 0
174 198 0
172 196 0
173 197 0
174 198 0
175 198 0
172 197 0
173 196 0
176 199 0
174 197 0
175 198 0
175 198 0
174 197 0
174 198 0
173 196 0
174 197 0
173 196 0
173 197 0
173 197 0
173 197 0
173 197 0
174 197 0
174 198 0
175 198 0
176 199 0
174 197 0
174 197 0
173 197 0
174 197 0
175 198 0
174 198 0
173 197 0
174 198 0
173 197 0
173 196 0
174 198 0
172 197 0
173 197 0
172 197 0
174 198 0
176 198 0
174 198 0
174 198 0
174 197 0
172 196 0
174 197 0
175 198 0
174 197 0
174 197 0
175 198 0
174 198 0
173 197 0
172 197 0
172 196 0
174 197 0
177 199 0
172 196 0
173 195 0
175 198 0
172 197 0
172 196 0
171 194 0
176 199 0
174 198 0
174 197 0
172 196 0
172 195 0
169 193 0
174 197 0
176 198 0
174 197 0
174 197 0
172 196 0
175 197 0
170 193 0
171 195 0
174 198 0
175 198 0
174 198 0
175 198 0
176 199 0
176 199 0
175 198 0
174 198 0
175 198 0
173 197 0
176 198 0
174 197 0
176 199 0
171 195 0
173 196 0
172 196 0
171 195 0
175 198 0
172 196 0
174 197 0
173 197 0
172 196 0
173 196 0
172 196 0
173 196 0
173 195 0
176 199 0
174 197 0
176 199 0
173 197 0
173 197 0
175 198 0
175 198 0
174 196 0
175 198 0
174 197 0
173 197 0
172 195 0
172 197 0
173 197 0
175 198 0
174 198 0
175 198 0
174 198 0
173 196 0
174 198 0
174 198 0
174 196 0
174 196 0
173 195 0
171 194 0
172 196 0
174 196 0
172 197 0
169 192 0
174 196 0
175 198 0
174 196 0
171 193 0
173 197 0
170 193 0
175 198 0
174 197 0
174 198 0
172 196 0
171 195 0
175 197 0
172 196 0
173 197 0
172 196 0
173 196 0
174 194 0
175 198 0
174 197 0
175 198 0
174 198 0
174 196 0
170 193 0
175 198 0
174 198 0
174 197 0
175 198 0
173 197 0
169 185 48
122 119 62
145 138 84
151 144 88
157 151 94
153 148 93
158 153 91
151 144 93
156 150 97
154 149 95
152 148 95
160 156 101
151 147 95
152 147 97
170 166 108
162 158 103
156 154 103
154 151 101
158 155 103
162 159 106
156 153 101
157 153 102
165 160 106
154 151 101
164 163 109
162 160 107
154 152 102
165 163 109
162 160 107
157 154 103
165 163 109
154 152 102
169 166 110
160 158 106
156 154 103
167 164 109
164 162 108
159 156 103
158 156 104
156 153 102
153 151 101
157 153 101
156 154 102
169 165 109
158 155 102
161 157 103
163 159 104
166 161 106
156 153 102
155 150 97
137 133 88
167 162 106
149 144 91
156 150 95
154 148 90
134 130 84
142 136 87
153 147 90
128 123 74
141 140 68
168 189 28
172 195 0
173 196 0
171 195 0
172 196 0
174 197 0
174 197 0
173 195 0
174 198 0
173 197 0
170 193 0
173 197 0
174 198 0
172 196 0
174 198 0
170 194 0
174 197 0
174 198 0
175 198 0
175 198 0
175 198 0
175 197 0
175 198 0
176 198 0
176 199 0
174 197 0
174 198 0
173 197 0
175 198 0
174 198 0
175 197 0
176 198 0
174 198 0
174 198 0
173 197 0
174 197 0
175 198 0
174 197 0
175 198 0
176 199 0
172 197 0
174 197 0
174 198 0
174 197 0
174 196 0
173 197 0
175 198 0
177 198 0
175 198 0
175 198 0
175 198 0
174 198 0
172 197 0
175 197 0
176 198 0
172 196 0
171 196 0
173 197 0
175 198 0
175 197 0
175 197 0
174 198 0
173 197 0
175 198 0
174 198 0
176 199 0
175 198 0
174 196 0
175 198 0
173 196 0
174 198 0
175 198 0
174 198 0
175 198 0
175 198 0
174 198 0
175 198 0
175 198 0
174 198 0
175 198 0
175 198 0
173 197 0
175 198 0
173 197 0
174 197 0
174 198 0
174 197 0
174 198 0
175 198 0
175 198 0
174 198 0
173 197 0
175 198 0
173 197 0
173 197 0
174 198 0
174 197 0
175 198 0
176 199 0
174 197 0
176 199 0
172 197 0
173 197 0
175 198 0
174 198 0
174 197 0
175 197 0
175 198 0
173 197 0
175 198 0
174 197 0
175 198 0
173 197 0
175 198 0
175 198 0
175 198 0
176 199 0
172 197 0
176 198 0
176 199 0
176 199 0
173 197 0
174 198 0
172 196 0
175 198 0
174 197 0
174 198 0
174 198 0
172 196 0
176 198 0
172 195 0
177 199 0
175 198 0
173 196 0
174 197 0
174 197 0
175 198 0
174 197 0
174 197 0
174 198 0
174 198 0
174 197 0
177 199 0
173 197 0
176 199 0
176 199 0
174 197 0
173 197 0
173 197 0
175 198 0
175 198 0
174 198 0
172 196 0
175 198 0
175 198 0
173 196 0
172 197 0
175 198 0
175 198 0
173 197 0
174 198 0
176 198 0
175 198 0
171 195 0
174 198 0
176 199 0
173 197 0
175 198 0
172 197 0
175 198 0
173 197 0
176 199 0
172 196 0
173 197 0
175 198 0
173 197 0
173 197 0
176 199 0
173 197 0
176 199 0
171 196 0
177 199 0
173 197 0
174 197 0
173 196 0
175 198 0
175 198 0
177 199 0
175 198 0
172 196 0
176 198 0
172 197 0
175 198 0
173 197 0
176 199 0
176 199 0
176 199 0
176 199 0
175 198 0
175 198 0
173 196 0
173 197 0
173 197 0
175 198 0
173 197 0
175 198 0
175 198 0
174 197 0
173 197 0
174 197 0
173 197 0
174 197 0
173 196 0
174 198 0
174 197 0
175 198 0
174 197 0
174 197 0
172 196 0
174 198 0
171 196 0
175 198 0
173 197 0
174 198 0
177 199 0
174 198 0
173 197 0
174 197 0
174 198 0
172 197 0
173 197 0
174 198 0
174 197 0
174 197 0
174 197 0
172 196 0
175 198 0
172 195 0
175 198 0
174 198 0
174 196 0
172 196 0
174 197 0
169 193 0
172 196 0
173 197 0
172 195 0
173 196 0
173 197 0
175 198 0
172 197 0
175 198 0
174 198 0
174 198 0
174 198 0
175 198 0
171 195 0
171 194 0
170 195 0
177 199 0
173 196 0
173 197 0
175 197 0
174 197 0
174 197 0
174 198 0
172 195 0
170 195 0
173 196 0
174 198 0
172 195 0
174 197 0
173 197 0
172 195 0
174 198 0
174 197 0
173 197 0
175 197 0
174 197 0
176 199 0
171 195 0
174 198 0
174 198 0
174 197 0
175 198 0
171 194 0
173 197 0
171 195 0
172 195 0
170 193 0
172 195 0
173 197 0
174 196 0
176 198 0
175 198 0
176 198 0
176 199 0
176 199 0
175 198 0
174 197 0
179 200 0
174 197 0
171 195 0
172 196 0
172 195 0
174 197 0
173 196 0
173 197 0
174 196 0
171 194 0
172 197 0
170 193 0
173 196 0
171 195 0
174 198 0
174 196 0
174 197 0
173 196 0
174 198 0
176 199 0
174 197 0
175 197 0
174 198 0
173 197 0
169 193 0
173 197 0
173 196 0
172 196 0
170 195 0
172 194 0
175 197 0
173 197 0
174 198 0
172 196 0
174 196 0
170 194 0
173 196 0
173 197 0
172 196 0
171 191 22
147 142 82
146 140 87
151 145 87
141 136 78
145 139 87
150 145 87
161 154 95
137 135 84
146 141 90
153 146 95
158 154 96
165 160 103
143 140 90
161 158 104
156 152 99
169 164 107
149 148 99
152 148 98
161 157 102
165 162 108
165 163 108
170 166 110
159 158 106
166 164 109
163 160 107
161 159 106
157 155 103
160 157 104
161 158 106
167 164 109
162 159 106
159 158 106
163 161 108
164 162 108
164 162 108
166 165 110
168 165 109
168 166 110
165 162 108
169 166 110
169 166 110
162 159 106
166 163 108
165 161 107
162 159 106
165 162 107
162 158 104
161 156 103
161 157 103
164 160 104
167 162 104
157 151 98
159 155 97
157 151 98
161 156 99
148 142 87
152 145 91
148 142 84
149 141 85
141 135 75
131 136 51
174 197 0
173 197 0
175 198 0
174 197 0
175 198 0
172 197 0
176 198 0
173 197 0
174 197 0
176 199 0
175 198 0
176 198 0
174 198 0
175 198 0
173 197 0
173 196 0
170 195 0
177 199 0
175 197 0
173 196 0
173 197 0
174 198 0
173 197 0
174 196 0
173 196 0
174 197 0
175 198 0
173 196 0
176 199 0
173 196 0
175 198 0
174 197 0
175 198 0
176 199 0
175 197 0
173 197 0
172 196 0
173 197 0
177 199 0
171 196 0
174 197 0
172 196 0
176 198 0
175 198 0
175 198 0
175 198 0
176 198 0
175 198 0
173 197 0
175 198 0
175 198 0
173 197 0
173 197 0
176 198 0
174 198 0
174 198 0
173 197 0
173 197 0
174 198 0
174 198 0
173 197 0
172 196 0
176 198 0
173 197 0
177 199 0
172 197 0
174 198 0
173 197 0
173 197 0
174 198 0
172 196 0
174 198 0
172 196 0
174 197 0
173 197 0
174 198 0
174 197 0
174 198 0
176 199 0
175 198 0
173 197 0
175 198 0
175 198 0
175 198 0
174 197 0
175 198 0
172 197 0
174 198 0
176 198 0
174 198 0
173 196 0
173 197 0
173 197 0
174 197 0
174 197 0
176 198 0
174 198 0
175 198 0
174 198 0
173 197 0
175 198 0
174 197 0
174 197 0
173 197 0
175 198 0
173 197 0
174 198 0
172 197 0
174 198 0
175 198 0
176 199 0
175 198 0
176 199 0
173 197 0
175 198 0
175 198 0
172 197 0
175 198 0
175 198 0
176 198 0
172 197 0
175 198 0
172 197 0
172 196 0
173 196 0
173 197 0
173 196 0
179 200 0
175 198 0
174 197 0
173 197 0
174 198 0
175 198 0
174 197 0
172 196 0
174 198 0
174 197 0
174 198 0
176 198 0
174 198 0
175 198 0
174 198 0
173 197 0
173 197 0
175 198 0
173 197 0
174 197 0
178 200 0
176 199 0
173 197 0
173 196 0
175 198 0
175 198 0
172 197 0
174 197 0
171 196 0
173 197 0
174 198 0
173 197 0
174 198 0
174 198 0
175 198 0
175 198 0
171 195 0
175 198 0
173 197 0
174 197 0
175 198 0
175 198 0
173 197 0
174 198 0
177 198 0
173 197 0
173 197 0
174 198 0
175 198 0
175 198 0
173 197 0
173 197 0
174 197 0
174 197 0
176 199 0
176 198 0
175 198 0
171 195 0
173 197 0
172 196 0
173 197 0
173 197 0
174 198 0
177 199 0
172 197 0
172 197 0
176 198 0
174 198 0
173 197 0
173 197 0
175 198 0
172 197 0
174 197 0
172 197 0
174 198 0
172 195 0
176 199 0
173 196 0
176 198 0
174 197 0
172 195 0
174 198 0
174 197 0
173 196 0
175 198 0
172 196 0
173 197 0
175 198 0
172 196 0
173 196 0
173 197 0
173 197 0
173 197 0
177 199 0
173 196 0
175 198 0
173 196 0
174 198 0
174 198 0
173 197 0
174 198 0
173 197 0
175 198 0
175 198 0
175 198 0
176 199 0
173 197 0
173 197 0
172 196 0
173 196 0
171 194 0
174 198 0
172 196 0
174 198 0
176 199 0
172 195 0
175 198 0
175 198 0
172 195 0
172 196 0
174 196 0
173 197 0
174 197 0
174 197 0
174 197 0
174 196 0
174 198 0
175 197 0
174 197 0
173 196 0
174 197 0
174 197 0
171 195 0
175 198 0
175 197 0
172 197 0
175 198 0
172 194 0
174 196 0
174 198 0
173 197 0
174 197 0
174 198 0
172 197 0
174 198 0
175 198 0
174 197 0
175 198 0
176 198 0
168 193 0
173 196 0
173 195 0
175 198 0
170 195 0
175 198 0
175 197 0
173 197 0
171 196 0
173 196 0
175 198 0
172 196 0
175 198 0
174 197 0
173 195 0
174 198 0
175 198 0
173 196 0
175 198 0
174 198 0
172 196 0
172 194 0
174 198 0
171 195 0
175 198 0
175 197 0
174 198 0
172 196 0
173 197 0
174 198 0
175 197 0
173 197 0
174 197 0
175 198 0
172 196 0
177 199 0
173 197 0
173 197 0
174 197 0
175 197 0
174 198 0
174 198 0
174 198 0
174 197 0
173 197 0
172 197 0
174 198 0
173 197 0
175 197 0
175 197 0
173 196 0
171 193 0
174 197 0
173 196 0
172 196 0
171 194 0
177 199 0
174 197 0
176 197 0
174 197 0
173 196 0
170 193 0
136 132 65
132 126 77
134 128 71
148 142 87
142 138 86
166 160 104
151 145 92
161 155 98
149 145 94
155 150 97
155 151 97
145 141 90
144 141 93
160 156 99
163 159 103
155 151 100
153 150 100
153 150 101
154 151 101
161 156 103
163 159 106
168 164 109
158 156 102
166 162 107
160 157 104
164 163 109
168 166 110
169 167 112
164 162 108
163 161 108
162 160 107
161 159 106
161 158 106
160 158 106
160 158 106
165 162 108
162 160 107
166 164 109
167 164 109
165 162 108
162 161 108
160 158 106
163 160 107
156 153 102
147 145 97
151 148 98
158 154 101
152 148 94
158 156 103
151 149 99
161 158 103
154 150 99
169 162 102
156 152 98
163 157 102
154 150 95
154 149 95
157 150 95
157 150 91
148 143 91
142 137 82
134 128 74
141 149 53
173 196 0
175 198 0
173 197 0
173 197 0
172 196 0
175 198 0
174 197 0
174 197 0
174 198 0
174 198 0
173 197 0
176 198 0
174 198 0
174 197 0
174 197 0
174 198 0
176 198 0
174 198 0
175 198 0
177 199 0
173 195 0
175 198 0
174 198 0
173 197 0
178 200 0
172 197 0
174 197 0
174 198 0
172 197 0
171 194 0
176 199 0
176 199 0
177 199 0
175 198 0
173 197 0
174 198 0
176 198 0
174 197 0
175 198 0
175 198 0
176 199 0
175 198 0
172 197 0
175 198 0
173 196 0
173 197 0
174 198 0
173 197 0
174 197 0
174 197 0
175 198 0
174 198 0
172 195 0
174 198 0
174 198 0
177 199 0
174 197 0
171 195 0
175 198 0
175 198 0
175 198 0
173 197 0
177 199 0
175 197 0
174 198 0
174 198 0
176 198 0
173 197 0
174 198 0
175 198 0
174 197 0
174 197 0
173 197 0
176 198 0
175 198 0
174 197 0
175 198 0
175 198 0
174 197 0
175 198 0
174 198 0
177 199 0
175 198 0
175 198 0
175 198 0
174 198 0
175 198 0
173 197 0
175 198 0
174 198 0
174 197 0
175 198 0
174 198 0
173 196 0
173 197 0
175 198 0
174 198 0
171 195 0
173 196 0
175 197 0
175 198 0
173 197 0
174 197 0
174 197 0
175 198 0
173 197 0
175 198 0
175 198 0
175 198 0
177 199 0
174 197 0
175 198 0
172 196 0
173 197 0
176 199 0
174 198 0
172 197 0
173 197 0
172 196 0
171 194 0
173 197 0
174 198 0
175 198 0
176 199 0
174 198 0
173 197 0
172 196 0
175 198 0
174 198 0
173 197 0
173 196 0
174 198 0
174 198 0
173 197 0
178 199 0
176 199 0
175 198 0
176 198 0
173 197 0
174 197 0
176 199 0
173 197 0
172 197 0
172 196 0
175 198 0
174 198 0
175 198 0
174 198 0
171 195 0
173 197 0
175 198 0
174 198 0
175 198 0
174 197 0
176 199 0
173 196 0
172 196 0
174 198 0
173 197 0
174 198 0
174 197 0
171 195 0
173 196 0
176 199 0
173 196 0
176 199 0
174 198 0
175 198 0
174 197 0
174 198 0
174 198 0
175 198 0
174 198 0
176 199 0
175 198 0
175 198 0
176 199 0
175 198 0
173 197 0
174 198 0
173 197 0
175 198 0
174 197 0
172 196 0
174 197 0
176 198 0
172 196 0
175 198 0
175 198 0
174 197 0
174 198 0
171 195 0
174 197 0
174 197 0
174 196 0
174 198 0
173 196 0
177 199 0
175 197 0
176 199 0
174 198 0
173 197 0
172 196 0
172 196 0
173 197 0
173 197 0
173 197 0
175 198 0
175 198 0
172 196 0
175 198 0
174 198 0
174 198 0
174 197 0
174 198 0
176 198 0
174 198 0
174 197 0
175 198 0
176 199 0
174 198 0
174 198 0
175 198 0
173 197 0
176 198 0
174 197 0
171 195 0
172 196 0
174 198 0
170 194 0
171 195 0
171 195 0
175 198 0
173 197 0
172 196 0
173 196 0
172 195 0
173 195 0
176 199 0
175 198 0
173 197 0
172 196 0
175 198 0
174 198 0
173 196 0
177 199 0
174 197 0
174 197 0
173 197 0
176 199 0
171 195 0
171 195 0
173 197 0
175 198 0
173 197 0
173 196 0
170 195 0
175 198 0
174 197 0
176 199 0
174 198 0
173 196 0
174 197 0
175 198 0
175 197 0
174 198 0
173 197 0
174 197 0
173 196 0
176 199 0
172 196 0
175 198 0
174 197 0
174 197 0
173 196 0
175 198 0
170 194 0
172 195 0
172 196 0
174 197 0
174 198 0
173 197 0
171 194 0
173 197 0
175 197 0
173 197 0
171 196 0
173 197 0
170 193 0
175 198 0
174 198 0
174 198 0
172 195 0
175 197 0
172 194 0
170 194 0
172 195 0
174 198 0
175 198 0
173 197 0
174 197 0
173 197 0
174 198 0
173 197 0
170 192 0
172 195 0
172 195 0
174 198 0
172 195 0
175 198 0
173 197 0
174 198 0
172 195 0
170 195 0
172 195 0
171 195 0
174 197 0
175 198 0
171 195 0
174 197 0
175 198 0
169 192 0
172 197 0
171 195 0
172 195 0
169 193 0
175 198 0
173 196 0
172 196 0
172 196 0
176 199 0
173 196 0
176 197 0
174 197 0
172 196 0
172 197 0
142 144 60
135 130 72
148 142 77
160 153 93
134 129 74
153 147 89
157 151 90
146 140 88
141 136 85
169 162 105
142 138 88
165 160 101
159 154 99
165 160 105
167 162 107
156 153 101
155 151 98
158 154 103
163 159 104
162 160 107
151 149 99
169 165 110
166 163 109
161 159 106
162 159 106
170 167 112
170 166 110
169 167 112
162 160 107
164 161 107
159 157 104
164 161 107
166 163 108
172 169 113
164 162 108
164 162 108
163 161 108
165 163 109
159 156 104
162 158 104
164 161 107
162 160 107
166 164 109
166 164 109
158 155 103
159 156 103
165 161 107
163 159 106
165 163 107
156 153 99
147 144 95
157 154 101
157 154 102
156 151 97
163 158 101
145 142 93
148 143 93
161 154 99
161 155 99
149 144 85
155 150 93
150 144 87
149 143 84
137 131 79
166 182 42
176 199 0
175 197 0
174 197 0
172 197 0
173 195 0
177 199 0
175 198 0
175 198 0
173 197 0
176 199 0
173 196 0
174 198 0
174 197 0
173 197 0
173 196 0
173 195 0
174 198 0
174 198 0
175 197 0
173 197 0
174 197 0
173 195 0
175 198 0
176 199 0
174 197 0
176 197 0
174 197 0
175 197 0
172 196 0
175 198 0
173 196 0
175 198 0
174 197 0
175 198 0
173 197 0
174 198 0
173 196 0
172 196 0
177 198 0
176 198 0
174 197 0
176 198 0
174 197 0
175 198 0
173 196 0
172 195 0
175 198 0
173 197 0
176 198 0
172 196 0
172 196 0
175 198 0
173 197 0
175 197 0
173 197 0
173 197 0
174 197 0
175 198 0
174 197 0
174 198 0
172 197 0
175 198 0
174 198 0
172 196 0
175 198 0
174 197 0
173 197 0
177 199 0
175 198 0
176 198 0
174 197 0
172 196 0
177 199 0
174 197 0
175 198 0
175 197 0
176 198 0
172 196 0
174 197 0
175 198 0
174 197 0
176 199 0
172 197 0
174 197 0
172 197 0
173 197 0
174 197 0
173 197 0
176 199 0
175 198 0
174 198 0
174 197 0
175 198 0
175 198 0
177 199 0
173 197 0
173 197 0
176 199 0
174 197 0
174 198 0
175 198 0
172 197 0
177 199 0
173 197 0
173 197 0
173 197 0
175 198 0
174 198 0
176 199 0
177 198 0
174 198 0
173 197 0
174 197 0
175 198 0
175 198 0
172 196 0
175 198 0
176 199 0
174 197 0
175 198 0
174 197 0
176 198 0
173 197 0
174 198 0
174 198 0
176 199 0
174 197 0
175 198 0
174 198 0
173 196 0
174 198 0
174 198 0
173 197 0
174 197 0
176 199 0
172 197 0
176 199 0
174 197 0
173 196 0
174 198 0
176 199 0
174 198 0
173 197 0
177 199 0
174 197 0
173 197 0
174 197 0
174 198 0
173 197 0
174 198 0
174 198 0
175 198 0
176 198 0
173 197 0
175 198 0
176 198 0
174 198 0
174 197 0
172 196 0
175 198 0
174 198 0
175 198 0
178 200 0
175 198 0
175 198 0
175 198 0
174 197 0
172 197 0
176 199 0
174 198 0
174 198 0
174 198 0
174 198 0
171 195 0
173 197 0
176 198 0
173 197 0
175 198 0
176 198 0
173 197 0
171 195 0
173 197 0
173 197 0
174 197 0
173 197 0
175 198 0
176 198 0
174 198 0
174 197 0
174 197 0
174 198 0
174 197 0
175 198 0
174 198 0
176 198 0
175 198 0
176 199 0
173 197 0
175 198 0
172 197 0
174 198 0
173 197 0
175 198 0
172 196 0
173 197 0
174 198 0
172 197 0
172 197 0
175 198 0
174 198 0
176 199 0
174 198 0
173 197 0
172 196 0
170 195 0
174 197 0
173 196 0
174 197 0
174 198 0
173 197 0
173 196 0
173 196 0
175 198 0
174 198 0
174 197 0
177 199 0
173 197 0
176 199 0
174 198 0
172 195 0
173 196 0
174 197 0
173 196 0
171 196 0
176 199 0
173 196 0
174 197 0
174 197 0
174 197 0
168 192 0
172 195 0
174 197 0
173 197 0
173 196 0
173 197 0
173 197 0
174 198 0
175 198 0
172 196 0
171 195 0
175 198 0
173 197 0
173 197 0
173 197 0
174 198 0
172 197 0
175 198 0
174 198 0
171 195 0
173 196 0
172 196 0
173 195 0
172 196 0
175 198 0
175 198 0
174 197 0
175 198 0
174 198 0
167 192 0
176 199 0
176 199 0
176 198 0
172 196 0
174 198 0
173 197 0
173 197 0
172 196 0
174 197 0
171 195 0
170 195 0
174 197 0
173 196 0
173 196 0
173 197 0
174 197 0
175 197 0
175 198 0
173 195 0
174 197 0
172 195 0
173 196 0
173 197 0
171 195 0
173 197 0
170 194 0
173 196 0
174 198 0
171 195 0
173 197 0
173 195 0
174 197 0
172 196 0
174 196 0
175 198 0
172 197 0
173 197 0
174 195 0
170 194 0
175 197 0
172 196 0
174 198 0
174 198 0
174 197 0
172 196 0
169 194 0
171 196 0
174 198 0
172 196 0
171 195 0
173 197 0
173 197 0
173 197 0
173 197 0
173 194 0
175 198 0
172 196 0
173 197 0
173 195 0
174 197 0
174 198 0
172 196 0
175 198 0
174 196 0
174 197 0
165 179 39
157 149 87
160 152 91
154 148 83
145 140 85
146 142 84
153 147 92
157 152 91
151 146 93
159 154 99
150 146 95
159 153 98
164 160 105
157 153 97
159 154 102
171 166 110
169 165 108
155 151 99
171 166 110
159 157 104
165 163 108
154 151 101
166 163 108
159 157 105
166 164 109
159 158 106
165 162 109
167 165 111
167 165 110
169 167 112
167 164 109
169 165 109
159 157 106
163 160 107
169 167 112
166 163 108
167 164 109
165 163 109
166 163 109
156 153 102
166 165 110
163 160 107
161 158 106
164 162 107
167 164 109
158 155 102
171 168 112
160 156 103
168 164 107
158 154 99
159 155 103
166 162 104
163 159 104
156 151 98
158 154 98
157 151 95
152 147 97
159 154 99
162 156 101
151 145 93
147 142 88
135 132 77
147 142 88
143 137 84
142 136 74
138 136 66
173 194 16
176 199 0
174 198 0
174 198 0
174 198 0
174 198 0
175 198 0
174 198 0
173 197 0
173 197 0
176 198 0
172 196 0
175 198 0
174 198 0
172 197 0
174 197 0
174 198 0
175 198 0
174 197 0
173 197 0
175 197 0
174 197 0
173 197 0
176 199 0
173 196 0
175 198 0
174 198 0
177 199 0
174 196 0
173 197 0
174 198 0
172 196 0
171 196 0
172 195 0
174 197 0
173 196 0
174 197 0
172 197 0
174 197 0
176 199 0
175 198 0
173 197 0
176 198 0
175 198 0
176 199 0
175 198 0
177 199 0
176 199 0
174 198 0
173 197 0
174 197 0
173 197 0
175 197 0
173 197 0
174 197 0
176 199 0
172 195 0
177 199 0
175 198 0
174 198 0
173 197 0
175 198 0
176 199 0
173 196 0
174 198 0
174 198 0
173 197 0
174 198 0
177 199 0
176 198 0
175 198 0
175 198 0
175 198 0
174 198 0
175 198 0
172 196 0
174 197 0
173 197 0
173 197 0
173 197 0
174 198 0
174 198 0
175 198 0
173 197 0
175 198 0
175 198 0
174 198 0
174 198 0
174 198 0
176 199 0
173 196 0
176 199 0
172 196 0
173 197 0
175 198 0
173 196 0
173 197 0
173 197 0
176 198 0
174 197 0
177 199 0
175 198 0
175 198 0
174 197 0
176 199 0
177 199 0
173 197 0
176 199 0
175 198 0
176 199 0
173 197 0
175 198 0
173 197 0
175 198 0
176 198 0
174 198 0
176 198 0
176 198 0
171 196 0
174 197 0
176 199 0
175 198 0
175 198 0
173 197 0
176 199 0
173 197 0
174 198 0
174 198 0
176 198 0
173 197 0
172 196 0
174 197 0
175 198 0
173 197 0
173 197 0
173 196 0
173 197 0
174 198 0
173 197 0
174 197 0
176 198 0
175 198 0
173 197 0
175 198 0
173 197 0
173 197 0
175 198 0
174 198 0
176 198 0
173 197 0
174 198 0
174 198 0
173 197 0
175 198 0
175 198 0
176 198 0
175 198 0
177 199 0
174 198 0
174 198 0
173 197 0
173 197 0
174 198 0
174 198 0
174 198 0
172 197 0
172 195 0
175 198 0
173 197 0
174 198 0
173 196 0
174 197 0
177 199 0
172 197 0
173 197 0
174 198 0
172 196 0
177 199 0
175 198 0
172 196 0
178 200 0
173 197 0
173 196 0
171 195 0
172 197 0
172 196 0
173 197 0
174 197 0
174 198 0
175 198 0
175 198 0
173 196 0
172 195 0
174 198 0
177 199 0
176 198 0
175 198 0
174 198 0
176 199 0
172 195 0
174 198 0
172 196 0
175 198 0
173 197 0
173 196 0
174 198 0
172 197 0
173 196 0
173 197 0
172 196 0
173 197 0
174 197 0
173 197 0
173 197 0
175 197 0
172 194 0
175 198 0
173 196 0
173 197 0
170 195 0
176 199 0
173 196 0
174 198 0
173 196 0
173 196 0
173 196 0
175 198 0
171 195 0
172 196 0
174 198 0
171 196 0
175 198 0
173 197 0
173 197 0
173 197 0
172 196 0
173 197 0
176 198 0
175 197 0
174 198 0
173 197 0
174 197 0
173 197 0
174 197 0
173 196 0
175 198 0
175 197 0
172 196 0
171 195 0
173 197 0
175 198 0
172 196 0
173 196 0
172 196 0
174 197 0
172 197 0
172 196 0
172 195 0
174 197 0
170 195 0
173 197 0
171 195 0
175 198 0
173 196 0
172 197 0
171 195 0
174 197 0
174 197 0
173 196 0
173 197 0
174 198 0
172 195 0
174 198 0
173 197 0
172 196 0
173 197 0
173 196 0
173 197 0
173 196 0
174 198 0
173 196 0
176 199 0
175 198 0
175 198 0
175 197 0
175 197 0
172 196 0
173 197 0
172 196 0
173 197 0
175 198 0
175 198 0
175 198 0
175 198 0
173 196 0
168 193 0
174 196 0
172 197 0
173 196 0
169 193 0
170 193 0
171 195 0
175 198 0
171 193 0
177 198 0
175 198 0
171 195 0
174 197 0
173 197 0
173 197 0
168 192 0
172 195 0
174 198 0
172 196 0
175 198 0
172 196 0
172 196 0
174 198 0
174 198 0
175 198 0
174 197 0
175 197 0
172 196 0
175 198 0
170 193 0
173 197 0
167 191 0
173 197 0
176 198 0
174 197 0
173 197 0
172 194 0
173 197 0
167 187 22
137 135 68
142 138 77
155 148 91
154 147 93
128 123 77
145 141 88
150 144 87
162 157 98
153 147 90
150 145 93
161 155 99
149 147 94
157 153 99
163 159 105
159 155 103
159 155 103
155 153 98
151 148 97
167 163 108
161 159 106
167 163 109
162 159 106
164 162 108
166 163 109
170 167 111
160 157 105
169 167 112
168 164 109
167 163 109
163 160 107
166 164 110
172 169 113
164 162 108
163 159 106
167 164 109
170 166 110
166 164 109
165 162 108
156 154 103
167 165 110
164 162 108
158 156 104
161 158 106
160 157 104
160 157 104
167 164 108
157 154 102
168 165 109
164 159 104
172 168 112
159 155 101
156 152 98
164 159 103
168 163 106
157 152 101
158 155 99
166 161 101
149 145 94
146 143 93
149 144 93
150 144 88
143 139 85
150 143 85
157 150 93
134 127 77
141 135 75
157 165 53
174 198 0
176 198 0
174 197 0
172 196 0
173 197 0
173 195 0
174 198 0
175 197 0
174 197 0
173 196 0
174 198 0
177 198 0
173 197 0
175 198 0
174 197 0
175 198 0
174 198 0
173 197 0
174 197 0
173 197 0
174 197 0
174 198 0
174 198 0
174 198 0
174 198 0
175 198 0
173 197 0
173 197 0
175 198 0
175 198 0
174 198 0
174 198 0
175 198 0
175 198 0
173 197 0
173 197 0
174 198 0
172 196 0
175 198 0
176 199 0
173 195 0
175 198 0
173 196 0
175 198 0
173 196 0
174 198 0
174 198 0
175 198 0
170 196 0
174 197 0
175 198 0
176 198 0
174 198 0
172 197 0
174 197 0
175 198 0
176 199 0
175 198 0
171 196 0
173 197 0
175 198 0
173 197 0
174 197 0
174 198 0
174 198 0
175 198 0
174 198 0
173 197 0
175 197 0
172 196 0
175 198 0
174 197 0
175 198 0
173 197 0
174 198 0
174 198 0
174 197 0
173 197 0
173 197 0
176 199 0
174 198 0
173 197 0
176 198 0
175 198 0
175 198 0
174 198 0
174 198 0
175 198 0
173 197 0
175 198 0
174 197 0
174 198 0
173 197 0
174 197 0
175 198 0
174 197 0
173 197 0
176 199 0
174 197 0
174 198 0
174 198 0
177 198 0
173 197 0
176 199 0
172 196 0
176 199 0
175 198 0
176 199 0
174 197 0
175 198 0
176 199 0
174 198 0
177 199 0
174 198 0
174 198 0
173 197 0
174 198 0
177 199 0
174 198 0
174 198 0
174 198 0
172 197 0
174 197 0
173 197 0
174 198 0
175 198 0
175 198 0
173 197 0
175 198 0
172 196 0
175 198 0
175 198 0
174 198 0
177 199 0
175 198 0
172 197 0
172 196 0
173 197 0
174 198 0
176 199 0
175 198 0
174 198 0
174 198 0
175 198 0
173 196 0
173 197 0
173 197 0
173 197 0
175 198 0
174 198 0
175 198 0
173 197 0
172 196 0
171 195 0
176 199 0
173 196 0
175 198 0
174 197 0
175 198 0
175 198 0
172 195 0
172 196 0
173 197 0
174 198 0
174 197 0
174 198 0
172 196 0
174 198 0
175 198 0
175 198 0
174 198 0
171 196 0
173 197 0
173 196 0
173 197 0
173 197 0
174 197 0
177 199 0
176 197 0
174 198 0
172 196 0
172 197 0
173 197 0
173 196 0
174 197 0
175 198 0
174 198 0
173 197 0
173 196 0
175 198 0
173 197 0
176 198 0
174 198 0
175 198 0
174 197 0
173 196 0
173 197 0
171 195 0
173 197 0
173 197 0
173 196 0
173 196 0
173 196 0
173 197 0
175 198 0
171 195 0
174 198 0
174 198 0
174 198 0
173 197 0
171 195 0
172 196 0
175 197 0
173 197 0
173 197 0
174 198 0
176 199 0
172 196 0
174 198 0
175 198 0
174 198 0
174 198 0
173 197 0
171 194 0
173 197 0
175 198 0
174 197 0
174 198 0
173 196 0
173 197 0
173 197 0
174 198 0
174 196 0
174 197 0
174 198 0
175 198 0
171 194 0
175 198 0
173 196 0
176 199 0
174 197 0
174 198 0
175 198 0
171 194 0
176 199 0
176 198 0
175 198 0
174 198 0
175 198 0
175 198 0
174 198 0
175 198 0
174 198 0
175 198 0
175 198 0
174 198 0
175 198 0
171 195 0
172 196 0
175 198 0
173 197 0
174 197 0
174 197 0
169 193 0
174 197 0
172 196 0
171 195 0
171 195 0
175 197 0
169 193 0
174 197 0
171 194 0
173 196 0
172 197 0
173 196 0
172 195 0
174 197 0
171 195 0
173 196 0
175 198 0
168 192 0
177 199 0
173 196 0
175 197 0
173 196 0
173 197 0
171 195 0
176 198 0
175 198 0
175 197 0
175 198 0
176 199 0
171 195 0
172 195 36
157 181 76
159 183 80
145 170 105
151 174 84
148 173 99
152 175 92
156 179 80
158 182 80
162 186 67
175 198 0
172 195 0
168 191 0
175 198 0
175 198 0
172 195 0
170 193 0
175 198 0
171 195 0
175 197 0
171 196 0
173 196 0
175 198 0
171 195 0
174 197 0
172 197 0
172 196 0
176 198 0
173 196 0
172 195 0
174 196 0
170 194 0
171 194 0
174 198 0
175 198 0
172 196 0
173 196 0
171 194 0
169 193 0
147 157 39
137 131 75
135 131 75
133 128 78
150 143 83
150 144 83
152 146 92
152 147 89
156 151 92
141 137 84
158 154 99
157 154 99
151 148 98
166 161 105
163 158 104
163 158 105
153 150 98
159 154 101
154 151 101
159 156 103
163 160 106
159 156 105
161 159 107
158 158 107
162 159 106
170 167 111
170 168 112
164 162 109
168 165 110
159 158 106
168 166 111
169 167 112
161 160 108
169 167 112
165 162 109
162 160 107
165 162 108
166 164 109
171 168 112
161 158 106
173 170 113
168 165 110
164 161 107
164 161 107
174 170 113
168 165 109
167 165 110
169 166 109
157 154 101
166 162 104
173 167 108
172 168 110
159 157 103
169 166 109
159 154 101
161 157 101
169 164 103
157 153 94
164 158 101
151 148 94
155 149 93
159 154 97
146 139 82
144 137 82
146 139 85
148 142 84
154 148 82
122 117 64
174 194 28
174 197 0
176 198 0
173 196 0
174 197 0
175 197 0
173 197 0
175 198 0
174 198 0
172 197 0
175 198 0
175 198 0
173 196 0
172 196 0
171 195 0
173 196 0
174 198 0
174 198 0
175 198 0
175 198 0
176 199 0
174 197 0
175 198 0
173 197 0
175 197 0
175 198 0
174 198 0
174 198 0
174 197 0
175 197 0
173 196 0
172 196 0
175 197 0
172 195 0
175 198 0
174 197 0
172 196 0
175 197 0
174 198 0
175 198 0
172 196 0
175 198 0
175 198 0
174 197 0
175 198 0
173 197 0
173 197 0
174 198 0
177 199 0
175 197 0
175 197 0
175 196 0
172 196 0
177 199 0
173 197 0
172 195 0
175 198 0
172 196 0
173 197 0
175 198 0
174 198 0
172 197 0
175 198 0
172 195 0
174 198 0
173 196 0
176 199 0
175 198 0
175 198 0
174 198 0
174 197 0
174 197 0
173 196 0
173 197 0
175 198 0
176 199 0
177 199 0
174 197 0
175 198 0
174 198 0
173 197 0
173 196 0
177 199 0
175 198 0
171 194 0
175 198 0
175 198 0
174 198 0
172 196 0
174 197 0
175 198 0
172 197 0
172 197 0
174 197 0
174 198 0
173 197 0
175 198 0
174 198 0
174 197 0
173 197 0
176 199 0
172 196 0
174 198 0
175 198 0
173 197 0
171 196 0
176 198 0
175 198 0
172 197 0
175 198 0
172 195 0
172 196 0
175 198 0
176 199 0
176 199 0
177 199 0
174 197 0
175 198 0
176 199 0
173 196 0
176 198 0
174 198 0
175 198 0
174 198 0
175 198 0
175 198 0
174 198 0
175 198 0
173 197 0
175 198 0
173 197 0
173 197 0
173 197 0
175 197 0
175 198 0
174 198 0
171 196 0
175 198 0
174 197 0
175 197 0
174 198 0
175 198 0
174 197 0
174 197 0
175 198 0
172 195 0
173 197 0
174 197 0
174 197 0
175 198 0
172 196 0
173 197 0
174 198 0
173 196 0
174 198 0
174 198 0
174 197 0
175 198 0
174 197 0
169 194 0
173 197 0
175 198 0
174 197 0
173 196 0
174 198 0
175 198 0
174 198 0
176 198 0
174 197 0
174 198 0
172 196 0
175 198 0
177 199 0
176 198 0
174 198 0
174 198 0
172 196 0
174 198 0
174 198 0
171 195 0
174 197 0
172 197 0
174 198 0
174 198 0
174 198 0
174 198 0
174 197 0
173 197 0
174 198 0
171 195 0
176 199 0
174 198 0
175 198 0
176 198 0
174 198 0
174 198 0
175 198 0
172 196 0
176 199 0
174 197 0
177 199 0
176 198 0
175 198 0
172 196 0
174 197 0
174 198 0
173 197 0
171 194 0
176 198 0
172 196 0
174 198 0
174 197 0
177 199 0
174 198 0
171 195 0
174 198 0
174 197 0
171 196 0
173 196 0
173 197 0
170 193 0
174 198 0
173 197 0
174 197 0
172 196 0
173 196 0
175 198 0
174 197 0
175 198 0
172 195 0
176 198 0
175 198 0
171 195 0
172 194 0
172 195 0
174 197 0
174 198 0
172 195 0
171 195 0
173 197 0
174 197 0
171 195 0
172 196 0
173 197 0
172 196 0
173 197 0
173 196 0
175 198 0
172 197 0
173 196 0
175 198 0
173 197 0
176 199 0
172 197 0
172 196 0
173 196 0
172 196 0
174 197 0
175 198 0
172 195 0
174 197 0
173 197 0
174 197 0
175 198 0
173 196 0
175 198 0
172 196 0
174 197 0
172 195 0
174 197 0
172 196 0
172 197 0
174 198 0
174 198 0
175 198 0
172 195 0
173 197 0
173 196 0
174 197 0
171 195 0
176 198 0
175 197 0
175 198 0
173 197 0
176 199 0
174 197 0
173 196 0
173 196 0
161 184 72
143 166 108
114 141 147
95 125 161
73 107 175
62 99 181
61 98 181
61 98 181
62 99 181
61 99 181
62 99 181
62 99 181
61 98 177
62 99 181
62 99 179
61 98 181
90 121 165
125 152 130
125 151 135
134 160 117
170 193 36
173 197 0
172 196 0
173 195 0
173 197 0
172 195 0
172 196 0
172 196 0
173 196 0
173 196 0
171 195 0
170 192 0
170 192 0
169 193 0
169 191 0
172 194 0
174 195 0
171 194 0
172 195 0
174 197 0
175 198 0
168 192 0
173 196 0
168 187 32
123 118 58
143 138 76
139 133 80
156 151 85
147 143 86
146 139 83
147 142 89
144 140 85
149 146 91
152 148 93
159 154 100
158 153 98
154 150 101
162 159 102
150 147 97
159 156 105
153 151 100
163 159 105
162 158 105
165 162 107
170 166 109
171 166 110
165 162 108
162 159 107
165 161 108
172 167 111
159 156 104
169 166 110
160 157 105
169 166 112
171 168 112
171 168 112
161 158 106
166 164 109
169 166 110
173 170 113
169 166 110
170 166 110
165 163 109
172 168 112
167 164 109
170 167 112
169 167 110
169 166 109
165 162 108
168 165 109
164 161 106
163 162 107
170 167 110
166 162 102
163 160 107
167 163 106
166 161 104
169 164 106
164 158 102
163 159 103
159 153 98
159 154 98
149 143 94
165 159 97
163 158 101
157 152 94
166 159 99
152 146 87
145 140 85
148 141 79
142 136 77
136 132 70
150 155 56
174 197 0
176 198 0
173 197 0
172 195 0
175 198 0
175 198 0
173 196 0
175 197 0
177 199 0
172 196 0
171 195 0
174 198 0
174 196 0
174 198 0
174 198 0
173 196 0
174 198 0
177 199 0
175 198 0
176 198 0
176 198 0
171 195 0
174 198 0
174 198 0
174 198 0
175 198 0
175 198 0
176 198 0
173 197 0
170 195 0
173 197 0
173 196 0
172 196 0
173 197 0
174 197 0
175 197 0
173 196 0
175 197 0
175 198 0
175 198 0
174 197 0
173 197 0
174 198 0
176 198 0
173 197 0
174 197 0
171 196 0
174 198 0
174 197 0
175 198 0
175 198 0
176 198 0
174 197 0
175 198 0
173 197 0
174 198 0
175 198 0
174 198 0
173 197 0
174 197 0
173 197 0
173 197 0
174 197 0
176 198 0
177 199 0
175 198 0
173 197 0
172 196 0
174 197 0
174 197 0
173 197 0
174 198 0
174 197 0
175 198 0
174 198 0
173 197 0
175 198 0
173 197 0
174 197 0
176 199 0
173 197 0
171 196 0
174 198 0
176 198 0
172 196 0
174 197 0
176 198 0
177 199 0
174 198 0
176 199 0
177 199 0
176 199 0
176 199 0
175 198 0
174 197 0
175 198 0
176 199 0
174 198 0
175 198 0
173 197 0
174 198 0
174 198 0
174 198 0
175 198 0
174 197 0
173 197 0
173 197 0
174 198 0
175 198 0
176 198 0
175 198 0
173 197 0
175 198 0
173 197 0
175 198 0
174 196 0
173 197 0
175 198 0
174 198 0
174 197 0
172 197 0
174 198 0
174 198 0
174 197 0
174 198 0
177 199 0
175 198 0
175 198 0
174 198 0
175 198 0
173 196 0
176 198 0
173 197 0
174 198 0
175 198 0
174 198 0
176 198 0
175 198 0
175 198 0
175 198 0
174 198 0
174 197 0
176 199 0
175 198 0
174 198 0
177 199 0
173 197 0
172 197 0
173 196 0
175 198 0
174 197 0
174 197 0
175 198 0
173 197 0
170 194 0
176 199 0
175 198 0
172 195 0
174 198 0
173 197 0
175 198 0
174 197 0
175 198 0
174 198 0
176 198 0
177 199 0
175 198 0
171 195 0
173 197 0
174 197 0
174 198 0
172 197 0
174 198 0
172 196 0
173 197 0
175 198 0
175 198 0
173 197 0
176 199 0
173 196 0
175 198 0
174 197 0
175 198 0
171 195 0
175 198 0
174 198 0
174 197 0
176 198 0
172 196 0
172 196 0
173 197 0
175 198 0
177 199 0
173 197 0
174 197 0
176 198 0
172 196 0
176 199 0
176 198 0
174 197 0
176 199 0
176 198 0
172 196 0
173 196 0
173 196 0
173 197 0
174 198 0
173 197 0
173 197 0
174 198 0
173 196 0
172 196 0
172 197 0
171 195 0
174 197 0
173 197 0
175 198 0
175 198 0
172 196 0
172 196 0
175 198 0
173 196 0
174 198 0
175 198 0
174 198 0
176 198 0
172 195 0
174 198 0
175 198 0
174 198 0
176 199 0
172 197 0
171 194 0
174 198 0
170 194 0
171 194 0
171 194 0
175 197 0
170 193 0
168 191 0
172 197 0
174 198 0
174 198 0
172 196 0
174 198 0
173 196 0
173 196 0
174 198 0
175 198 0
175 198 0
174 198 0
172 196 0
174 197 0
172 196 0
170 195 0
170 194 0
173 195 0
173 197 0
172 196 0
173 196 0
170 194 0
172 196 0
175 197 0
174 197 0
174 198 0
173 196 0
173 197 0
174 197 0
173 195 0
172 196 0
170 193 0
171 196 0
171 195 0
171 195 0
173 196 0
172 196 0
175 198 0
174 198 0
173 197 0
173 197 0
171 194 0
172 194 0
172 196 0
171 194 36
142 166 114
121 147 140
84 115 169
61 98 179
62 99 181
61 99 181
62 99 181
62 99 181
61 98 181
61 99 181
61 99 181
61 99 181
62 99 181
62 99 181
62 99 181
63 100 181
62 99 181
60 98 179
61 98 181
62 99 181
62 99 181
61 98 179
61 99 181
61 99 181
80 113 171
112 138 144
145 170 102
169 192 44
173 196 0
175 198 0
174 197 0
172 195 0
173 196 0
174 196 0
173 194 0
171 196 0
170 194 0
173 197 0
173 197 0
174 196 0
172 195 0
174 196 0
174 196 0
172 195 0
174 198 0
173 196 0
144 143 68
140 134 64
134 129 68
151 145 82
128 126 75
144 139 80
146 141 87
167 160 98
146 141 86
148 144 95
162 156 98
154 149 97
150 146 97
150 147 95
147 146 99
145 143 95
164 160 107
162 158 105
160 157 106
165 161 107
160 157 106
152 149 99
162 158 106
163 161 108
169 166 110
155 152 102
166 164 110
165 163 110
161 159 107
172 169 113
167 165 110
164 161 108
170 167 112
170 168 113
166 164 109
170 166 110
167 166 112
169 166 110
171 168 112
167 164 109
163 160 107
170 167 112
171 169 113
164 162 108
161 159 106
167 164 109
167 164 108
164 162 108
167 163 108
168 165 109
163 160 107
163 158 103
167 163 106
165 162 107
153 149 93
158 154 98
156 152 97
158 152 95
161 157 99
154 149 97
158 153 94
166 159 99
163 156 94
166 160 101
144 140 84
155 149 91
158 151 91
149 144 77
137 132 75
120 116 60
162 178 32
174 198 0
173 196 0
172 196 0
174 198 0
174 198 0
172 196 0
173 195 0
174 198 0
172 196 0
175 197 0
169 194 0
174 198 0
173 197 0
175 197 0
174 197 0
173 195 0
170 194 0
177 199 0
176 198 0
170 194 0
174 198 0
175 198 0
174 198 0
173 197 0
172 197 0
174 198 0
175 198 0
173 196 0
173 196 0
176 198 0
172 197 0
173 197 0
177 199 0
174 196 0
173 197 0
176 198 0
173 197 0
172 195 0
176 198 0
173 197 0
173 197 0
175 198 0
175 198 0
173 197 0
175 198 0
173 197 0
173 197 0
172 196 0
176 198 0
173 197 0
175 198 0
171 195 0
176 199 0
174 198 0
175 198 0
174 198 0
174 196 0
176 198 0
175 197 0
175 198 0
174 198 0
173 196 0
173 197 0
173 196 0
175 198 0
174 197 0
175 198 0
172 196 0
174 197 0
175 198 0
173 197 0
173 197 0
173 197 0
174 198 0
176 198 0
173 197 0
174 198 0
175 198 0
175 198 0
174 198 0
174 198 0
174 197 0
173 197 0
174 197 0
176 198 0
175 198 0
176 198 0
174 196 0
172 197 0
175 198 0
175 198 0
174 198 0
173 197 0
177 199 0
174 198 0
174 197 0
173 197 0
173 197 0
172 196 0
174 198 0
173 197 0
177 199 0
176 198 0
176 199 0
175 198 0
174 198 0
172 196 0
176 199 0
173 197 0
176 198 0
177 199 0
175 198 0
177 199 0
173 197 0
175 198 0
173 197 0
173 197 0
175 198 0
176 199 0
171 196 0
174 198 0
174 198 0
176 199 0
173 197 0
171 196 0
174 198 0
174 197 0
173 196 0
174 198 0
175 198 0
176 198 0
172 197 0
174 197 0
175 198 0
174 198 0
175 198 0
174 197 0
174 197 0
174 198 0
175 198 0
177 199 0
176 199 0
177 199 0
174 198 0
177 199 0
175 198 0
175 198 0
173 197 0
173 197 0
174 197 0
174 198 0
174 198 0
173 197 0
173 197 0
174 198 0
174 197 0
173 197 0
175 198 0
176 199 0
176 199 0
173 196 0
173 197 0
176 199 0
174 198 0
173 197 0
175 198 0
174 197 0
173 196 0
174 197 0
175 198 0
177 199 0
175 198 0
174 198 0
173 197 0
176 199 0
174 198 0
173 197 0
173 197 0
174 197 0
175 198 0
173 197 0
174 197 0
176 198 0
173 197 0
173 197 0
176 199 0
173 196 0
173 197 0
174 198 0
175 198 0
173 197 0
174 197 0
174 198 0
175 197 0
172 197 0
177 199 0
174 197 0
172 197 0
175 198 0
174 197 0
174 198 0
171 196 0
174 197 0
172 196 0
175 198 0
174 198 0
172 196 0
174 198 0
173 197 0
174 198 0
174 198 0
174 197 0
173 197 0
174 197 0
174 198 0
172 195 0
173 197 0
173 196 0
173 197 0
175 198 0
174 196 0
173 197 0
176 199 0
176 199 0
173 197 0
174 198 0
171 196 0
174 198 0
174 198 0
174 198 0
174 197 0
173 197 0
173 197 0
178 199 0
174 198 0
171 195 0
171 195 0
170 194 0
172 196 0
174 197 0
174 198 0
173 197 0
174 197 0
171 195 0
174 198 0
172 196 0
172 197 0
169 192 0
176 198 0
173 196 0
174 197 0
171 195 0
173 196 0
176 198 0
172 197 0
172 196 0
174 196 0
175 198 0
172 196 0
174 197 0
171 195 0
173 196 0
174 197 0
172 196 0
171 195 0
173 196 0
167 190 0
172 196 0
171 194 0
171 195 0
172 195 0
172 195 0
173 196 0
173 196 0
174 198 0
176 199 0
171 195 0
173 196 0
173 197 0
174 197 0
147 172 102
113 141 144
73 107 175
62 99 181
61 98 181
62 99 181
62 99 181
60 98 181
62 99 181
61 99 181
61 99 181
62 99 181
61 99 181
61 98 181
62 99 181
61 99 181
61 98 181
62 99 181
61 98 181
61 99 181
61 99 181
61 98 181
61 99 181
61 98 179
61 99 181
61 99 181
62 99 181
62 99 181
61 98 179
61 98 179
76 109 171
114 141 142
149 173 95
172 195 0
173 197 0
173 196 0
172 194 0
172 194 0
171 194 0
172 196 0
170 193 0
173 196 0
168 193 0
174 197 0
173 196 0
172 195 0
172 197 0
173 195 0
161 180 16
148 140 85
145 139 73
128 123 72
137 133 75
143 139 80
140 136 80
144 140 90
152 148 91
145 140 89
148 143 91
148 146 93
150 145 94
152 149 97
141 139 90
151 148 98
152 150 97
158 153 100
161 158 104
158 155 105
160 158 106
162 159 106
162 158 105
154 152 102
157 155 104
164 162 108
168 165 110
166 163 109
159 157 106
168 165 110
169 166 111
168 164 109
168 164 109
168 165 110
168 165 110
170 166 110
175 171 114
173 170 113
171 168 112
168 165 110
170 166 110
172 168 110
169 166 109
171 168 112
168 165 109
167 164 107
174 170 112
162 158 104
162 159 106
172 168 109
167 164 107
166 162 103
163 158 103
161 157 103
165 161 104
165 161 104
176 170 109
152 150 98
161 156 101
164 159 101
166 161 102
149 144 91
172 165 103
163 158 97
146 139 90
158 153 91
154 147 85
155 149 87
150 145 87
151 144 85
142 135 77
142 150 45
174 197 0
175 198 0
175 198 0
174 198 0
174 197 0
174 197 0
175 198 0
174 198 0
174 197 0
174 197 0
172 196 0
173 196 0
176 199 0
176 199 0
172 196 0
175 198 0
176 198 0
173 197 0
173 197 0
173 197 0
174 198 0
175 197 0
173 197 0
172 196 0
173 197 0
174 198 0
173 197 0
176 199 0
174 197 0
175 198 0
171 194 0
174 198 0
172 197 0
174 197 0
175 198 0
173 197 0
176 199 0
175 198 0
174 198 0
172 197 0
174 197 0
174 197 0
174 198 0
175 198 0
174 197 0
174 198 0
174 198 0
176 198 0
175 198 0
175 198 0
173 197 0
173 196 0
173 197 0
174 197 0
174 198 0
173 197 0
174 198 0
175 198 0
173 197 0
175 198 0
174 198 0
176 199 0
175 198 0
174 198 0
174 197 0
174 197 0
173 197 0
172 196 0
175 198 0
175 198 0
174 197 0
175 197 0
174 198 0
176 199 0
174 197 0
174 198 0
172 197 0
173 197 0
172 196 0
174 198 0
175 198 0
176 199 0
173 196 0
174 198 0
175 198 0
173 197 0
174 197 0
175 198 0
174 198 0
174 198 0
173 197 0
174 198 0
175 198 0
172 197 0
176 199 0
175 198 0
176 198 0
175 198 0
175 198 0
175 198 0
173 196 0
172 196 0
173 196 0
175 198 0
174 198 0
174 198 0
174 198 0
173 197 0
173 196 0
175 198 0
174 197 0
172 196 0
175 198 0
176 199 0
175 198 0
174 197 0
175 198 0
175 198 0
175 198 0
171 195 0
176 199 0
177 199 0
173 196 0
174 198 0
176 199 0
174 198 0
171 195 0
176 199 0
173 197 0
175 198 0
176 198 0
173 196 0
171 195 0
174 197 0
173 197 0
175 198 0
174 198 0
174 198 0
174 198 0
176 199 0
173 197 0
173 197 0
174 197 0
173 197 0
174 198 0
175 198 0
169 193 0
176 198 0
175 198 0
174 198 0
176 199 0
175 198 0
173 197 0
171 195 0
174 197 0
173 197 0
176 199 0
175 198 0
174 197 0
176 198 0
174 197 0
174 197 0
174 198 0
172 197 0
175 198 0
176 198 0
175 198 0
174 197 0
174 198 0
172 196 0
175 198 0
174 198 0
175 197 0
176 199 0
172 196 0
172 195 0
176 199 0
176 198 0
172 196 0
173 197 0
172 195 0
172 197 0
172 197 0
176 198 0
171 196 0
172 197 0
173 197 0
173 197 0
173 197 0
171 194 0
177 199 0
174 198 0
173 197 0
172 196 0
169 193 0
173 197 0
175 198 0
174 198 0
170 195 0
174 198 0
174 198 0
171 195 0
172 197 0
176 199 0
174 198 0
175 198 0
174 198 0
173 197 0
175 198 0
176 199 0
173 197 0
175 198 0
175 198 0
172 197 0
172 196 0
174 198 0
172 197 0
178 200 0
173 196 0
174 198 0
177 199 0
173 197 0
174 198 0
174 197 0
177 199 0
174 197 0
173 197 0
172 195 0
172 196 0
173 197 0
171 196 0
176 199 0
173 197 0
174 198 0
173 196 0
173 197 0
176 199 0
176 198 0
172 197 0
172 196 0
171 195 0
175 198 0
172 195 0
171 195 0
170 194 0
171 195 0
174 198 0
175 198 0
172 197 0
173 197 0
173 197 0
173 195 0
172 196 0
173 196 0
172 195 0
175 198 0
177 199 0
170 194 0
170 194 0
168 192 0
171 195 0
171 195 0
173 195 0
171 194 0
173 195 0
171 194 0
173 197 0
171 195 0
173 196 0
175 198 0
171 196 0
174 196 0
172 196 0
168 192 0
171 194 0
172 196 0
175 196 0
173 196 0
134 160 120
96 125 161
62 99 181
62 99 179
62 99 181
62 99 181
62 99 181
61 98 181
61 98 181
62 99 181
61 98 181
62 99 181
61 98 181
61 99 181
62 99 181
61 99 181
62 99 181
62 99 181
61 99 181
62 99 181
62 99 181
62 99 181
61 98 181
61 99 181
61 98 181
62 99 181
62 99 179
62 99 181
61 98 179
63 100 181
61 98 179
61 98 179
61 98 177
62 99 179
61 99 179
83 114 165
134 158 125
165 189 51
171 195 0
167 190 0
176 199 0
170 193 0
170 194 0
175 197 0
172 194 0
172 193 0
170 193 0
173 196 0
171 195 0
168 191 0
152 153 58
132 126 68
137 130 71
141 136 80
143 138 83
149 144 91
145 141 85
148 145 92
144 140 86
139 137 86
151 147 94
150 147 96
161 155 100
140 138 91
148 146 99
155 153 101
165 162 106
154 151 102
155 152 102
153 151 101
161 158 106
148 147 100
163 160 106
155 152 103
160 158 107
162 159 108
166 163 109
170 167 110
171 169 113
167 164 110
159 158 106
171 168 112
169 167 110
174 169 112
174 169 112
174 171 114
167 165 109
169 166 110
169 167 112
170 166 109
172 168 110
172 168 112
167 163 108
168 165 108
173 169 112
172 169 112
170 165 109
167 163 108
168 165 106
170 166 107
171 168 109
163 159 102
160 157 102
164 160 102
167 161 104
165 160 101
160 155 97
160 156 99
164 159 99
147 143 90
168 164 104
159 154 97
160 154 94
151 146 91
160 154 94
148 143 85
156 150 91
152 146 79
160 153 95
131 126 72
145 138 77
147 140 72
169 188 36
173 197 0
172 194 0
175 197 0
178 200 0
171 195 0
175 197 0
174 197 0
174 198 0
171 195 0
175 195 0
175 198 0
174 197 0
173 197 0
174 198 0
173 197 0
173 196 0
174 198 0
171 196 0
173 196 0
172 197 0
178 200 0
176 197 0
174 197 0
173 195 0
175 198 0
173 196 0
174 198 0
176 198 0
175 198 0
175 197 0
176 199 0
175 198 0
175 198 0
177 199 0
174 197 0
174 198 0
173 197 0
175 198 0
173 197 0
175 198 0
175 198 0
175 198 0
175 198 0
174 198 0
173 195 0
173 197 0
175 198 0
176 199 0
172 196 0
174 197 0
174 197 0
174 197 0
173 197 0
174 197 0
173 196 0
175 198 0
175 198 0
175 198 0
171 196 0
175 198 0
176 199 0
174 197 0
172 196 0
172 196 0
174 197 0
175 198 0
174 196 0
175 198 0
173 197 0
174 198 0
172 196 0
175 198 0
176 198 0
174 197 0
174 198 0
175 198 0
175 198 0
174 197 0
175 197 0
174 197 0
173 197 0
175 198 0
175 198 0
176 199 0
173 197 0
175 197 0
173 197 0
175 198 0
171 195 0
175 198 0
176 198 0
173 196 0
176 199 0
175 198 0
173 196 0
173 197 0
173 197 0
174 198 0
173 197 0
174 198 0
176 199 0
172 196 0
174 198 0
177 199 0
174 197 0
176 199 0
174 197 0
172 197 0
175 198 0
175 198 0
175 197 0
175 198 0
173 197 0
174 197 0
171 196 0
174 198 0
175 198 0
175 198 0
174 198 0
175 198 0
173 197 0
173 197 0
176 199 0
174 198 0
174 198 0
174 198 0
174 198 0
174 198 0
174 198 0
173 197 0
174 197 0
175 198 0
174 197 0
175 198 0
175 198 0
174 198 0
172 197 0
175 198 0
174 198 0
173 197 0
175 198 0
173 197 0
173 197 0
174 197 0
173 197 0
171 196 0
174 198 0
173 196 0
174 197 0
174 198 0
175 197 0
173 197 0
176 199 0
173 197 0
176 199 0
174 197 0
175 198 0
175 198 0
175 198 0
174 198 0
175 198 0
174 197 0
173 195 0
173 197 0
172 196 0
172 197 0
175 198 0
173 197 0
173 196 0
171 196 0
173 197 0
176 199 0
175 198 0
172 196 0
175 198 0
174 197 0
176 198 0
172 196 0
173 197 0
172 195 0
175 198 0
176 199 0
173 197 0
175 198 0
178 200 0
175 198 0
174 198 0
174 198 0
173 197 0
173 197 0
174 197 0
173 197 0
172 195 0
174 198 0
176 199 0
175 198 0
175 198 0
174 198 0
174 198 0
176 198 0
176 199 0
174 197 0
172 195 0
174 198 0
176 198 0
174 198 0
171 195 0
172 196 0
175 197 0
174 198 0
174 197 0
174 198 0
176 199 0
171 195 0
172 197 0
172 197 0
173 197 0
175 198 0
171 195 0
173 197 0
176 199 0
174 198 0
173 195 0
171 195 0
174 198 0
174 197 0
177 199 0
172 196 0
176 198 0
173 196 0
171 194 0
172 196 0
173 197 0
174 198 0
171 195 0
171 195 0
176 199 0
170 194 0
176 198 0
174 198 0
174 197 0
175 197 0
177 199 0
171 194 0
173 196 0
172 196 0
167 192 0
173 197 0
172 196 0
173 196 0
173 197 0
175 197 0
174 196 0
173 196 0
173 196 0
174 197 0
172 196 0
174 198 0
174 198 0
173 197 0
171 194 0
172 197 0
174 197 0
174 197 0
175 198 0
174 197 0
172 197 0
174 197 0
175 198 0
173 197 0
174 197 0
173 196 0
172 196 0
172 195 0
173 196 0
133 158 125
77 110 171
62 99 181
61 98 181
62 99 181
62 99 181
62 99 181
62 99 181
62 99 181
62 99 181
62 99 181
61 98 181
61 99 181
61 99 181
61 98 181
61 98 181
62 99 181
61 99 181
62 99 181
63 100 181
61 99 181
61 98 181
61 99 181
62 99 181
61 99 181
61 98 181
62 99 181
61 99 181
62 99 181
62 99 181
61 99 181
60 98 179
62 99 181
61 98 181
62 99 179
62 99 179
62 98 179
61 98 177
63 100 181
70 104 174
148 172 99
166 190 36
172 197 0
173 196 0
173 197 0
173 197 0
171 195 0
174 196 0
175 198 0
174 197 0
173 197 0
164 180 36
135 128 72
127 123 60
131 126 68
151 145 81
149 144 87
141 136 86
136 133 83
147 141 84
148 144 89
142 139 89
148 144 95
134 133 90
152 149 96
142 140 91
145 144 99
158 156 104
144 142 96
159 155 104
150 148 101
152 149 101
162 159 106
158 158 107
167 164 109
155 153 103
162 160 107
169 166 110
164 162 109
166 163 109
166 162 108
167 165 110
164 162 108
162 159 105
172 169 112
167 164 110
172 169 112
173 170 113
164 162 109
170 168 112
171 168 110
171 169 112
170 167 112
165 161 107
169 166 109
166 163 108
168 165 107
167 165 107
174 170 109
167 163 107
168 163 107
165 160 103
168 163 104
175 169 109
169 164 106
154 150 99
172 167 107
167 163 104
165 161 102
166 161 102
162 158 102
161 157 101
162 157 99
157 152 90
159 155 97
145 142 87
155 150 93
156 152 95
153 148 82
152 146 85
154 148 87
149 143 80
139 134 66
131 126 70
154 169 22
174 198 0
174 198 0
173 197 0
172 195 0
173 196 0
173 197 0
173 197 0
175 198 0
174 198 0
175 198 0
173 196 0
172 196 0
174 198 0
175 197 0
175 197 0
174 196 0
174 198 0
172 196 0
172 196 0
173 197 0
175 198 0
174 198 0
174 198 0
174 197 0
173 197 0
174 198 0
175 198 0
174 196 0
173 197 0
174 198 0
174 198 0
175 198 0
174 197 0
174 198 0
172 196 0
174 197 0
175 198 0
176 199 0
173 196 0
174 198 0
174 198 0
174 197 0
172 195 0
173 197 0
173 196 0
173 197 0
173 197 0
175 198 0
175 198 0
173 197 0
175 198 0
174 197 0
173 196 0
172 196 0
173 197 0
173 197 0
172 197 0
175 198 0
173 197 0
175 198 0
174 198 0
172 196 0
175 198 0
172 196 0
174 197 0
173 197 0
173 196 0
172 197 0
176 199 0
174 197 0
175 198 0
176 198 0
173 196 0
173 196 0
175 198 0
173 197 0
175 197 0
174 198 0
175 198 0
176 199 0
174 197 0
170 193 0
174 198 0
176 199 0
172 197 0
176 199 0
174 197 0
175 198 0
174 197 0
171 196 0
174 197 0
174 197 0
173 197 0
174 197 0
172 197 0
175 198 0
176 199 0
174 197 0
175 198 0
175 198 0
174 197 0
174 198 0
174 198 0
175 198 0
173 196 0
175 198 0
174 198 0
176 198 0
176 198 0
173 197 0
171 196 0
172 197 0
175 198 0
174 198 0
174 198 0
175 198 0
176 199 0
175 198 0
174 198 0
175 198 0
173 197 0
175 198 0
178 200 0
175 198 0
174 197 0
174 197 0
174 197 0
176 198 0
175 198 0
175 198 0
174 197 0
173 197 0
177 199 0
174 197 0
173 197 0
174 197 0
176 198 0
175 198 0
175 198 0
167 192 0
174 198 0
174 197 0
172 196 0
175 198 0
174 198 0
174 197 0
173 197 0
174 198 0
173 197 0
174 198 0
176 198 0
172 196 0
174 198 0
173 197 0
172 196 0
174 197 0
173 197 0
174 197 0
175 198 0
175 198 0
175 198 0
175 198 0
174 197 0
175 198 0
175 198 0
173 197 0
176 199 0
173 197 0
174 197 0
173 197 0
176 199 0
172 196 0
173 197 0
174 197 0
175 198 0
174 197 0
173 197 0
174 198 0
175 198 0
174 198 0
173 196 0
174 198 0
174 198 0
174 198 0
174 197 0
171 195 0
174 198 0
175 198 0
173 197 0
170 195 0
174 198 0
175 198 0
173 197 0
176 198 0
174 198 0
173 197 0
175 198 0
174 198 0
173 197 0
174 198 0
174 198 0
175 198 0
171 195 0
174 198 0
178 200 0
177 199 0
175 198 0
173 196 0
173 197 0
175 198 0
175 198 0
173 197 0
173 197 0
172 196 0
175 198 0
177 199 0
175 198 0
169 192 0
176 198 0
171 195 0
173 197 0
174 197 0
172 195 0
173 197 0
175 198 0
172 196 0
173 196 0
173 197 0
176 198 0
173 197 0
171 194 0
173 197 0
173 196 0
174 197 0
175 198 0
173 196 0
176 199 0
173 197 0
175 197 0
171 195 0
173 196 0
171 196 0
174 198 0
172 195 0
174 196 0
173 197 0
171 194 0
171 195 0
173 196 0
170 193 0
173 196 0
174 196 0
173 196 0
172 197 0
171 194 0
172 195 0
172 195 0
173 196 0
173 196 0
170 195 0
175 197 0
172 194 0
173 197 0
175 198 0
171 194 0
172 197 0
174 197 0
176 199 0
172 196 0
171 194 0
171 195 0
173 197 0
173 195 0
144 170 105
94 124 161
62 99 181
62 99 181
62 99 181
61 99 181
61 99 181
62 99 181
61 98 179
62 99 181
62 99 181
61 99 181
62 99 181
61 99 181
61 98 181
62 99 181
62 99 181
62 99 181
62 99 181
61 98 181
61 98 181
61 99 181
62 99 181
61 98 181
62 99 181
61 98 181
61 99 181
61 98 181
62 99 181
62 99 181
61 99 181
61 98 181
62 99 181
61 99 181
62 99 181
61 99 181
62 99 179
62 98 178
62 99 181
61 98 172
60 98 179
62 99 179
62 99 179
79 111 163
138 162 105
176 198 0
176 198 0
172 194 0
169 191 0
169 193 0
171 194 0
172 196 0
175 197 0
154 160 51
127 122 62
134 127 72
138 134 80
139 134 75
147 143 79
134 131 80
130 128 78
129 126 82
146 141 90
141 139 87
141 138 88
148 144 92
150 148 99
156 153 98
149 145 95
146 144 97
156 153 101
141 139 95
151 149 102
159 158 106
160 157 105
156 153 103
165 161 106
159 156 106
159 156 105
164 162 110
164 162 109
161 159 106
162 159 106
169 166 111
164 161 108
169 166 111
171 166 109
172 169 112
168 165 110
167 164 108
167 165 109
170 167 110
175 171 113
171 168 110
174 169 112
173 171 114
173 169 110
175 171 112
175 170 112
172 168 109
175 170 110
170 166 108
171 166 104
175 169 109
171 166 107
169 165 107
166 162 102
173 168 109
167 163 108
167 163 104
171 166 103
172 166 104
161 156 101
152 147 87
163 157 99
155 150 91
139 134 82
157 151 90
155 151 88
155 150 94
155 149 88
152 146 85
137 131 75
149 144 84
148 141 74
133 129 62
148 145 74
172 193 0
175 197 0
175 197 0
173 196 0
171 195 0
170 192 0
174 198 0
175 198 0
175 197 0
174 197 0
173 196 0
176 199 0
171 195 0
173 197 0
174 196 0
174 197 0
172 197 0
174 196 0
173 196 0
172 194 0
172 196 0
173 197 0
176 199 0
174 198 0
173 197 0
174 198 0
174 197 0
172 196 0
175 198 0
175 197 0
175 198 0
173 197 0
173 197 0
171 196 0
174 198 0
175 198 0
172 194 0
172 197 0
173 197 0
172 196 0
175 198 0
174 198 0
173 197 0
174 198 0
176 198 0
172 196 0
174 197 0
174 198 0
175 198 0
174 198 0
175 198 0
174 197 0
175 198 0
174 198 0
173 196 0
171 196 0
174 198 0
172 197 0
176 198 0
174 198 0
173 197 0
173 197 0
174 197 0
175 198 0
174 198 0
176 199 0
173 196 0
175 198 0
174 197 0
172 195 0
174 198 0
174 197 0
174 197 0
175 198 0
175 198 0
172 197 0
176 199 0
173 197 0
174 198 0
173 197 0
172 196 0
174 198 0
176 199 0
176 198 0
176 199 0
176 199 0
176 199 0
174 198 0
175 198 0
172 196 0
175 197 0
175 198 0
175 198 0
178 200 0
176 198 0
175 198 0
176 198 0
172 196 0
176 198 0
175 198 0
174 198 0
171 195 0
174 198 0
174 196 0
172 197 0
173 196 0
173 196 0
173 197 0
176 199 0
174 198 0
175 198 0
176 199 0
176 198 0
175 198 0
173 197 0
176 199 0
175 198 0
175 198 0
175 198 0
174 198 0
174 198 0
172 197 0
174 198 0
173 197 0
175 198 0
173 196 0
174 197 0
176 199 0
175 198 0
174 198 0
176 199 0
173 197 0
175 198 0
174 198 0
175 198 0
173 197 0
175 198 0
173 197 0
173 197 0
175 198 0
175 197 0
174 197 0
173 197 0
174 198 0
174 198 0
173 197 0
175 198 0
176 199 0
176 198 0
172 196 0
174 198 0
173 197 0
177 199 0
174 197 0
175 198 0
173 197 0
176 199 0
173 196 0
173 196 0
174 198 0
174 198 0
174 198 0
175 198 0
175 198 0
174 198 0
175 198 0
172 195 0
174 198 0
175 197 0
174 198 0
176 198 0
174 198 0
173 197 0
174 196 0
176 199 0
174 198 0
175 197 0
177 199 0
173 197 0
176 199 0
175 198 0
175 198 0
174 197 0
173 195 0
174 197 0
174 197 0
173 196 0
174 197 0
175 198 0
173 197 0
173 196 0
173 196 0
173 197 0
175 198 0
175 198 0
172 196 0
173 197 0
173 196 0
175 198 0
173 197 0
174 197 0
174 197 0
175 197 0
172 196 0
176 199 0
171 195 0
173 197 0
173 197 0
176 198 0
173 195 0
170 193 0
173 196 0
175 197 0
173 197 0
174 198 0
172 196 0
173 196 0
173 195 0
172 196 0
175 198 0
176 199 0
171 194 0
166 190 0
173 197 0
174 196 0
175 198 0
172 196 0
173 196 0
173 196 0
174 197 0
174 198 0
174 198 0
171 195 0
174 198 0
176 199 0
174 198 0
172 197 0
170 195 0
173 196 0
172 196 0
173 196 0
173 197 0
176 199 0
171 195 0
175 197 0
171 196 0
174 198 0
173 196 0
170 193 0
170 192 0
172 196 0
168 192 0
174 198 0
177 199 0
174 197 0
172 197 0
173 197 0
176 199 0
172 195 0
167 191 0
174 198 0
175 197 0
172 196 0
172 196 0
172 196 0
172 195 0
174 197 0
175 198 0
172 196 0
171 193 0
172 195 0
162 186 62
103 132 155
61 99 181
62 99 181
62 99 181
61 99 181
62 99 181
62 99 181
61 99 181
62 99 181
62 99 181
62 99 181
61 99 181
61 99 181
62 99 181
62 99 181
62 99 181
61 98 181
62 99 181
61 99 181
62 99 181
61 98 181
60 98 181
61 99 181
61 99 181
62 99 181
62 99 181
62 99 181
62 99 181
61 99 181
62 99 181
62 99 181
62 99 181
61 98 179
61 98 179
61 98 181
61 99 181
62 99 179
62 99 181
61 98 179
61 98 181
62 98 178
62 98 179
61 97 176
60 97 177
59 95 172
61 97 171
87 117 155
146 170 96
174 198 0
172 195 0
173 196 0
173 197 0
174 197 0
173 195 16
133 130 64
130 124 66
137 133 67
144 138 75
124 119 64
137 132 77
143 139 78
142 139 87
141 139 84
146 142 90
137 136 93
150 144 94
147 144 94
143 142 97
155 150 99
142 141 96
149 147 99
139 139 98
150 148 100
155 153 102
156 154 104
155 152 103
167 164 110
149 147 99
167 164 108
170 164 109
163 161 108
169 166 111
164 162 109
172 168 111
161 159 107
167 165 110
167 165 110
164 162 109
172 167 109
171 167 109
175 171 113
173 170 112
170 168 110
176 172 114
173 169 112
168 165 110
173 169 112
169 165 107
173 169 112
171 167 109
170 166 109
171 167 108
175 171 113
168 163 106
172 167 109
168 163 107
171 167 108
173 168 109
159 154 99
167 161 101
171 165 101
167 161 103
165 160 104
160 155 99
165 158 99
162 157 101
175 168 106
161 154 99
164 159 98
163 157 99
161 154 91
153 148 87
151 145 88
161 153 93
139 133 75
142 137 72
144 138 72
134 128 66
158 176 28
174 198 0
177 199 0
175 197 0
172 195 0
173 196 0
174 198 0
172 196 0
174 198 0
174 198 0
174 197 0
171 194 0
172 196 0
172 197 0
174 198 0
174 197 0
174 198 0
174 198 0
175 197 0
173 197 0
174 197 0
173 196 0
172 197 0
172 196 0
174 197 0
172 197 0
175 198 0
175 198 0
174 197 0
175 198 0
174 198 0
174 198 0
172 196 0
173 197 0
174 198 0
175 198 0
173 197 0
174 198 0
174 197 0
174 198 0
173 197 0
174 198 0
174 197 0
174 197 0
174 197 0
173 197 0
176 198 0
175 198 0
174 197 0
175 197 0
174 198 0
174 198 0
174 198 0
172 197 0
173 197 0
174 197 0
175 198 0
172 196 0
175 198 0
175 198 0
174 198 0
173 197 0
175 198 0
174 197 0
173 197 0
174 198 0
175 198 0
173 196 0
177 199 0
174 197 0
173 197 0
175 198 0
175 198 0
175 197 0
175 198 0
172 197 0
173 196 0
175 198 0
174 198 0
174 198 0
171 196 0
174 197 0
176 198 0
174 198 0
173 197 0
173 197 0
174 197 0
173 197 0
174 197 0
174 198 0
177 199 0
175 198 0
176 199 0
172 197 0
177 199 0
175 198 0
174 197 0
175 198 0
176 199 0
175 198 0
177 199 0
174 198 0
172 197 0
175 198 0
175 198 0
176 198 0
174 198 0
174 197 0
173 196 0
175 198 0
174 198 0
172 197 0
171 195 0
173 197 0
174 198 0
172 197 0
174 198 0
175 198 0
172 197 0
175 198 0
174 198 0
173 197 0
173 197 0
174 198 0
175 198 0
174 198 0
177 199 0
174 198 0
174 198 0
175 198 0
174 197 0
175 198 0
173 197 0
173 197 0
173 197 0
175 197 0
176 199 0
172 196 0
173 196 0
173 196 0
174 198 0
173 196 0
172 197 0
174 198 0
173 197 0
174 198 0
174 198 0
175 198 0
174 198 0
174 198 0
173 197 0
174 198 0
174 198 0
173 197 0
173 197 0
173 197 0
173 197 0
174 198 0
174 198 0
175 198 0
175 198 0
173 197 0
176 199 0
173 197 0
175 198 0
176 198 0
167 192 0
174 198 0
171 195 0
172 197 0
173 197 0
176 199 0
171 195 0
174 198 0
172 196 0
170 194 0
172 196 0
177 199 0
176 199 0
174 197 0
174 198 0
174 197 0
175 198 0
173 196 0
176 199 0
171 196 0
173 197 0
175 198 0
174 198 0
175 198 0
171 195 0
175 198 0
177 199 0
176 198 0
173 197 0
175 198 0
173 196 0
173 195 0
174 197 0
175 198 0
172 197 0
174 198 0
174 197 0
173 197 0
173 196 0
171 195 0
173 197 0
175 198 0
173 197 0
174 198 0
175 198 0
174 197 0
172 195 0
171 195 0
173 197 0
171 195 0
174 198 0
171 195 0
175 198 0
173 197 0
173 197 0
172 195 0
173 196 0
172 194 0
170 194 0
173 196 0
175 198 0
173 197 0
173 196 0
175 198 0
170 194 0
171 195 0
174 197 0
174 198 0
171 195 0
171 195 0
173 196 0
169 192 0
173 196 0
170 194 0
174 198 0
175 198 0
174 197 0
174 196 0
171 194 0
174 197 0
169 193 0
174 197 0
174 197 0
165 188 0
174 197 0
174 196 0
175 198 0
172 197 0
172 196 0
170 195 0
171 193 0
174 198 0
172 196 0
167 190 0
173 197 0
172 196 0
172 195 0
171 194 0
171 195 0
171 194 0
172 195 0
172 195 0
172 196 0
169 193 0
142 164 114
67 102 175
62 99 181
62 99 181
62 99 181
62 99 181
61 98 181
61 99 181
61 98 181
62 99 181
62 99 181
62 99 181
61 99 181
61 99 181
62 99 181
62 99 181
61 99 181
62 99 181
61 99 181
61 98 181
61 99 181
61 98 181
61 99 181
62 99 181
62 99 181
61 98 181
62 99 181
61 98 181
61 99 181
61 99 181
62 99 181
61 99 181
61 99 181
62 99 181
61 99 181
62 99 181
62 99 179
62 99 181
62 99 181
62 99 181
61 99 179
62 99 181
61 98 177
62 99 179
62 99 178
61 97 174
61 97 174
62 98 177
61 98 178
74 107 168
144 168 108
170 194 25
170 194 0
175 198 0
173 195 0
160 178 32
139 133 71
133 127 66
147 142 76
116 114 67
145 142 83
128 124 72
137 133 84
150 144 93
130 127 79
123 124 82
137 136 88
149 147 94
146 143 93
148 147 102
148 145 96
145 143 96
158 155 105
164 162 108
144 143 98
159 156 105
161 158 106
153 152 103
159 158 108
162 160 109
154 153 104
157 154 104
162 160 108
164 162 109
162 159 106
165 162 109
163 160 107
167 164 109
168 165 110
164 162 108
171 167 110
163 161 106
167 163 106
167 163 107
173 169 112
172 168 112
173 169 110
175 171 113
175 171 110
174 170 112
168 164 106
174 170 112
175 169 110
170 165 104
174 169 109
170 166 109
168 163 99
169 164 102
164 162 106
163 160 102
174 170 109
172 167 108
171 165 106
170 163 103
163 158 103
170 164 101
164 158 98
161 155 94
163 157 97
161 155 91
153 148 94
160 154 87
163 157 99
150 144 85
145 140 75
156 150 88
141 136 79
148 143 80
132 127 70
162 154 93
150 155 60
172 197 0
173 197 0
172 195 0
174 197 0
174 198 0
173 197 0
172 195 0
173 196 0
172 196 0
174 196 0
172 196 0
175 197 0
177 199 0
173 196 0
174 198 0
174 198 0
175 198 0
171 193 0
176 199 0
176 198 0
173 196 0
176 198 0
172 196 0
173 197 0
176 198 0
172 194 0
173 196 0
173 197 0
174 197 0
173 197 0
174 198 0
174 197 0
173 197 0
173 197 0
172 196 0
174 198 0
174 198 0
173 196 0
172 197 0
174 197 0
174 197 0
174 197 0
174 197 0
174 197 0
174 198 0
173 197 0
172 196 0
174 198 0
173 195 0
173 197 0
175 198 0
173 197 0
174 198 0
174 197 0
175 198 0
175 198 0
175 198 0
177 199 0
176 199 0
174 198 0
176 199 0
174 197 0
173 196 0
176 199 0
174 198 0
173 197 0
173 197 0
175 198 0
172 196 0
177 199 0
175 198 0
175 197 0
175 198 0
171 195 0
175 198 0
176 198 0
174 198 0
173 197 0
174 197 0
172 197 0
174 198 0
176 199 0
174 198 0
175 198 0
175 198 0
174 198 0
177 199 0
173 197 0
172 197 0
175 196 0
175 197 0
174 198 0
176 199 0
176 199 0
177 199 0
176 198 0
175 198 0
173 197 0
176 199 0
176 199 0
176 199 0
175 198 0
173 197 0
173 197 0
175 198 0
174 197 0
175 197 0
174 198 0
175 198 0
173 196 0
175 198 0
172 197 0
174 198 0
175 198 0
174 198 0
173 197 0
173 197 0
175 198 0
174 198 0
173 196 0
175 198 0
173 197 0
174 198 0
173 197 0
174 197 0
173 197 0
176 198 0
175 198 0
173 197 0
177 199 0
174 198 0
174 197 0
171 196 0
175 198 0
174 198 0
174 197 0
172 197 0
175 198 0
174 198 0
176 199 0
174 198 0
176 199 0
175 198 0
175 198 0
174 197 0
177 199 0
173 197 0
174 197 0
176 199 0
175 198 0
173 197 0
173 197 0
172 196 0
175 198 0
176 199 0
171 194 0
171 195 0
175 198 0
175 197 0
175 198 0
173 197 0
173 196 0
175 198 0
174 198 0
174 198 0
173 197 0
173 197 0
171 195 0
172 197 0
175 198 0
174 198 0
173 197 0
172 196 0
173 197 0
172 197 0
174 197 0
175 197 0
171 195 0
173 197 0
171 195 0
171 195 0
171 194 0
174 197 0
174 197 0
175 197 0
174 196 0
173 196 0
173 197 0
175 198 0
175 198 0
173 196 0
172 196 0
175 197 0
173 195 0
173 197 0
173 197 0
173 197 0
174 197 0
174 197 0
168 191 0
177 199 0
171 195 0
176 199 0
174 197 0
174 197 0
174 197 0
175 198 0
175 198 0
174 198 0
174 198 0
173 197 0
173 196 0
172 195 0
173 197 0
174 197 0
172 197 0
173 196 0
174 198 0
173 196 0
171 195 0
174 197 0
170 194 0
170 195 0
173 197 0
172 196 0
170 195 0
171 195 0
172 197 0
170 195 0
177 199 0
174 197 0
172 196 0
172 196 0
175 198 0
172 196 0
174 197 0
173 196 0
174 198 0
174 197 0
174 197 0
174 198 0
175 198 0
170 192 0
170 193 0
171 194 0
172 195 0
173 197 0
172 196 0
172 196 0
171 195 0
173 197 0
173 196 0
173 196 0
174 197 0
173 197 0
173 196 0
172 196 0
169 194 0
173 196 0
172 194 0
174 197 0
174 197 0
171 194 0
170 193 0
172 195 0
174 197 0
170 193 0
168 191 36
94 124 163
62 99 181
63 100 181
62 99 181
61 98 177
61 98 181
61 99 181
62 99 181
62 99 181
62 99 181
61 99 181
62 99 181
62 99 181
62 99 181
62 99 181
61 99 181
61 98 181
62 99 181
61 98 181
61 99 181
61 98 181
61 99 181
61 99 181
61 99 181
61 99 181
61 98 181
61 98 181
61 98 181
61 98 181
61 98 181
62 99 181
61 98 181
62 99 181
61 98 181
61 99 181
61 98 181
62 99 181
62 99 179
61 99 181
61 99 181
62 99 181
61 99 179
62 99 179
61 98 178
62 99 179
62 99 179
61 98 177
61 97 176
61 97 174
62 99 177
60 97 176
61 97 176
95 124 155
166 189 44
174 196 0
170 193 0
147 156 39
125 120 62
132 127 69
146 139 81
144 140 77
122 121 78
134 131 79
140 136 80
127 124 77
128 127 78
140 137 87
132 130 86
136 134 85
141 139 92
137 135 90
152 149 101
157 155 105
142 142 98
154 152 102
136 138 96
142 141 97
149 147 101
155 153 104
149 148 101
161 158 104
161 158 106
161 158 108
156 155 106
157 156 106
166 162 106
166 162 108
166 162 108
168 165 110
161 159 106
164 163 110
175 170 113
177 171 112
171 169 110
171 167 109
171 167 108
170 168 109
171 166 107
173 168 110
173 170 112
173 169 112
172 168 109
173 168 109
171 166 108
171 167 109
176 171 107
174 169 110
173 168 108
167 162 102
176 170 109
159 156 98
173 167 106
160 156 101
165 161 102
167 163 102
161 156 99
155 150 95
161 156 98
165 160 102
168 162 99
160 155 91
159 154 97
157 151 87
158 151 91
163 156 98
147 142 85
152 146 82
145 141 70
150 144 79
143 137 72
127 122 51
130 131 56
174 197 0
171 193 0
170 193 0
173 197 0
170 194 0
172 195 0
174 197 0
172 195 0
174 198 0
175 197 0
171 195 0
173 195 0
175 198 0
170 193 0
174 198 0
174 197 0
174 198 0
170 194 0
176 199 0
175 198 0
172 195 0
175 198 0
173 197 0
175 198 0
176 198 0
175 198 0
174 197 0
173 197 0
173 196 0
173 197 0
173 197 0
176 199 0
174 197 0
173 197 0
175 198 0
175 198 0
175 198 0
175 198 0
174 196 0
174 197 0
176 197 0
173 195 0
174 198 0
175 197 0
173 197 0
175 198 0
172 196 0
173 196 0
175 198 0
172 196 0
172 195 0
174 196 0
174 198 0
171 194 0
173 197 0
174 198 0
174 198 0
172 196 0
173 197 0
175 197 0
174 198 0
174 197 0
174 197 0
175 197 0
176 199 0
176 198 0
172 197 0
176 199 0
174 198 0
175 198 0
175 198 0
174 197 0
174 197 0
173 197 0
171 196 0
174 198 0
176 199 0
174 198 0
175 198 0
171 196 0
174 197 0
173 196 0
177 199 0
174 198 0
173 197 0
176 199 0
173 196 0
171 196 0
175 198 0
175 198 0
176 199 0
176 199 0
173 197 0
173 196 0
176 199 0
173 197 0
176 199 0
173 196 0
175 198 0
174 198 0
174 197 0
176 198 0
174 198 0
172 195 0
174 198 0
176 199 0
174 198 0
171 195 0
174 197 0
175 198 0
173 197 0
175 198 0
172 197 0
178 200 0
173 197 0
174 197 0
174 198 0
174 198 0
175 198 0
176 199 0
174 198 0
174 198 0
174 198 0
174 198 0
172 197 0
175 198 0
173 197 0
173 197 0
174 198 0
176 199 0
173 197 0
175 198 0
175 196 0
174 198 0
175 198 0
172 196 0
173 196 0
176 199 0
178 200 0
175 198 0
175 198 0
174 197 0
174 198 0
173 197 0
173 196 0
171 196 0
177 199 0
175 198 0
172 197 0
173 197 0
175 198 0
174 198 0
173 197 0
173 197 0
174 197 0
173 196 0
172 195 0
176 199 0
177 199 0
175 198 0
176 199 0
172 196 0
171 194 0
174 198 0
176 199 0
174 197 0
173 197 0
174 197 0
174 197 0
171 195 0
174 198 0
173 196 0
174 198 0
174 197 0
172 196 0
174 197 0
173 196 0
170 193 0
176 198 0
175 197 0
174 198 0
175 198 0
175 198 0
173 196 0
174 197 0
176 199 0
172 196 0
176 199 0
174 197 0
172 196 0
173 197 0
173 197 0
172 197 0
170 194 0
175 198 0
175 198 0
175 198 0
175 198 0
171 193 0
172 196 0
173 196 0
172 196 0
173 195 0
172 196 0
172 196 0
175 198 0
175 198 0
172 197 0
174 198 0
174 198 0
175 198 0
174 197 0
174 197 0
174 197 0
173 196 0
173 196 0
171 194 0
173 196 0
173 196 0
172 195 0
174 197 0
175 198 0
172 197 0
175 198 0
173 197 0
173 197 0
174 198 0
173 196 0
171 195 0
172 195 0
173 197 0
173 197 0
175 198 0
172 196 0
172 195 0
173 197 0
167 191 0
174 197 0
174 197 0
176 197 0
173 197 0
168 192 0
173 197 0
173 197 0
172 196 0
170 194 0
171 193 0
171 196 0
173 195 0
170 195 0
175 197 0
172 195 0
173 197 0
173 197 0
171 194 0
173 196 0
174 197 0
173 196 0
172 195 0
175 198 0
169 194 0
175 198 0
171 195 0
172 196 0
175 196 0
174 198 0
150 174 92
84 115 165
62 99 179
62 99 181
62 99 181
62 99 181
62 99 181
62 99 181
62 99 181
61 98 181
62 99 181
62 99 181
62 99 181
62 99 181
61 98 181
61 98 181
62 99 181
61 98 179
61 99 181
61 99 181
60 98 181
61 99 181
62 99 181
63 100 181
62 99 179
62 99 181
62 99 181
63 100 181
61 98 181
61 98 181
62 99 181
61 99 181
61 98 181
62 99 181
61 99 181
62 99 181
62 99 179
61 99 181
61 99 181
62 99 181
62 99 179
62 99 181
62 99 181
62 99 181
62 99 181
62 98 176
62 99 179
62 99 179
62 98 174
61 98 177
62 99 177
61 98 177
62 99 179
62 99 179
61 97 174
88 116 148
168 190 36
171 195 0
125 127 48
132 125 62
133 128 60
130 127 79
130 127 75
133 129 77
140 137 82
138 136 90
132 131 85
142 140 87
142 138 90
134 130 83
143 141 96
144 142 97
150 148 98
139 138 93
153 149 96
154 151 101
145 143 98
146 145 100
155 152 103
158 155 103
152 149 99
147 146 101
170 166 111
157 156 104
160 158 106
162 160 106
159 157 105
161 158 106
169 165 110
164 160 106
169 166 109
171 167 112
170 165 107
164 160 106
171 167 110
171 167 110
170 167 109
165 162 108
172 168 111
169 165 104
174 170 110
173 168 109
174 171 114
174 169 107
175 170 109
170 167 108
170 166 110
172 167 106
173 168 108
173 168 107
170 165 104
175 169 106
169 164 106
171 166 106
168 163 101
160 156 99
174 167 106
170 164 107
161 156 97
169 163 101
172 167 101
158 153 93
159 155 91
149 144 80
163 157 97
159 152 87
154 147 85
172 165 98
149 143 80
156 150 84
140 135 77
143 136 74
131 125 70
133 128 70
170 191 16
172 195 0
175 197 0
172 194 0
174 198 0
175 197 0
172 195 0
172 195 0
170 194 0
172 196 0
172 196 0
175 198 0
173 197 0
177 199 0
174 198 0
172 195 0
176 199 0
175 197 0
176 198 0
174 198 0
176 199 0
171 195 0
176 199 0
171 194 0
170 194 0
173 197 0
174 196 0
172 196 0
175 197 0
173 196 0
173 197 0
171 195 0
175 198 0
174 197 0
173 197 0
174 198 0
175 198 0
174 197 0
173 197 0
174 197 0
175 197 0
175 198 0
173 197 0
174 197 0
173 195 0
174 198 0
175 198 0
174 197 0
173 197 0
172 195 0
175 197 0
174 198 0
175 198 0
173 197 0
173 197 0
174 198 0
171 195 0
173 196 0
175 198 0
174 198 0
170 195 0
176 199 0
174 197 0
174 197 0
172 196 0
173 197 0
174 197 0
176 198 0
171 195 0
175 198 0
174 196 0
175 198 0
176 198 0
171 196 0
176 199 0
175 198 0
176 199 0
174 196 0
176 197 0
172 197 0
176 198 0
172 196 0
175 198 0
174 197 0
174 198 0
175 198 0
174 197 0
172 197 0
173 197 0
175 198 0
174 197 0
174 198 0
173 196 0
174 196 0
176 199 0
172 197 0
174 198 0
175 198 0
175 198 0
175 198 0
175 198 0
174 198 0
173 196 0
173 197 0
176 199 0
176 199 0
174 198 0
173 197 0
174 198 0
175 198 0
174 197 0
173 197 0
172 197 0
176 199 0
174 198 0
174 197 0
175 198 0
172 196 0
175 198 0
174 198 0
174 197 0
171 195 0
174 198 0
174 198 0
175 198 0
173 197 0
171 195 0
176 198 0
174 198 0
174 197 0
176 199 0
175 198 0
175 198 0
172 197 0
171 195 0
174 198 0
175 198 0
175 197 0
173 197 0
175 198 0
175 198 0
176 199 0
173 197 0
172 197 0
174 198 0
175 198 0
174 197 0
176 199 0
174 197 0
173 196 0
174 196 0
174 197 0
174 198 0
174 197 0
172 196 0
176 199 0
173 197 0
175 198 0
176 199 0
172 196 0
174 198 0
174 198 0
175 198 0
172 196 0
174 197 0
173 197 0
173 197 0
169 193 0
174 197 0
171 194 0
173 197 0
173 197 0
175 198 0
175 198 0
175 198 0
172 196 0
175 198 0
173 197 0
177 199 0
172 196 0
169 194 0
176 199 0
174 198 0
174 198 0
173 196 0
171 195 0
174 198 0
171 195 0
173 197 0
173 197 0
174 197 0
176 199 0
173 197 0
172 195 0
173 197 0
173 197 0
174 198 0
171 195 0
174 196 0
174 197 0
175 198 0
175 198 0
178 200 0
174 198 0
172 195 0
172 196 0
177 199 0
174 198 0
175 198 0
175 198 0
172 196 0
172 196 0
169 193 0
173 196 0
171 195 0
171 195 0
170 194 0
175 198 0
175 197 0
172 196 0
173 196 0
171 195 0
171 194 0
172 195 0
171 195 0
175 198 0
174 198 0
175 198 0
174 198 0
175 198 0
171 194 0
173 196 0
173 196 0
174 198 0
176 199 0
174 197 0
173 196 0
174 197 0
171 195 0
174 198 0
172 196 0
176 199 0
171 195 0
171 195 0
175 198 0
170 193 0
173 195 0
172 195 0
169 194 0
175 198 0
170 195 0
173 197 0
175 197 0
171 195 0
175 198 0
172 196 0
174 197 0
176 199 0
167 191 0
173 196 0
173 197 0
174 198 0
172 193 0
173 195 0
174 198 0
155 180 80
78 110 171
62 99 181
61 99 181
61 99 181
61 99 181
62 99 181
62 99 181
61 98 181
62 99 181
61 98 181
62 99 179
62 99 181
62 99 181
61 98 181
62 99 181
61 99 181
62 99 181
61 99 181
62 99 181
62 99 181
61 99 181
62 99 181
61 99 181
61 99 181
62 99 181
61 99 181
62 99 181
61 99 181
62 99 181
61 98 181
61 99 181
62 99 181
61 98 181
61 99 181
61 99 179
62 99 181
61 99 181
61 99 181
61 99 181
61 99 181
62 99 181
61 98 179
62 99 181
61 99 179
61 98 177
60 97 177
61 97 177
62 99 179
60 97 179
61 98 177
61 97 177
61 98 174
63 100 181
62 99 177
61 97 174
60 97 174
68 102 163
129 147 97
129 124 67
143 138 64
136 131 63
140 135 79
128 124 72
116 113 61
136 132 80
141 138 88
139 137 88
137 134 82
137 134 88
148 144 94
144 143 97
127 127 87
129 127 86
124 125 84
149 146 96
138 138 95
143 143 98
141 140 97
146 145 100
138 139 96
142 141 98
153 151 100
157 155 105
160 157 105
154 151 102
151 151 104
157 154 104
167 163 106
159 157 105
173 168 112
166 162 105
167 165 109
167 165 110
164 162 107
170 165 108
167 163 108
170 167 108
175 170 110
173 169 108
174 169 109
176 171 110
174 170 112
177 172 111
179 173 113
177 172 110
172 167 107
177 171 107
171 165 104
170 167 102
173 167 106
174 169 104
170 166 103
173 168 106
169 163 103
165 159 98
171 166 101
173 167 103
165 160 98
166 161 101
170 166 101
171 165 101
158 153 97
161 155 94
167 161 97
174 167 103
164 158 93
153 148 85
162 156 93
141 136 77
157 151 87
152 144 80
149 141 79
139 134 75
135 130 66
161 175 32
172 195 0
170 193 0
170 193 0
176 198 0
174 195 0
176 198 0
173 197 0
173 196 0
172 195 0
172 197 0
174 197 0
169 193 0
170 193 0
173 197 0
176 198 0
174 197 0
170 194 0
173 196 0
174 198 0
173 197 0
173 197 0
173 196 0
174 198 0
175 198 0
170 192 0
173 196 0
174 198 0
172 196 0
174 197 0
173 197 0
175 198 0
175 197 0
173 196 0
170 194 0
174 198 0
176 199 0
172 196 0
173 196 0
174 198 0
173 196 0
174 198 0
173 197 0
174 197 0
174 198 0
174 197 0
172 196 0
174 198 0
174 196 0
175 198 0
173 197 0
174 198 0
173 196 0
176 198 0
174 197 0
171 196 0
173 197 0
172 196 0
172 196 0
176 199 0
173 197 0
176 198 0
175 197 0
174 198 0
175 197 0
174 197 0
175 198 0
177 199 0
172 196 0
173 197 0
172 196 0
172 197 0
174 197 0
174 197 0
174 197 0
175 197 0
173 197 0
173 196 0
174 198 0
175 198 0
174 198 0
176 199 0
173 197 0
172 197 0
175 198 0
176 199 0
174 197 0
175 198 0
173 196 0
173 197 0
175 198 0
173 197 0
174 198 0
174 197 0
174 197 0
175 197 0
176 199 0
172 197 0
175 198 0
175 198 0
174 198 0
174 197 0
175 198 0
174 198 0
175 198 0
177 199 0
175 198 0
174 198 0
175 198 0
174 198 0
173 197 0
171 195 0
175 198 0
175 198 0
174 197 0
172 196 0
175 198 0
175 198 0
174 198 0
174 197 0
174 198 0
172 197 0
173 196 0
172 196 0
173 197 0
172 196 0
173 197 0
173 197 0
174 197 0
176 199 0
174 198 0
176 199 0
174 198 0
176 198 0
172 196 0
174 198 0
175 198 0
173 197 0
175 198 0
175 198 0
174 197 0
173 197 0
175 198 0
175 198 0
174 198 0
176 198 0
175 198 0
177 199 0
172 196 0
174 197 0
173 197 0
174 198 0
174 197 0
174 198 0
174 198 0
172 196 0
172 197 0
174 197 0
177 199 0
175 198 0
172 197 0
174 198 0
176 199 0
176 198 0
175 198 0
170 195 0
174 197 0
174 197 0
174 197 0
175 198 0
175 198 0
174 198 0
171 194 0
173 196 0
175 198 0
175 198 0
173 197 0
172 197 0
174 198 0
173 197 0
175 198 0
174 198 0
175 197 0
171 195 0
174 197 0
172 196 0
174 196 0
172 194 0
174 198 0
176 198 0
174 198 0
173 197 0
172 197 0
176 199 0
175 198 0
174 198 0
173 197 0
171 194 0
174 198 0
175 198 0
173 197 0
172 195 0
174 197 0
174 197 0
175 198 0
176 198 0
175 198 0
173 195 0
175 198 0
173 197 0
175 198 0
171 195 0
174 197 0
173 197 0
170 194 0
173 197 0
172 195 0
172 195 0
173 196 0
168 192 0
171 195 0
173 196 0
174 198 0
171 195 0
172 196 0
172 196 0
174 197 0
170 193 0
175 198 0
177 199 0
176 198 0
174 197 0
174 198 0
176 198 0
174 198 0
175 198 0
172 196 0
172 195 0
172 196 0
173 197 0
172 196 0
174 198 0
170 194 0
173 196 0
174 196 0
174 197 0
171 193 0
174 197 0
172 196 0
172 196 0
171 192 0
174 197 0
175 198 0
171 194 0
175 198 0
172 196 0
171 194 0
175 197 0
173 197 0
169 193 0
174 198 0
175 197 0
174 198 0
172 195 0
134 160 117
65 102 179
62 99 181
63 100 181
62 99 181
61 98 181
60 98 181
61 99 181
62 99 181
62 99 181
61 99 181
61 99 181
61 98 181
62 99 181
62 99 181
61 99 181
61 98 181
61 99 181
61 98 181
62 99 181
61 98 181
61 99 181
62 99 181
62 99 181
61 99 181
62 99 181
61 99 181
61 99 181
61 99 181
61 99 181
62 99 181
62 99 181
61 98 179
62 99 181
62 99 181
61 99 179
62 99 179
62 99 181
62 99 181
62 99 181
62 99 181
62 99 181
62 99 179
61 99 179
61 98 179
61 98 174
61 98 181
62 99 179
62 98 177
62 99 181
61 98 175
62 99 177
62 98 175
62 99 179
61 97 174
61 98 175
61 98 177
61 97 174
61 98 177
63 96 166
88 98 110
120 115 57
127 123 63
128 125 65
130 126 76
135 132 79
132 130 81
127 125 83
116 116 81
119 119 78
124 123 82
128 126 85
132 131 91
151 148 98
130 130 88
114 115 82
147 146 97
145 142 96
135 134 92
133 133 93
144 142 95
150 147 100
142 141 99
146 146 98
148 148 102
159 157 106
161 157 103
156 154 104
164 162 106
163 160 104
160 158 108
165 161 106
171 167 110
176 170 111
174 168 109
161 158 107
169 165 107
171 168 109
162 159 105
176 171 111
175 171 113
169 166 108
168 164 104
174 169 110
175 171 108
172 167 107
176 172 112
173 169 106
169 165 104
170 166 104
178 172 110
174 170 106
175 170 107
166 162 98
176 170 108
175 169 108
168 162 102
165 161 97
168 161 97
159 154 94
165 160 99
164 158 91
161 155 95
158 153 93
165 159 94
161 156 88
162 155 94
168 160 97
160 152 88
159 153 88
161 155 88
143 138 79
157 150 88
154 146 77
147 140 72
132 127 62
150 165 28
174 196 0
173 195 0
170 192 0
174 196 0
174 197 0
174 197 0
174 197 0
174 197 0
172 196 0
174 196 0
170 194 0
173 196 0
175 198 0
174 198 0
172 197 0
174 197 0
172 195 0
176 199 0
176 198 0
174 198 0
170 193 0
173 196 0
175 197 0
175 198 0
174 197 0
173 195 0
174 197 0
174 197 0
176 199 0
175 197 0
172 194 0
173 196 0
175 198 0
172 196 0
175 198 0
174 197 0
175 198 0
173 197 0
175 198 0
174 197 0
176 199 0
173 197 0
174 197 0
175 198 0
173 197 0
172 196 0
174 198 0
176 199 0
176 198 0
173 197 0
173 197 0
176 199 0
175 197 0
173 197 0
173 197 0
173 197 0
174 198 0
175 198 0
172 197 0
173 196 0
176 198 0
174 197 0
174 198 0
176 199 0
175 197 0
175 198 0
174 197 0
175 198 0
175 198 0
174 198 0
173 197 0
174 197 0
177 199 0
175 198 0
174 198 0
173 196 0
174 198 0
176 199 0
177 198 0
176 198 0
175 197 0
173 197 0
173 197 0
174 197 0
173 197 0
174 198 0
175 198 0
174 197 0
173 196 0
175 198 0
174 197 0
175 198 0
174 198 0
176 199 0
174 198 0
174 197 0
175 198 0
174 197 0
176 199 0
174 198 0
174 197 0
174 198 0
174 198 0
175 198 0
175 198 0
175 198 0
175 198 0
176 199 0
175 198 0
173 197 0
174 198 0
174 197 0
174 198 0
175 198 0
175 198 0
176 199 0
172 195 0
173 197 0
171 194 0
174 197 0
174 198 0
174 198 0
173 197 0
174 197 0
173 197 0
176 199 0
175 198 0
174 198 0
175 197 0
173 197 0
175 198 0
173 197 0
175 198 0
176 199 0
173 197 0
174 197 0
175 198 0
173 197 0
175 198 0
173 196 0
175 198 0
174 198 0
173 197 0
173 197 0
176 199 0
173 197 0
174 197 0
174 197 0
175 198 0
173 196 0
177 199 0
172 196 0
175 198 0
172 196 0
171 195 0
172 197 0
173 197 0
175 198 0
176 199 0
172 196 0
173 197 0
175 198 0
175 198 0
174 198 0
171 196 0
175 198 0
174 197 0
175 198 0
173 197 0
173 197 0
174 197 0
175 198 0
176 198 0
170 194 0
175 198 0
170 193 0
175 198 0
173 197 0
174 197 0
174 197 0
174 198 0
173 197 0
174 198 0
175 198 0
175 198 0
174 197 0
176 199 0
174 197 0
174 197 0
173 197 0
174 197 0
175 198 0
173 196 0
175 198 0
174 197 0
176 199 0
173 196 0
171 194 0
173 196 0
173 197 0
174 198 0
170 194 0
174 198 0
174 198 0
169 193 0
170 193 0
168 192 0
176 199 0
173 196 0
173 196 0
174 198 0
169 193 0
171 196 0
175 198 0
174 197 0
173 197 0
175 198 0
171 195 0
171 195 0
172 195 0
174 196 0
173 197 0
171 195 0
170 194 0
172 197 0
172 196 0
174 198 0
175 198 0
173 196 0
173 197 0
171 194 0
173 196 0
176 199 0
175 197 0
173 197 0
169 193 0
175 198 0
173 197 0
175 198 0
175 198 0
173 196 0
171 194 0
171 195 0
171 194 0
172 196 0
173 197 0
174 197 0
172 196 0
176 198 0
170 194 0
174 197 0
173 196 0
172 195 0
170 192 0
172 196 0
173 196 0
174 195 0
173 196 0
168 192 0
171 194 0
171 195 0
170 194 0
141 167 108
63 100 181
62 99 181
62 99 181
62 99 181
61 99 181
61 98 177
62 99 181
62 99 181
61 99 179
62 99 181
62 99 181
62 99 181
62 99 181
62 99 181
62 99 181
62 99 181
61 98 181
62 99 181
61 99 181
61 99 181
61 99 181
61 98 181
63 100 181
62 99 179
62 99 181
62 99 181
61 98 179
62 99 181
61 99 181
62 99 179
62 99 181
61 98 179
61 98 179
62 99 181
62 99 181
61 99 181
62 99 181
62 99 181
62 99 179
62 99 181
61 98 181
62 99 179
62 99 181
62 99 181
62 98 173
61 98 181
62 99 177
62 99 179
61 99 181
62 99 179
61 98 177
62 99 179
61 98 179
62 98 174
62 99 181
61 98 170
60 97 174
61 97 174
60 96 167
62 97 169
59 93 158
92 105 123
119 115 68
119 117 64
146 142 84
133 130 82
122 122 76
120 120 77
127 125 83
135 133 83
130 129 87
121 121 84
128 126 84
118 119 84
133 133 91
124 125 87
124 124 87
133 133 92
143 141 96
139 138 95
138 137 93
143 143 98
147 145 98
137 137 95
153 150 100
145 143 96
152 150 102
161 158 106
151 150 102
168 164 108
158 156 103
170 166 110
170 165 108
162 158 105
167 164 105
168 164 109
169 164 106
173 168 106
173 168 107
177 171 110
173 168 108
172 167 107
173 169 108
177 172 109
180 173 112
170 167 108
175 171 111
177 171 106
173 169 103
172 167 99
175 169 110
173 168 106
176 171 109
174 169 108
164 160 95
173 168 103
173 168 108
167 163 103
165 160 101
165 158 98
174 167 102
173 165 102
158 152 91
167 162 97
148 143 80
142 138 77
159 152 88
162 156 90
153 149 93
162 155 94
149 145 77
142 137 79
155 149 77
147 140 74
131 126 68
145 139 75
136 143 42
173 195 0
171 194 0
174 196 0
172 197 0
173 195 0
174 197 0
173 197 0
176 199 0
172 196 0
174 197 0
172 195 0
174 198 0
173 195 0
174 197 0
176 198 0
173 196 0
174 197 0
173 196 0
175 198 0
176 199 0
172 194 0
173 197 0
172 195 0
176 199 0
172 195 0
175 198 0
172 196 0
173 197 0
173 197 0
174 197 0
173 197 0
174 197 0
174 197 0
173 197 0
174 198 0
174 198 0
174 196 0
173 196 0
174 197 0
175 197 0
175 198 0
173 197 0
175 197 0
175 198 0
172 197 0
173 195 0
175 197 0
176 198 0
175 198 0
173 197 0
173 197 0
172 195 0
175 198 0
176 198 0
175 198 0
173 196 0
173 197 0
173 197 0
173 197 0
177 199 0
173 196 0
171 194 0
173 197 0
174 198 0
173 197 0
177 199 0
174 197 0
173 197 0
176 198 0
173 196 0
172 197 0
174 198 0
175 198 0
174 198 0
177 199 0
173 197 0
173 197 0
173 197 0
173 197 0
173 197 0
174 198 0
175 197 0
173 197 0
175 197 0
174 198 0
174 197 0
176 198 0
172 195 0
172 197 0
176 198 0
176 199 0
174 198 0
174 197 0
174 198 0
174 198 0
176 199 0
176 199 0
175 198 0
175 197 0
174 197 0
176 198 0
173 197 0
175 198 0
175 198 0
174 198 0
173 197 0
175 198 0
176 198 0
175 198 0
173 197 0
174 198 0
171 195 0
173 197 0
174 198 0
172 197 0
176 199 0
173 197 0
174 198 0
172 195 0
173 197 0
175 198 0
174 198 0
172 195 0
173 197 0
174 198 0
174 198 0
175 198 0
174 198 0
171 195 0
175 198 0
177 199 0
175 198 0
174 198 0
173 197 0
173 197 0
171 196 0
174 197 0
174 197 0
173 197 0
175 198 0
174 198 0
172 196 0
173 197 0
175 198 0
171 195 0
178 200 0
174 198 0
172 195 0
177 199 0
174 198 0
176 199 0
176 199 0
171 195 0
172 197 0
174 198 0
174 197 0
174 198 0
174 198 0
172 195 0
173 197 0
173 197 0
174 197 0
174 198 0
175 198 0
176 199 0
174 197 0
174 198 0
174 198 0
175 198 0
174 198 0
172 196 0
172 197 0
173 196 0
175 198 0
171 196 0
175 197 0
174 198 0
172 195 0
175 197 0
170 195 0
175 198 0
177 199 0
174 197 0
176 199 0
175 198 0
169 193 0
174 198 0
173 197 0
174 197 0
175 198 0
172 195 0
174 198 0
172 195 0
172 197 0
173 196 0
170 194 0
175 198 0
170 194 0
174 197 0
174 198 0
173 197 0
172 195 0
174 197 0
173 196 0
173 196 0
174 196 0
173 196 0
174 197 0
174 198 0
170 194 0
172 194 0
172 195 0
176 198 0
175 198 0
173 197 0
175 198 0
174 198 0
175 198 0
171 194 0
174 198 0
172 195 0
173 197 0
172 195 0
171 195 0
174 197 0
174 197 0
172 197 0
173 196 0
173 196 0
174 197 0
171 195 0
175 198 0
171 194 0
173 197 0
175 198 0
174 196 0
174 197 0
171 194 0
173 196 0
169 192 0
172 195 0
173 197 0
172 195 0
174 197 0
173 197 0
173 197 0
175 197 0
167 190 0
172 194 0
173 197 0
173 196 0
172 196 0
172 195 0
173 196 0
170 194 0
174 198 0
172 195 0
171 193 0
176 198 0
171 193 0
169 192 0
140 166 108
62 99 181
61 99 181
62 99 181
63 100 181
61 98 181
61 98 181
62 99 181
61 98 181
61 99 181
61 99 181
62 99 181
63 100 181
61 99 181
61 99 181
62 99 181
62 99 181
62 99 181
61 98 181
62 99 181
62 99 181
61 98 181
62 99 181
62 99 181
63 100 181
61 99 181
62 99 181
62 99 179
63 99 177
62 99 181
62 99 181
63 100 181
61 99 181
63 100 181
62 99 179
61 99 181
61 99 179
61 98 181
62 99 181
62 99 179
62 99 181
63 100 179
61 99 181
62 99 181
63 100 179
62 99 181
61 98 179
61 98 177
62 99 179
62 99 177
62 99 177
62 99 181
61 98 175
61 98 177
62 99 177
63 100 179
62 99 179
61 98 175
61 97 168
60 97 172
61 97 168
61 96 173
62 99 175
60 95 165
104 111 122
129 125 72
115 114 69
115 112 68
115 114 72
137 134 80
104 103 73
129 126 83
122 120 76
117 118 82
129 127 88
125 124 87
127 128 87
130 131 89
130 131 92
118 121 87
137 136 94
144 143 98
143 142 95
142 141 98
150 149 103
142 143 100
146 145 99
157 155 99
155 153 104
151 149 97
155 153 100
160 157 104
158 156 105
159 157 101
161 157 102
159 155 103
166 163 106
172 168 110
169 165 107
172 167 109
176 171 108
174 170 110
177 170 108
176 171 108
174 169 103
176 171 110
176 171 110
174 169 103
170 166 104
175 169 104
168 163 99
177 171 107
174 168 104
172 165 103
171 166 102
166 163 102
171 165 97
166 162 97
172 167 106
165 160 99
166 162 97
161 156 94
168 164 101
162 157 88
162 156 94
158 153 94
158 153 88
150 146 84
158 153 82
151 146 82
159 152 85
152 147 82
147 142 80
148 142 77
140 134 79
150 143 77
143 136 75
131 126 62
136 138 56
172 195 0
172 195 0
173 197 0
176 199 0
174 197 0
174 197 0
173 196 0
171 195 0
173 195 0
171 193 0
169 191 0
172 194 0
172 196 0
175 198 0
173 196 0
173 195 0
173 196 0
174 198 0
174 197 0
173 196 0
173 196 0
173 197 0
172 196 0
176 199 0
174 197 0
174 198 0
175 197 0
173 197 0
176 198 0
175 198 0
175 198 0
174 198 0
170 193 0
173 197 0
174 197 0
173 197 0
175 198 0
175 197 0
174 198 0
173 197 0
175 198 0
171 196 0
175 198 0
174 197 0
172 195 0
176 199 0
174 198 0
175 198 0
175 198 0
174 197 0
174 197 0
174 197 0
173 197 0
174 197 0
174 198 0
175 198 0
172 197 0
174 198 0
174 196 0
173 197 0
175 198 0
174 198 0
175 197 0
176 199 0
175 197 0
176 198 0
177 199 0
174 198 0
175 198 0
172 197 0
174 197 0
175 198 0
177 199 0
175 198 0
175 198 0
176 197 0
173 196 0
175 197 0
176 199 0
170 194 0
176 199 0
172 197 0
177 199 0
173 197 0
174 198 0
174 197 0
175 198 0
174 198 0
172 196 0
173 197 0
174 198 0
174 198 0
173 197 0
175 198 0
173 196 0
176 198 0
175 198 0
173 197 0
175 198 0
176 199 0
173 197 0
174 198 0
174 198 0
172 197 0
173 196 0
176 199 0
174 197 0
174 197 0
176 199 0
173 197 0
171 196 0
177 199 0
175 198 0
177 199 0
174 198 0
173 197 0
174 198 0
174 198 0
172 197 0
176 199 0
172 197 0
174 197 0
174 198 0
176 199 0
176 199 0
173 197 0
177 199 0
175 198 0
175 198 0
175 198 0
174 196 0
173 197 0
174 197 0
176 198 0
173 197 0
177 199 0
173 197 0
174 197 0
177 199 0
176 198 0
175 198 0
173 197 0
177 199 0
177 199 0
175 198 0
176 199 0
173 197 0
175 197 0
172 196 0
176 199 0
174 198 0
172 196 0
173 196 0
172 197 0
174 198 0
176 198 0
176 199 0
172 195 0
174 197 0
174 198 0
172 196 0
172 196 0
173 196 0
176 199 0
174 196 0
174 197 0
176 199 0
175 198 0
174 198 0
174 197 0
174 197 0
169 193 0
174 197 0
176 199 0
172 195 0
174 198 0
174 198 0
173 197 0
173 197 0
175 198 0
174 197 0
174 198 0
172 195 0
172 196 0
172 197 0
177 198 0
173 197 0
176 199 0
175 198 0
173 197 0
175 197 0
173 195 0
167 192 0
173 196 0
173 196 0
175 198 0
175 198 0
174 198 0
172 195 0
175 198 0
172 197 0
172 196 0
170 194 0
173 197 0
174 197 0
176 199 0
174 198 0
172 195 0
174 198 0
171 194 0
175 198 0
172 197 0
173 196 0
171 195 0
173 197 0
174 198 0
174 197 0
173 196 0
169 193 0
174 198 0
171 195 0
174 198 0
173 196 0
170 193 0
174 197 0
172 196 0
174 197 0
174 198 0
172 196 0
173 196 0
171 196 0
175 198 0
171 194 0
172 195 0
171 194 0
175 198 0
172 196 0
171 194 0
171 194 0
176 198 0
174 197 0
175 197 0
177 199 0
172 194 0
167 191 0
172 195 0
171 196 0
174 197 0
172 195 0
172 195 0
170 193 0
171 195 0
171 194 0
168 191 0
170 194 0
172 195 0
173 197 0
173 197 0
169 192 0
173 197 0
153 178 84
67 102 177
62 99 181
62 99 181
62 99 179
62 99 179
62 99 181
61 98 181
62 99 181
62 99 181
62 99 181
62 99 181
62 99 181
61 98 180
61 98 181
61 98 181
61 98 181
61 98 180
61 99 181
62 99 181
62 99 181
62 99 177
61 98 177
62 99 181
62 99 181
61 98 179
62 99 181
62 99 181
61 98 177
61 99 179
62 99 179
63 100 181
62 99 179
61 99 181
62 99 179
61 99 181
62 99 179
62 99 181
62 99 181
61 98 181
61 98 179
62 99 179
61 99 181
61 99 177
62 99 179
62 99 179
62 99 177
63 100 181
62 99 181
62 99 177
63 100 179
62 99 179
61 98 179
62 99 181
63 100 179
62 98 173
62 98 174
61 99 177
61 97 175
61 98 179
62 99 179
61 98 169
61 98 177
61 95 160
61 97 172
59 94 166
110 114 105
123 121 70
132 129 74
116 115 73
127 126 78
108 108 71
121 121 79
121 120 78
110 111 78
117 118 83
106 108 77
133 131 85
133 133 91
136 135 93
120 121 84
128 127 87
132 131 89
146 145 96
141 140 96
146 144 99
136 137 93
142 142 95
136 136 94
156 155 105
168 163 103
163 159 104
155 153 100
151 149 100
164 160 104
164 160 104
173 169 109
164 160 105
163 160 101
170 166 105
174 169 107
169 165 102
171 167 106
170 166 105
176 170 108
175 171 109
174 169 109
174 170 108
174 169 104
177 171 108
175 169 104
177 172 110
171 167 103
176 171 106
178 172 106
169 165 103
176 170 106
162 157 97
176 170 109
168 163 101
165 160 98
167 162 102
168 164 97
168 162 98
161 156 87
165 160 95
156 149 90
172 165 99
168 161 97
154 148 88
165 158 91
161 156 88
157 151 88
161 155 91
146 141 79
153 147 74
152 146 82
147 140 79
145 139 68
141 142 58
173 196 0
173 196 0
172 196 0
173 196 0
175 198 0
172 196 0
175 197 0
174 197 0
176 198 0
173 196 0
174 197 0
173 196 0
173 197 0
172 196 0
170 192 0
175 198 0
175 198 0
173 196 0
172 195 0
175 197 0
173 195 0
171 194 0
173 197 0
173 196 0
175 198 0
173 197 0
174 198 0
174 197 0
169 192 0
174 196 0
176 198 0
173 196 0
175 198 0
174 197 0
173 197 0
171 193 0
172 196 0
171 195 0
175 197 0
177 199 0
174 198 0
176 199 0
173 196 0
171 194 0
173 197 0
174 197 0
175 198 0
176 198 0
177 199 0
175 198 0
175 196 0
174 197 0
174 197 0
175 198 0
173 197 0
177 199 0
176 198 0
176 199 0
175 198 0
175 198 0
174 196 0
173 196 0
175 198 0
175 198 0
174 197 0
171 195 0
175 198 0
174 197 0
172 196 0
175 198 0
174 197 0
174 198 0
173 197 0
173 197 0
174 197 0
177 199 0
174 198 0
175 198 0
174 198 0
176 198 0
174 198 0
173 196 0
172 197 0
173 197 0
174 197 0
177 199 0
174 198 0
174 198 0
173 197 0
173 197 0
174 198 0
173 196 0
175 198 0
173 196 0
175 198 0
172 197 0
174 197 0
173 197 0
173 197 0
172 196 0
175 198 0
173 197 0
172 197 0
174 197 0
172 197 0
174 198 0
174 198 0
176 199 0
174 198 0
173 197 0
176 199 0
175 198 0
178 200 0
172 196 0
173 197 0
173 196 0
173 197 0
175 198 0
173 197 0
173 197 0
173 196 0
173 197 0
175 198 0
174 198 0
174 198 0
175 197 0
172 196 0
174 198 0
174 198 0
176 199 0
173 197 0
174 198 0
174 198 0
173 197 0
175 198 0
173 197 0
171 195 0
172 197 0
178 199 0
173 197 0
175 198 0
172 196 0
172 196 0
174 198 0
177 199 0
175 198 0
174 198 0
175 198 0
172 197 0
171 195 0
174 197 0
174 197 0
174 197 0
174 198 0
171 195 0
175 198 0
173 195 0
173 196 0
176 198 0
174 198 0
173 197 0
172 195 0
174 197 0
175 198 0
175 198 0
175 198 0
175 197 0
174 197 0
174 197 0
176 199 0
174 198 0
173 197 0
176 199 0
174 198 0
174 198 0
172 196 0
175 198 0
172 195 0
173 197 0
175 198 0
174 198 0
173 197 0
176 198 0
175 198 0
173 197 0
171 193 0
174 197 0
175 198 0
174 198 0
173 197 0
175 198 0
175 198 0
171 194 0
175 198 0
175 198 0
173 197 0
176 199 0
175 198 0
170 194 0
172 195 0
174 196 0
170 193 0
171 195 0
173 197 0
173 196 0
173 195 0
173 197 0
172 196 0
174 198 0
172 196 0
173 196 0
174 196 0
174 198 0
173 196 0
173 197 0
175 197 0
168 193 0
172 197 0
169 193 0
171 196 0
173 196 0
171 194 0
171 194 0
172 195 0
172 195 0
168 192 0
173 197 0
170 194 0
169 193 0
171 195 0
167 190 0
172 195 0
173 196 0
174 198 0
171 195 0
170 193 0
170 194 0
171 195 0
174 198 0
172 196 0
174 197 0
171 195 0
172 195 0
174 197 0
171 195 0
174 198 0
173 196 0
172 195 0
173 196 0
172 195 0
174 198 0
170 192 0
170 195 0
174 197 0
173 196 0
170 194 0
168 192 0
170 194 0
176 198 0
159 183 76
75 108 173
63 100 181
62 99 181
62 99 181
62 99 181
61 99 181
62 99 179
62 99 179
62 99 181
62 99 181
62 99 177
63 100 181
61 99 179
62 99 181
62 99 181
62 99 181
62 99 177
62 99 181
61 98 181
62 99 181
62 99 179
62 99 181
62 99 181
62 99 179
60 97 175
62 99 181
62 99 181
62 99 179
62 99 181
62 99 181
61 99 181
62 99 179
62 99 179
62 99 181
61 99 181
62 99 181
62 99 175
62 99 181
62 99 179
62 99 181
62 99 179
61 98 173
61 99 181
61 98 175
62 99 181
62 99 181
62 99 179
62 99 179
62 99 181
62 99 181
62 99 179
62 98 175
63 100 181
62 98 173
62 99 181
63 100 181
62 98 177
61 98 175
62 98 173
61 98 175
62 99 177
62 98 174
62 98 174
62 98 172
61 96 166
61 97 172
65 96 159
113 118 103
129 127 75
106 105 65
111 111 73
123 122 84
117 117 82
103 106 73
125 124 80
116 117 82
124 126 88
120 120 85
107 111 80
130 131 92
134 133 91
122 124 87
128 129 92
119 121 86
145 143 96
128 129 91
130 131 90
152 151 100
154 152 100
144 144 97
150 150 99
160 156 104
157 155 99
167 162 106
164 161 105
158 157 101
169 165 108
164 161 102
171 167 106
173 168 108
177 172 113
171 166 108
171 167 108
174 170 108
174 169 107
178 172 107
174 170 109
174 169 105
177 171 108
173 169 104
175 170 110
173 168 104
175 169 106
173 167 109
174 169 106
174 168 103
179 172 107
169 165 101
172 167 106
173 166 101
171 165 101
170 163 99
161 157 88
168 161 101
162 157 97
166 160 94
160 156 88
156 150 88
164 158 94
163 156 90
164 158 90
166 159 91
149 143 77
149 144 82
156 149 84
153 147 80
135 130 64
145 140 79
141 135 68
142 135 64
174 197 0
170 193 0
173 194 0
176 197 0
172 195 0
173 194 0
174 196 0
171 194 0
173 197 0
173 196 0
171 194 0
173 196 0
172 195 0
175 197 0
171 195 0
175 197 0
174 198 0
174 197 0
175 197 0
173 196 0
172 196 0
174 197 0
174 197 0
174 196 0
175 198 0
172 195 0
173 197 0
173 197 0
173 195 0
174 198 0
175 197 0
173 196 0
174 197 0
174 196 0
172 195 0
173 196 0
176 199 0
172 195 0
172 195 0
173 196 0
173 197 0
176 199 0
175 198 0
176 199 0
174 198 0
172 196 0
172 196 0
174 197 0
174 197 0
174 198 0
175 197 0
174 198 0
173 197 0
175 198 0
173 197 0
173 197 0
176 199 0
174 198 0
173 196 0
176 199 0
176 198 0
176 198 0
175 197 0
173 196 0
176 199 0
175 198 0
176 199 0
173 195 0
172 196 0
172 196 0
175 198 0
173 197 0
173 197 0
175 197 0
175 197 0
174 197 0
177 199 0
172 196 0
171 195 0
173 197 0
174 198 0
173 195 0
176 198 0
173 197 0
175 198 0
177 199 0
174 198 0
173 197 0
174 198 0
172 196 0
174 198 0
174 197 0
173 196 0
174 198 0
175 198 0
175 198 0
174 197 0
175 198 0
174 198 0
175 198 0
173 197 0
176 199 0
172 196 0
174 198 0
175 198 0
172 196 0
174 198 0
174 197 0
173 196 0
169 193 0
175 198 0
175 198 0
174 198 0
175 198 0
175 198 0
174 197 0
174 198 0
171 195 0
173 197 0
171 195 0
175 198 0
174 198 0
175 198 0
172 197 0
174 197 0
174 198 0
173 197 0
175 198 0
176 199 0
172 195 0
174 198 0
173 197 0
172 196 0
173 197 0
178 200 0
173 197 0
173 197 0
176 199 0
173 196 0
174 197 0
173 197 0
176 198 0
175 198 0
175 198 0
175 198 0
174 198 0
172 196 0
172 196 0
173 197 0
174 198 0
174 198 0
174 198 0
174 197 0
173 196 0
174 198 0
173 197 0
173 197 0
174 198 0
176 199 0
174 197 0
175 198 0
173 196 0
175 197 0
173 197 0
174 198 0
172 195 0
175 197 0
172 196 0
175 197 0
173 197 0
174 196 0
174 197 0
173 196 0
174 198 0
172 195 0
175 198 0
172 196 0
173 197 0
172 196 0
177 199 0
176 198 0
174 198 0
171 195 0
174 198 0
173 197 0
176 198 0
173 196 0
172 197 0
173 196 0
174 197 0
172 195 0
177 199 0
174 198 0
176 198 0
173 197 0
174 198 0
174 198 0
170 194 0
175 198 0
175 198 0
172 194 0
171 193 0
173 197 0
173 197 0
171 195 0
174 197 0
173 197 0
173 196 0
172 196 0
174 198 0
172 196 0
175 198 0
174 197 0
174 198 0
173 195 0
174 198 0
173 196 0
175 197 0
172 196 0
175 198 0
172 197 0
173 196 0
172 195 0
172 196 0
175 198 0
175 198 0
172 195 0
173 196 0
173 195 0
174 198 0
175 197 0
169 192 0
172 194 0
170 195 0
174 197 0
171 195 0
170 193 0
172 196 0
172 195 0
172 195 0
175 198 0
174 197 0
171 195 0
174 197 0
168 192 0
172 196 0
169 193 0
171 195 0
172 195 0
174 197 0
172 195 0
174 197 0
174 198 0
173 197 0
175 197 0
170 194 0
170 193 0
173 196 0
164 188 57
93 123 163
63 100 181
62 99 181
62 100 181
62 99 179
61 98 181
62 99 181
61 99 181
62 99 181
62 99 181
61 98 179
62 99 179
62 99 181
62 99 181
61 99 179
62 99 181
62 99 181
62 99 181
62 99 181
60 98 177
62 99 181
62 99 181
61 99 179
60 98 181
62 99 181
62 99 179
62 99 181
62 99 181
62 99 181
62 99 181
62 99 181
62 99 181
62 99 179
62 99 177
63 100 181
62 99 179
62 99 179
62 99 181
62 99 179
62 99 181
62 99 181
61 98 181
61 98 177
62 99 177
61 99 181
63 100 179
62 99 181
63 100 181
62 99 177
62 99 177
63 100 181
63 100 181
62 99 181
61 98 179
62 99 179
62 99 177
62 99 177
62 99 177
62 98 170
61 96 172
61 98 173
61 98 177
61 98 174
62 99 177
61 97 167
61 97 164
61 96 170
62 97 171
75 100 155
106 107 80
138 135 86
103 104 69
125 122 79
106 107 73
108 107 71
123 124 86
111 113 81
102 103 75
105 107 79
135 133 90
121 122 83
116 117 83
129 128 89
129 129 87
134 132 89
140 139 93
137 135 89
149 149 102
149 146 99
145 144 94
138 138 93
157 154 101
157 153 99
169 164 106
162 159 106
164 159 104
161 156 103
152 150 91
176 170 107
169 164 102
167 162 101
169 165 102
173 168 108
176 171 111
173 168 106
170 166 99
174 169 108
176 170 106
173 168 103
174 167 97
170 165 102
178 171 104
178 171 106
177 171 106
174 167 101
164 159 94
176 171 106
175 169 104
170 164 98
166 161 97
176 170 103
171 165 91
165 160 98
162 156 91
158 153 88
170 164 95
161 155 90
153 149 85
165 159 97
158 153 85
164 158 93
159 152 82
156 151 84
142 138 68
155 150 84
155 147 84
153 146 82
143 137 68
126 121 66
133 129 58
121 117 56
173 196 0
171 194 0
171 195 0
174 197 0
174 197 0
175 197 0
172 196 0
173 196 0
172 192 0
173 196 0
174 197 0
174 197 0
173 197 0
172 195 0
172 195 0
172 194 0
172 196 0
177 199 0
172 195 0
174 197 0
170 196 0
174 197 0
173 195 0
173 197 0
174 198 0
171 194 0
174 197 0
172 196 0
173 196 0
175 198 0
176 199 0
172 195 0
173 197 0
173 196 0
173 197 0
175 198 0
172 196 0
174 197 0
174 197 0
174 197 0
172 195 0
172 195 0
176 198 0
174 197 0
173 196 0
173 197 0
173 197 0
173 197 0
172 196 0
170 195 0
177 198 0
176 198 0
174 196 0
174 198 0
174 197 0
175 197 0
173 196 0
173 196 0
173 196 0
174 197 0
177 199 0
174 197 0
176 199 0
173 197 0
174 198 0
174 196 0
174 198 0
175 197 0
175 198 0
175 198 0
173 197 0
175 198 0
177 199 0
173 197 0
174 197 0
172 195 0
174 198 0
174 197 0
174 198 0
175 198 0
175 197 0
174 197 0
174 198 0
175 198 0
174 197 0
172 196 0
174 196 0
175 198 0
177 199 0
177 199 0
175 198 0
174 198 0
174 198 0
174 197 0
175 198 0
176 198 0
174 198 0
177 199 0
174 198 0
173 197 0
173 197 0
175 197 0
175 198 0
176 199 0
175 198 0
173 197 0
174 198 0
175 198 0
173 197 0
173 196 0
174 198 0
174 198 0
173 197 0
173 197 0
174 197 0
173 197 0
177 199 0
176 198 0
174 197 0
178 200 0
175 198 0
175 197 0
176 198 0
175 198 0
173 197 0
173 197 0
174 197 0
175 198 0
174 198 0
174 198 0
173 197 0
175 198 0
174 197 0
175 197 0
176 199 0
175 198 0
172 196 0
173 197 0
170 193 0
177 199 0
175 198 0
172 197 0
172 195 0
173 196 0
173 197 0
173 197 0
174 198 0
173 196 0
176 199 0
172 197 0
175 198 0
173 197 0
174 197 0
174 198 0
173 196 0
175 198 0
174 197 0
173 197 0
175 198 0
170 193 0
172 195 0
173 196 0
175 198 0
172 196 0
173 196 0
175 198 0
175 198 0
172 196 0
176 198 0
174 198 0
172 196 0
173 197 0
174 198 0
175 198 0
176 199 0
176 198 0
175 198 0
174 198 0
176 199 0
175 198 0
170 195 0
171 195 0
173 196 0
171 195 0
172 196 0
173 196 0
174 198 0
173 197 0
176 198 0
174 198 0
175 198 0
175 198 0
174 197 0
171 195 0
171 195 0
174 197 0
169 193 0
173 196 0
174 197 0
176 198 0
175 198 0
173 196 0
173 196 0
173 196 0
175 197 0
171 195 0
171 194 0
172 195 0
172 195 0
172 195 0
173 197 0
172 195 0
175 198 0
173 195 0
172 195 0
173 196 0
173 197 0
172 195 0
174 196 0
173 197 0
172 196 0
174 198 0
174 197 0
172 196 0
176 199 0
172 195 0
168 191 0
174 198 0
173 196 0
171 195 0
172 195 0
172 196 0
175 197 0
173 197 0
169 194 0
172 196 0
170 193 0
173 196 0
172 196 0
173 195 0
173 196 0
173 196 0
172 195 0
171 194 0
171 193 0
171 195 0
174 197 0
173 197 0
168 192 0
171 195 0
173 197 0
171 194 0
174 197 0
172 196 0
170 193 0
172 195 0
172 194 0
171 194 0
102 130 155
62 99 177
63 100 181
62 99 181
62 99 179
61 98 181
62 99 179
63 100 181
61 99 181
62 99 181
61 99 181
62 99 181
62 99 181
62 99 181
62 99 181
61 98 181
61 98 181
61 99 181
63 100 181
61 98 179
62 99 181
61 99 181
62 99 181
61 99 179
61 99 181
61 98 181
62 99 179
62 99 179
63 100 181
61 98 175
61 99 181
61 99 181
63 100 181
61 99 181
62 98 173
62 99 179
63 100 179
61 99 181
62 99 181
62 99 179
62 99 181
61 98 179
62 99 179
61 98 177
61 98 179
62 99 181
62 99 181
61 99 181
62 99 181
62 100 181
63 100 179
62 99 175
63 100 181
63 100 179
61 98 179
62 99 177
61 98 173
62 99 177
62 99 169
62 99 179
61 97 175
61 98 174
63 99 174
63 100 181
62 99 173
63 99 174
62 99 167
61 97 169
61 96 170
62 98 172
65 90 139
94 94 58
112 111 64
99 99 69
86 88 57
106 108 75
110 112 79
114 114 80
111 113 81
110 112 80
113 114 80
131 130 90
119 119 79
111 113 77
115 116 78
131 131 90
150 148 95
142 140 93
154 152 103
145 143 94
148 147 100
152 150 97
141 139 94
153 151 100
161 158 101
164 160 103
165 161 102
167 162 102
173 168 109
173 168 106
168 164 101
170 165 106
159 155 96
171 166 98
176 171 110
168 164 101
169 165 97
172 167 106
174 168 107
175 169 102
173 168 103
174 168 101
172 166 99
175 169 98
179 172 109
173 167 98
172 166 101
162 158 95
167 163 93
173 166 99
172 166 98
173 167 101
167 161 94
170 162 98
169 163 97
171 164 97
164 159 93
167 162 94
162 155 91
163 156 88
163 157 91
159 153 94
148 143 84
156 151 84
150 145 74
149 145 77
146 141 77
156 150 72
156 148 80
138 132 68
135 129 66
137 132 62
170 193 0
167 189 0
171 193 0
170 194 0
176 198 0
171 195 0
174 195 0
172 195 0
172 197 0
175 196 0
176 197 0
172 195 0
174 198 0
174 196 0
174 195 0
172 192 0
174 198 0
174 197 0
173 197 0
174 197 0
175 198 0
174 197 0
176 198 0
173 197 0
174 196 0
173 196 0
174 196 0
172 196 0
174 196 0
173 197 0
174 197 0
174 197 0
173 196 0
173 196 0
174 197 0
174 197 0
174 196 0
176 199 0
174 197 0
174 198 0
173 197 0
175 198 0
172 195 0
176 199 0
171 196 0
172 196 0
175 198 0
172 196 0
173 197 0
175 198 0
174 198 0
174 197 0
175 198 0
171 196 0
174 197 0
174 197 0
173 196 0
174 196 0
172 196 0
175 198 0
173 196 0
173 197 0
174 195 0
173 196 0
175 198 0
175 198 0
174 197 0
173 197 0
174 198 0
173 197 0
172 195 0
175 198 0
176 198 0
174 196 0
173 196 0
174 197 0
174 197 0
177 199 0
173 197 0
176 199 0
175 198 0
172 197 0
176 198 0
174 198 0
173 197 0
176 198 0
174 198 0
176 198 0
175 198 0
177 199 0
175 198 0
175 198 0
172 196 0
174 198 0
173 196 0
177 198 0
174 197 0
175 198 0
175 198 0
175 198 0
172 197 0
173 197 0
173 197 0
174 197 0
174 197 0
173 197 0
174 198 0
175 198 0
174 198 0
175 198 0
172 197 0
173 197 0
175 198 0
175 198 0
176 198 0
174 196 0
172 197 0
174 197 0
173 197 0
175 198 0
174 198 0
174 197 0
175 198 0
176 198 0
173 197 0
172 197 0
174 198 0
173 197 0
173 197 0
175 198 0
175 198 0
171 196 0
173 197 0
173 197 0
174 198 0
174 198 0
175 198 0
176 199 0
175 198 0
174 198 0
171 195 0
171 195 0
173 197 0
173 197 0
172 196 0
173 197 0
173 196 0
177 198 0
174 198 0
175 198 0
177 199 0
176 199 0
174 197 0
173 196 0
173 197 0
173 197 0
173 197 0
175 198 0
175 198 0
175 198 0
172 195 0
176 198 0
173 196 0
173 197 0
175 198 0
173 196 0
175 198 0
177 199 0
174 198 0
175 198 0
171 195 0
174 197 0
172 195 0
172 196 0
170 194 0
173 196 0
174 197 0
175 198 0
174 198 0
175 198 0
174 197 0
172 196 0
174 198 0
175 198 0
175 198 0
175 197 0
172 196 0
176 198 0
176 198 0
173 197 0
172 196 0
173 197 0
168 191 0
176 199 0
173 195 0
172 195 0
175 198 0
177 199 0
173 197 0
172 196 0
176 199 0
176 198 0
174 198 0
171 194 0
174 198 0
173 197 0
173 196 0
175 198 0
173 196 0
173 196 0
172 196 0
172 195 0
174 197 0
175 198 0
170 194 0
175 198 0
175 198 0
173 196 0
174 197 0
168 191 0
173 197 0
168 192 0
168 192 0
172 196 0
175 198 0
173 196 0
171 195 0
175 198 0
170 194 0
172 195 0
172 196 0
174 197 0
174 198 0
173 196 0
174 197 0
172 196 0
173 197 0
169 193 0
169 193 0
169 194 0
174 197 0
175 198 0
173 196 0
172 196 0
170 194 0
172 196 0
174 197 0
173 195 0
169 192 0
176 199 0
173 196 0
174 198 0
175 198 0
174 197 0
172 196 0
172 195 0
172 195 0
149 173 99
62 99 179
62 99 181
61 98 179
62 99 181
62 99 181
61 99 181
62 99 181
62 99 181
62 99 181
61 99 181
62 99 179
61 99 181
61 99 181
61 99 179
62 99 181
62 99 179
61 98 179
62 99 181
62 99 180
62 99 181
62 99 179
63 100 181
62 99 179
62 99 181
62 99 179
62 99 181
62 99 181
61 98 181
62 99 181
63 99 177
62 99 177
62 99 179
62 99 179
62 99 177
63 100 181
61 99 181
62 99 179
62 99 179
63 100 177
63 100 179
62 99 181
62 99 177
62 99 177
62 99 179
62 99 177
62 99 181
62 99 179
62 99 175
62 99 177
61 98 177
61 98 175
63 100 181
63 99 177
62 99 181
62 99 175
63 100 181
61 98 175
62 99 179
62 99 179
62 99 177
62 99 175
62 99 175
63 99 174
63 99 179
62 98 174
62 99 177
60 96 164
60 96 171
60 95 167
62 99 175
59 95 166
93 101 104
109 107 67
98 100 62
104 104 71
108 107 70
73 78 59
94 97 69
114 116 79
101 105 76
114 115 80
101 105 77
114 116 80
107 109 73
107 109 79
134 134 90
136 135 95
147 144 96
145 143 91
151 148 98
145 143 93
155 151 100
153 150 94
152 149 94
151 149 99
157 153 100
159 155 101
153 150 93
161 158 100
170 164 101
165 161 99
169 165 108
172 167 103
176 170 108
174 169 106
173 168 105
175 169 104
176 170 104
172 168 103
168 163 103
180 173 112
177 171 110
175 169 106
176 170 101
178 172 106
176 170 103
171 165 97
168 163 99
173 167 98
168 164 95
161 156 90
166 159 94
174 167 101
169 162 97
168 161 97
165 158 85
160 154 80
172 164 99
173 165 97
158 151 90
153 147 80
163 157 87
160 155 90
155 149 85
156 151 75
143 138 64
141 136 68
146 139 80
154 148 80
146 141 64
135 131 64
135 129 56
170 192 16
173 196 0
173 194 0
172 193 0
173 196 0
171 196 0
173 196 0
170 195 0
174 198 0
173 197 0
174 195 0
177 199 0
174 196 0
171 195 0
173 195 0
173 197 0
173 197 0
172 195 0
174 198 0
173 197 0
174 196 0
176 198 0
174 196 0
172 195 0
174 196 0
172 195 0
171 194 0
174 196 0
173 197 0
173 195 0
174 197 0
174 197 0
174 197 0
174 197 0
173 197 0
175 198 0
174 197 0
174 198 0
176 198 0
173 197 0
170 194 0
172 196 0
172 196 0
174 198 0
176 198 0
176 198 0
174 197 0
175 198 0
173 197 0
174 198 0
175 197 0
173 196 0
173 197 0
173 195 0
174 198 0
173 196 0
171 194 0
175 198 0
173 196 0
171 196 0
176 199 0
174 195 0
173 197 0
174 198 0
173 197 0
175 197 0
174 198 0
175 197 0
174 196 0
174 198 0
173 196 0
175 197 0
173 196 0
177 199 0
177 199 0
171 196 0
173 197 0
175 198 0
173 197 0
174 197 0
177 199 0
175 197 0
173 196 0
175 198 0
176 199 0
174 197 0
175 198 0
174 198 0
173 197 0
175 198 0
173 197 0
175 198 0
173 197 0
175 198 0
176 199 0
175 198 0
176 198 0
176 198 0
177 199 0
176 199 0
176 198 0
173 197 0
176 199 0
176 199 0
175 198 0
175 198 0
174 198 0
176 199 0
172 196 0
175 198 0
176 199 0
174 198 0
174 197 0
174 198 0
176 198 0
175 198 0
175 198 0
175 198 0
174 198 0
177 199 0
174 198 0
172 197 0
175 198 0
174 198 0
174 198 0
172 196 0
173 197 0
174 198 0
174 198 0
175 198 0
173 197 0
174 197 0
174 198 0
173 197 0
177 199 0
170 194 0
173 197 0
171 195 0
173 197 0
174 198 0
173 197 0
173 197 0
172 196 0
173 197 0
173 197 0
174 198 0
171 195 0
176 199 0
175 198 0
174 197 0
174 197 0
174 198 0
175 198 0
175 198 0
176 198 0
173 197 0
174 198 0
176 198 0
174 198 0
176 199 0
173 196 0
176 199 0
173 197 0
171 195 0
175 198 0
172 196 0
172 195 0
172 197 0
173 196 0
172 197 0
174 198 0
173 197 0
172 196 0
173 197 0
177 199 0
174 197 0
173 197 0
170 195 0
175 197 0
177 199 0
174 197 0
175 198 0
173 196 0
172 196 0
176 197 0
172 197 0
174 197 0
174 197 0
174 197 0
173 196 0
172 195 0
172 195 0
172 196 0
174 198 0
176 199 0
176 198 0
173 196 0
175 198 0
170 195 0
173 196 0
172 196 0
172 196 0
173 197 0
173 197 0
170 194 0
174 197 0
174 197 0
174 197 0
174 198 0
174 197 0
168 192 0
173 197 0
173 197 0
174 197 0
174 198 0
171 194 0
172 197 0
170 193 0
169 194 0
175 198 0
167 191 0
174 197 0
174 198 0
173 196 0
172 196 0
167 191 0
170 193 0
172 196 0
170 194 0
172 195 0
171 195 0
172 195 0
170 193 0
173 197 0
172 195 0
172 196 0
176 199 0
174 197 0
171 194 0
172 195 0
171 195 0
175 198 0
173 196 0
172 196 0
169 192 0
174 198 0
174 198 0
173 195 0
175 198 0
172 195 0
173 196 0
171 196 0
168 192 0
173 197 0
172 195 0
173 196 0
165 188 57
76 110 169
62 99 175
63 100 181
62 99 175
62 99 179
62 99 181
62 99 179
62 99 181
63 100 181
62 99 179
62 99 181
62 99 181
61 99 181
62 99 179
62 99 179
63 100 181
62 99 181
63 100 181
63 100 181
62 99 181
62 99 181
62 99 181
62 99 179
61 99 181
62 99 181
61 98 177
62 99 181
61 99 181
62 99 179
62 99 177
62 99 179
62 99 181
62 99 177
61 98 181
62 99 177
62 99 179
62 99 181
62 99 179
62 99 179
62 99 175
62 99 181
62 99 181
62 99 179
62 99 175
62 99 181
63 100 181
62 99 181
62 99 179
62 98 179
62 99 177
63 100 181
62 99 175
62 99 179
62 99 181
62 99 177
63 99 179
62 99 177
62 99 179
62 98 177
61 98 168
63 99 173
62 99 177
62 98 174
61 98 170
63 99 171
62 99 181
62 98 168
60 95 165
63 99 172
62 99 175
60 95 169
61 97 163
59 93 162
95 98 88
76 78 52
93 96 68
88 91 64
95 96 70
112 113 80
82 85 60
93 98 74
111 112 79
108 109 75
98 103 76
117 118 80
106 111 78
129 129 85
118 119 84
123 124 86
139 139 94
147 145 95
147 145 94
142 140 88
160 156 99
139 140 92
150 147 91
155 152 100
158 156 98
156 154 99
170 165 103
167 162 102
166 161 98
165 160 99
173 167 101
175 169 104
175 169 101
168 162 97
177 171 110
177 171 105
176 170 109
174 169 103
171 167 103
171 166 101
173 168 103
171 166 102
169 163 93
174 167 99
169 162 95
174 168 95
171 165 101
169 163 98
168 163 88
170 164 98
173 166 98
168 162 94
163 157 93
172 166 94
165 160 85
168 161 84
159 153 90
170 164 93
164 157 94
153 148 87
158 153 85
160 154 84
156 151 74
138 132 70
152 147 74
132 129 64
150 144 70
140 133 70
133 127 60
118 112 48
172 193 16
172 196 0
173 196 0
173 195 0
170 193 0
173 195 0
172 194 0
174 196 0
173 195 0
174 196 0
171 192 0
176 199 0
169 190 0
172 194 0
171 194 0
173 197 0
172 196 0
173 197 0
172 194 0
173 197 0
173 196 0
173 197 0
173 195 0
174 196 0
175 198 0
171 194 0
174 197 0
173 196 0
172 195 0
171 195 0
173 196 0
173 195 0
173 197 0
172 195 0
173 196 0
173 196 0
174 198 0
174 198 0
174 198 0
173 197 0
174 196 0
173 197 0
173 197 0
175 198 0
172 195 0
174 197 0
171 193 0
175 198 0
172 196 0
176 198 0
175 198 0
175 198 0
177 198 0
173 197 0
173 197 0
177 198 0
171 194 0
175 197 0
172 194 0
173 197 0
175 197 0
175 198 0
175 198 0
171 196 0
175 197 0
176 199 0
175 198 0
171 195 0
175 197 0
175 198 0
173 197 0
171 195 0
174 197 0
176 198 0
176 199 0
174 198 0
174 196 0
174 197 0
174 197 0
174 197 0
174 198 0
175 198 0
171 196 0
174 197 0
174 197 0
171 195 0
172 197 0
174 197 0
175 198 0
175 197 0
174 198 0
175 197 0
175 198 0
176 197 0
173 197 0
174 198 0
174 197 0
174 198 0
174 198 0
173 197 0
175 198 0
175 197 0
174 197 0
175 198 0
173 197 0
175 198 0
172 195 0
172 197 0
172 197 0
174 198 0
173 197 0
174 198 0
173 197 0
176 199 0
175 198 0
173 197 0
175 198 0
172 197 0
175 198 0
174 198 0
176 198 0
173 196 0
169 193 0
173 197 0
174 197 0
176 199 0
174 198 0
172 196 0
175 198 0
173 197 0
174 198 0
174 198 0
170 194 0
176 199 0
173 196 0
174 198 0
172 196 0
173 196 0
174 197 0
176 198 0
172 196 0
175 198 0
171 194 0
176 198 0
172 196 0
174 198 0
174 198 0
170 195 0
171 194 0
175 198 0
172 197 0
173 196 0
176 199 0
175 198 0
173 197 0
172 196 0
174 197 0
173 197 0
174 197 0
173 197 0
174 198 0
173 197 0
175 198 0
173 197 0
168 193 0
172 196 0
174 198 0
176 199 0
175 198 0
170 194 0
173 196 0
171 196 0
172 196 0
174 198 0
175 198 0
174 197 0
176 199 0
173 196 0
174 197 0
172 196 0
171 194 0
175 198 0
174 196 0
175 198 0
176 198 0
176 199 0
173 196 0
174 197 0
175 198 0
171 195 0
173 196 0
170 194 0
172 196 0
174 197 0
172 196 0
172 195 0
173 197 0
173 197 0
176 199 0
174 198 0
170 194 0
174 198 0
165 189 0
176 199 0
174 198 0
174 196 0
171 195 0
170 195 0
171 195 0
174 198 0
172 196 0
171 194 0
174 198 0
173 197 0
171 195 0
174 198 0
170 193 0
173 196 0
170 193 0
174 198 0
173 197 0
174 197 0
171 194 0
173 196 0
174 197 0
169 193 0
170 195 0
173 197 0
172 196 0
171 194 0
172 196 0
174 197 0
174 198 0
171 194 0
169 192 0
172 195 0
170 194 0
170 194 0
174 198 0
172 195 0
172 196 0
172 196 0
175 198 0
174 197 0
174 198 0
172 196 0
169 193 0
168 191 0
171 195 0
172 196 0
172 195 0
172 195 0
173 196 0
174 197 0
171 195 0
172 196 0
109 137 147
63 100 181
62 99 181
63 100 179
61 99 179
62 99 181
62 99 181
62 99 181
62 99 181
62 99 179
62 99 181
62 99 179
62 99 179
62 99 181
62 99 179
62 99 181
62 99 179
62 99 181
62 99 181
61 98 177
63 100 181
62 99 181
61 99 179
62 99 177
62 99 181
62 99 179
62 99 179
60 98 179
61 99 181
62 99 179
62 99 179
61 99 181
61 98 179
62 99 181
62 99 179
61 98 181
62 99 177
62 99 179
62 99 179
62 99 181
62 99 181
61 98 173
63 100 177
62 99 175
61 98 177
63 100 181
62 99 175
62 99 177
62 99 177
62 99 177
61 98 177
62 98 173
60 97 177
62 99 175
62 99 177
61 98 173
62 99 181
61 98 177
62 99 175
61 97 165
61 97 169
62 99 177
62 99 170
62 99 175
60 97 174
61 98 170
62 99 177
62 99 174
63 99 177
62 98 174
62 98 172
62 98 172
61 98 169
61 96 167
59 88 141
94 95 64
99 99 69
86 90 67
88 90 66
74 80 63
95 98 70
80 86 66
93 97 72
101 102 72
108 111 80
125 125 87
123 124 87
114 116 79
139 137 90
133 134 90
130 129 82
149 146 92
143 140 83
135 135 91
141 140 90
155 153 97
156 153 95
150 148 94
153 150 96
151 148 91
154 151 95
168 163 94
165 160 101
168 163 99
170 165 101
168 163 95
169 163 100
172 165 103
172 167 103
168 163 97
177 170 108
174 168 101
170 164 97
169 163 95
174 168 95
176 169 101
171 165 97
173 167 101
171 166 99
168 161 91
170 164 90
170 164 99
168 162 94
170 165 98
171 165 97
171 164 90
167 160 90
169 162 99
176 169 94
170 163 93
177 168 94
163 156 85
161 154 79
162 155 88
152 147 77
160 155 75
145 140 72
151 144 74
134 128 66
148 142 72
134 130 70
154 147 74
137 131 68
139 134 62
172 194 0
172 193 0
170 192 0
170 193 0
171 194 0
175 198 0
176 199 0
172 196 0
172 195 0
173 195 0
171 193 0
168 191 0
173 197 0
175 196 0
175 197 0
169 193 0
175 198 0
171 194 0
169 192 0
175 197 0
175 197 0
174 196 0
176 199 0
172 195 0
174 197 0
174 196 0
174 196 0
172 196 0
175 198 0
173 195 0
175 197 0
175 197 0
173 195 0
174 198 0
172 195 0
171 195 0
174 198 0
170 191 0
175 198 0
174 197 0
176 198 0
174 198 0
171 195 0
174 197 0
172 195 0
175 195 0
173 197 0
177 198 0
174 197 0
174 197 0
178 200 0
171 195 0
173 197 0
177 199 0
175 197 0
176 199 0
175 198 0
172 196 0
171 195 0
173 196 0
174 197 0
173 195 0
174 198 0
175 198 0
172 196 0
173 195 0
176 198 0
174 198 0
175 198 0
175 198 0
175 197 0
174 198 0
173 197 0
173 197 0
173 197 0
174 197 0
175 198 0
174 198 0
174 198 0
175 198 0
174 198 0
176 199 0
176 199 0
172 196 0
175 198 0
176 197 0
175 198 0
174 197 0
173 196 0
175 197 0
172 197 0
175 198 0
174 197 0
176 198 0
173 197 0
174 198 0
172 197 0
174 197 0
176 199 0
173 197 0
176 199 0
174 198 0
174 198 0
173 196 0
173 196 0
175 198 0
176 199 0
175 198 0
176 199 0
174 198 0
173 197 0
175 198 0
176 199 0
175 198 0
174 197 0
172 197 0
173 196 0
176 198 0
173 197 0
173 196 0
174 197 0
174 197 0
172 197 0
174 197 0
169 193 0
174 196 0
175 198 0
174 197 0
174 198 0
175 198 0
173 197 0
174 198 0
173 196 0
175 198 0
174 198 0
176 199 0
176 199 0
171 195 0
172 195 0
174 198 0
174 197 0
174 197 0
174 197 0
177 199 0
176 199 0
175 198 0
173 197 0
172 197 0
174 197 0
174 197 0
171 195 0
175 198 0
175 198 0
171 195 0
176 199 0
175 198 0
174 197 0
172 196 0
173 197 0
173 197 0
172 196 0
173 197 0
169 193 0
172 196 0
175 198 0
173 197 0
177 199 0
175 198 0
175 198 0
174 197 0
174 197 0
171 195 0
172 196 0
174 198 0
173 197 0
175 198 0
178 200 0
174 197 0
170 195 0
175 197 0
172 196 0
175 198 0
171 196 0
175 198 0
172 196 0
170 194 0
174 197 0
174 197 0
174 197 0
173 196 0
171 195 0
174 198 0
171 193 0
173 196 0
176 199 0
172 197 0
171 192 0
173 197 0
175 198 0
171 194 0
173 197 0
175 198 0
175 198 0
175 198 0
173 197 0
171 194 0
175 197 0
171 195 0
170 194 0
174 198 0
174 198 0
174 196 0
174 197 0
175 198 0
172 197 0
173 197 0
175 198 0
174 197 0
171 194 0
171 195 0
170 193 0
172 194 0
172 196 0
173 196 0
170 195 0
176 199 0
172 195 0
173 197 0
172 196 0
172 195 0
172 196 0
174 198 0
170 193 0
170 192 0
172 195 0
172 195 0
172 196 0
175 196 0
170 193 0
170 193 0
166 190 0
174 197 0
172 195 0
171 194 0
169 193 0
170 192 0
166 188 0
172 196 0
166 189 0
165 189 0
173 197 0
167 191 0
173 196 0
175 198 0
171 195 0
145 170 105
63 100 181
62 99 179
62 99 179
63 100 179
62 99 181
62 99 179
61 98 179
62 99 179
62 99 181
62 99 181
62 99 181
62 99 177
62 99 181
62 99 181
62 99 179
61 99 181
62 99 181
62 99 179
62 99 179
63 100 181
63 100 181
63 99 179
62 99 181
62 99 181
62 99 179
62 99 177
62 99 181
61 99 177
62 99 175
62 99 181
62 99 181
63 99 179
62 99 181
62 99 179
63 100 181
63 100 175
61 98 173
63 99 179
62 98 175
63 100 181
62 99 177
63 99 177
62 99 177
62 99 177
63 99 173
62 99 177
61 98 175
62 99 179
62 99 179
63 100 181
62 99 179
62 99 177
63 100 181
61 99 181
62 99 177
61 98 171
62 99 179
63 100 177
62 99 179
62 99 173
63 99 179
62 98 165
61 98 173
62 99 177
62 98 171
61 98 173
62 98 173
61 98 170
62 98 171
62 98 166
63 99 174
60 95 163
62 97 168
59 94 161
61 95 163
89 97 101
91 94 64
76 80 57
91 92 67
81 84 62
92 95 67
82 86 62
88 94 69
105 107 78
106 108 74
110 112 74
100 103 73
133 132 88
129 130 87
127 128 86
116 116 77
131 129 84
133 133 87
151 147 94
156 153 96
141 139 85
141 141 91
150 148 96
153 151 96
169 163 105
161 157 96
167 161 101
164 160 101
165 160 101
175 169 101
174 168 103
163 158 92
169 164 96
172 166 100
175 170 106
173 169 99
171 166 96
172 166 97
168 162 98
171 166 99
176 170 103
174 168 99
171 165 97
167 163 97
172 165 95
171 165 90
171 165 88
175 168 97
163 158 87
164 159 88
170 163 93
165 159 79
174 167 102
157 153 82
166 160 93
168 161 93
162 156 82
164 158 85
165 159 87
150 143 79
150 144 74
152 145 72
135 130 66
137 133 60
138 134 72
134 129 64
137 131 60
144 138 70
127 124 42
170 192 0
174 196 0
174 196 0
172 195 0
169 193 0
176 198 0
170 193 0
174 195 0
174 196 0
172 196 0
173 195 0
174 197 0
170 193 0
174 197 0
174 194 0
176 198 0
170 193 0
173 197 0
174 196 0
176 199 0
173 195 0
172 195 0
173 196 0
174 197 0
174 197 0
172 197 0
174 197 0
173 196 0
172 195 0
173 195 0
175 198 0
175 198 0
173 197 0
173 196 0
174 196 0
174 197 0
174 197 0
172 196 0
174 196 0
175 198 0
172 195 0
175 198 0
173 197 0
175 198 0
174 197 0
173 197 0
172 196 0
173 195 0
176 198 0
174 197 0
173 197 0
173 197 0
174 198 0
173 197 0
176 198 0
174 197 0
174 198 0
173 196 0
173 196 0
173 197 0
173 196 0
176 199 0
175 198 0
174 197 0
172 195 0
174 197 0
176 199 0
173 196 0
173 197 0
173 196 0
173 197 0
173 197 0
176 198 0
176 199 0
174 197 0
173 197 0
176 199 0
173 196 0
175 197 0
176 199 0
172 197 0
175 198 0
174 197 0
174 197 0
174 197 0
174 197 0
173 197 0
173 196 0
174 198 0
174 197 0
174 197 0
172 196 0
173 196 0
175 197 0
175 198 0
174 197 0
175 198 0
175 198 0
175 198 0
175 198 0
173 197 0
174 197 0
174 198 0
174 198 0
175 198 0
174 197 0
175 198 0
174 198 0
173 197 0
175 198 0
174 197 0
175 198 0
173 197 0
175 198 0
171 196 0
173 196 0
175 198 0
172 196 0
173 196 0
173 197 0
172 196 0
177 199 0
176 199 0
175 198 0
174 197 0
176 198 0
173 196 0
177 199 0
175 198 0
175 198 0
174 197 0
177 199 0
173 196 0
175 198 0
175 198 0
174 197 0
173 197 0
174 197 0
174 198 0
175 198 0
177 199 0
174 198 0
174 197 0
175 198 0
174 198 0
173 196 0
172 196 0
172 196 0
173 197 0
175 198 0
175 198 0
174 198 0
174 198 0
175 198 0
175 198 0
173 196 0
173 197 0
173 197 0
172 195 0
171 195 0
172 196 0
175 198 0
173 197 0
172 196 0
175 198 0
173 195 0
174 198 0
174 197 0
171 195 0
171 195 0
173 197 0
172 196 0
175 198 0
174 198 0
175 198 0
173 197 0
175 197 0
173 197 0
175 198 0
173 196 0
171 195 0
176 198 0
172 197 0
172 196 0
174 197 0
174 198 0
172 196 0
171 195 0
173 197 0
172 195 0
174 197 0
173 196 0
175 198 0
173 197 0
171 195 0
174 198 0
173 196 0
172 196 0
172 196 0
175 198 0
171 195 0
173 197 0
174 197 0
173 197 0
171 195 0
174 197 0
172 195 0
174 197 0
174 198 0
171 195 0
174 197 0
177 199 0
175 198 0
173 197 0
173 197 0
174 197 0
168 192 0
171 194 0
173 196 0
176 199 0
175 197 0
175 198 0
174 197 0
176 198 0
175 198 0
171 194 0
169 192 0
172 195 0
173 196 0
169 193 0
174 197 0
172 195 0
174 197 0
173 196 0
166 190 0
168 192 0
174 196 0
174 197 0
172 196 0
170 194 0
165 189 0
169 193 0
170 193 0
169 193 0
173 197 0
170 192 0
171 194 0
175 195 0
172 195 0
171 194 0
175 197 0
166 190 0
173 195 0
169 192 0
173 196 0
88 119 161
64 100 177
62 100 181
62 99 181
62 99 181
62 99 181
63 100 179
63 100 181
62 99 181
62 99 177
62 99 181
62 99 179
61 98 181
62 99 181
62 99 177
62 99 181
61 98 179
61 98 179
62 99 181
63 100 181
62 99 179
61 99 177
63 100 181
62 99 179
61 98 175
62 98 175
62 99 179
61 98 177
62 99 177
62 98 177
62 99 181
61 98 179
62 99 181
62 99 181
63 100 179
62 99 181
62 99 181
63 100 179
62 99 181
61 98 179
61 98 175
62 99 175
63 100 179
61 98 177
61 98 175
63 100 177
62 99 179
62 99 177
61 98 177
62 99 179
62 99 175
61 98 173
61 98 175
62 99 175
63 100 181
62 99 179
62 99 177
62 99 175
62 98 175
62 99 179
62 99 171
62 99 179
62 99 175
61 98 177
63 99 179
62 99 179
60 96 160
62 98 167
62 97 168
62 99 175
62 98 170
62 98 174
62 97 167
62 97 167
61 97 166
61 96 167
59 89 140
65 70 47
64 69 51
75 79 58
73 76 52
78 82 60
78 85 64
92 95 67
106 109 76
102 106 78
111 113 80
106 109 76
125 125 86
137 134 88
123 124 82
121 122 84
129 129 79
129 130 85
130 130 83
146 145 91
149 147 95
153 151 98
165 161 97
149 148 92
156 152 93
152 149 93
162 157 101
167 162 98
165 160 91
163 159 93
164 160 93
172 167 98
173 166 99
171 167 98
175 169 104
171 166 101
173 166 88
171 166 97
171 165 93
166 161 93
175 168 99
174 167 98
179 170 101
175 168 93
172 166 98
171 164 95
162 158 87
168 162 91
172 167 98
168 162 87
172 165 93
167 160 93
159 153 80
169 161 90
157 152 79
162 156 84
159 153 88
151 146 72
153 147 75
155 149 77
146 140 74
158 153 79
158 152 79
152 146 75
144 139 68
149 143 64
126 122 51
134 128 58
140 145 42
173 197 0
174 196 0
173 194 0
176 198 0
174 198 0
173 195 0
171 194 0
171 194 0
172 194 0
174 196 0
171 194 0
174 198 0
170 193 0
169 193 0
173 195 0
173 195 0
175 197 0
170 194 0
173 195 0
170 192 0
175 198 0
176 196 0
173 194 0
171 193 0
171 193 0
175 198 0
171 193 0
174 196 0
172 196 0
172 197 0
174 197 0
173 196 0
170 193 0
170 192 0
174 196 0
172 195 0
176 197 0
171 194 0
174 197 0
176 197 0
174 198 0
173 197 0
173 197 0
173 196 0
175 197 0
175 197 0
174 197 0
174 198 0
173 196 0
173 196 0
174 197 0
175 198 0
174 197 0
177 199 0
171 195 0
174 197 0
175 198 0
173 195 0
174 197 0
175 197 0
174 197 0
174 198 0
171 194 0
174 196 0
170 195 0
173 197 0
176 198 0
173 196 0
173 197 0
176 198 0
176 199 0
174 197 0
174 198 0
174 197 0
175 197 0
175 198 0
173 196 0
174 198 0
173 197 0
174 197 0
174 197 0
175 198 0
174 198 0
173 197 0
174 197 0
173 197 0
175 198 0
174 198 0
176 198 0
174 196 0
176 198 0
176 198 0
173 197 0
175 198 0
173 197 0
175 197 0
175 198 0
173 197 0
174 198 0
173 197 0
173 197 0
174 197 0
171 194 0
174 197 0
175 198 0
174 198 0
176 198 0
175 198 0
173 197 0
175 198 0
174 198 0
175 198 0
172 196 0
175 198 0
172 196 0
172 196 0
175 198 0
173 197 0
175 198 0
176 199 0
175 198 0
172 196 0
173 197 0
174 198 0
175 198 0
175 198 0
176 199 0
175 198 0
175 198 0
176 199 0
172 196 0
172 196 0
174 198 0
173 197 0
173 196 0
176 198 0
176 198 0
177 199 0
175 198 0
175 198 0
177 199 0
174 197 0
173 197 0
175 197 0
174 198 0
172 197 0
175 198 0
175 197 0
174 198 0
172 195 0
173 197 0
173 197 0
171 194 0
172 195 0
172 196 0
175 198 0
172 195 0
175 198 0
174 197 0
174 198 0
175 198 0
173 196 0
173 197 0
175 198 0
175 198 0
175 198 0
172 196 0
172 196 0
173 196 0
173 196 0
171 196 0
173 196 0
174 196 0
173 197 0
174 198 0
170 194 0
174 198 0
173 196 0
173 197 0
173 197 0
172 196 0
174 198 0
173 196 0
175 198 0
174 198 0
175 197 0
171 195 0
172 195 0
175 198 0
172 196 0
175 198 0
173 196 0
174 197 0
171 195 0
174 197 0
172 196 0
175 198 0
172 196 0
175 198 0
173 197 0
173 196 0
171 194 0
175 198 0
173 197 0
173 197 0
168 192 0
172 196 0
171 194 0
168 192 0
173 196 0
168 192 0
173 197 0
173 197 0
170 194 0
173 197 0
173 196 0
173 195 0
173 197 0
173 196 0
171 195 0
173 196 0
169 192 0
173 197 0
172 196 0
171 195 0
168 193 0
173 196 0
173 197 0
171 194 0
174 197 0
170 193 0
169 192 0
171 193 0
172 195 0
167 191 0
176 199 0
175 198 0
174 198 0
171 194 0
172 195 0
168 192 0
168 192 0
172 195 0
169 193 0
172 196 0
174 197 0
173 197 0
170 194 0
174 197 0
168 191 0
169 192 0
171 194 0
171 194 0
167 190 0
149 174 95
63 100 177
62 99 181
62 99 181
62 99 181
62 99 179
63 100 181
62 99 179
62 99 179
62 99 181
62 99 177
63 100 181
63 100 181
62 99 179
62 99 181
62 99 179
62 99 179
61 98 179
61 99 181
62 99 179
63 100 181
61 99 179
62 99 179
63 99 179
62 99 179
61 98 177
62 99 175
62 99 181
62 99 177
62 99 179
62 98 175
62 99 179
62 99 179
62 99 179
61 98 175
64 100 181
62 99 175
62 99 181
63 100 181
62 99 179
62 99 181
62 99 179
62 99 179
62 99 175
62 99 177
61 98 175
62 99 177
63 100 181
61 98 175
62 99 179
62 98 171
61 99 179
62 99 175
62 99 175
61 98 177
63 100 179
63 100 179
62 99 173
63 100 177
62 99 177
61 99 179
63 99 169
62 99 177
61 98 169
61 98 167
61 98 177
62 99 171
61 97 161
63 99 172
61 97 170
63 99 164
61 97 164
61 97 166
61 97 167
61 95 160
61 96 155
61 95 164
61 93 154
56 71 93
74 77 55
76 79 57
76 78 55
84 88 63
81 85 63
87 90 64
111 112 80
90 95 68
111 112 78
110 111 72
119 120 82
108 111 72
112 113 74
132 130 82
133 133 89
129 129 84
145 144 93
148 145 91
146 144 84
154 152 92
143 142 91
151 147 92
158 153 95
160 155 95
163 159 92
170 164 100
164 160 90
162 158 95
166 163 102
173 166 95
165 161 88
168 162 95
166 161 92
165 160 90
168 162 93
170 164 90
171 166 94
172 165 87
173 166 95
168 163 88
169 163 94
171 166 94
172 166 97
167 160 90
172 165 90
171 165 97
168 161 91
175 168 95
172 165 93
163 157 88
162 156 80
162 156 88
159 154 82
161 154 85
159 155 79
161 154 84
166 160 82
166 158 90
151 146 77
149 144 62
163 155 84
166 157 85
131 125 53
138 133 64
148 142 72
130 123 58
140 143 42
175 197 0
174 195 0
171 194 0
170 193 0
174 196 0
174 196 0
172 195 0
174 195 0
172 195 0
174 195 0
171 195 0
170 194 0
173 195 0
172 197 0
173 197 0
171 193 0
173 196 0
173 196 0
173 196 0
174 196 0
174 196 0
172 194 0
175 197 0
169 191 0
175 197 0
173 195 0
174 196 0
169 190 0
175 197 0
174 197 0
175 197 0
174 197 0
174 197 0
173 196 0
175 197 0
172 195 0
170 194 0
173 197 0
173 196 0
172 196 0
174 197 0
173 197 0
176 198 0
175 198 0
173 196 0
172 196 0
172 195 0
174 197 0
174 197 0
173 195 0
174 197 0
176 198 0
175 198 0
173 197 0
173 197 0
173 197 0
172 196 0
174 197 0
172 195 0
174 197 0
169 193 0
175 198 0
174 197 0
175 198 0
175 198 0
173 197 0
175 198 0
176 199 0
176 198 0
175 197 0
171 193 0
175 197 0
175 198 0
172 196 0
174 197 0
171 195 0
176 198 0
175 198 0
176 199 0
174 198 0
177 199 0
176 199 0
175 198 0
174 198 0
173 197 0
174 198 0
175 198 0
175 198 0
174 198 0
175 198 0
172 197 0
174 197 0
175 197 0
177 199 0
175 198 0
175 198 0
175 198 0
175 198 0
176 198 0
174 198 0
175 198 0
174 198 0
175 198 0
173 197 0
175 198 0
174 198 0
174 197 0
174 198 0
176 198 0
174 197 0
174 198 0
175 198 0
174 198 0
175 198 0
172 196 0
172 195 0
173 197 0
174 198 0
176 198 0
175 198 0
171 195 0
174 198 0
173 196 0
174 198 0
174 198 0
176 199 0
174 197 0
173 197 0
175 198 0
173 196 0
173 197 0
175 198 0
173 197 0
175 198 0
174 198 0
171 196 0
175 198 0
173 197 0
175 198 0
174 198 0
177 199 0
174 198 0
176 199 0
176 198 0
172 196 0
175 198 0
175 198 0
175 198 0
171 195 0
175 198 0
175 198 0
172 197 0
174 197 0
173 197 0
173 196 0
173 197 0
171 196 0
174 198 0
174 197 0
171 195 0
174 198 0
174 197 0
175 198 0
173 197 0
174 197 0
174 198 0
173 196 0
174 197 0
172 194 0
174 198 0
170 193 0
174 197 0
171 194 0
176 199 0
176 198 0
174 197 0
172 195 0
172 196 0
172 196 0
173 196 0
175 197 0
175 198 0
174 197 0
173 195 0
172 197 0
173 196 0
174 198 0
173 196 0
173 196 0
171 194 0
173 196 0
173 197 0
176 199 0
172 196 0
173 197 0
175 198 0
170 194 0
175 198 0
175 198 0
173 196 0
174 197 0
173 197 0
173 196 0
171 194 0
171 195 0
175 197 0
174 195 0
172 197 0
171 194 0
176 199 0
172 196 0
174 197 0
174 197 0
171 195 0
174 198 0
173 196 0
172 197 0
172 196 0
173 196 0
173 197 0
173 196 0
173 197 0
172 197 0
174 197 0
176 198 0
172 196 0
170 194 0
170 193 0
172 195 0
172 196 0
172 196 0
172 196 0
173 196 0
172 194 0
170 194 0
170 193 0
171 195 0
168 192 0
172 195 0
167 191 0
169 193 0
169 193 0
169 193 0
171 194 0
173 196 0
173 196 0
169 192 0
169 192 0
170 194 0
171 195 0
170 195 0
172 195 0
172 195 0
171 194 0
102 130 151
62 99 177
63 99 177
61 98 177
61 98 173
63 100 179
62 99 177
63 100 181
62 99 181
63 100 181
62 99 177
61 98 177
63 100 177
62 99 181
62 99 179
61 98 177
61 99 179
62 99 179
62 99 177
62 99 179
62 99 179
62 99 181
62 99 181
62 99 181
62 99 175
62 99 177
62 99 179
62 99 181
62 99 179
63 100 179
61 98 179
62 99 179
63 99 177
62 99 181
62 99 179
63 99 173
62 99 175
62 99 177
63 100 181
62 99 181
62 99 175
62 99 179
62 99 177
62 99 177
63 100 175
61 98 173
61 98 167
63 100 177
62 99 179
62 98 173
61 98 177
62 99 177
62 99 171
63 99 173
62 98 165
62 99 177
61 98 173
62 99 173
62 99 173
62 98 167
61 98 173
62 99 177
62 99 169
62 99 173
62 99 174
63 99 177
62 99 175
61 97 167
62 98 166
63 99 169
62 99 169
62 98 168
61 98 168
62 98 164
62 97 162
62 98 170
60 96 165
60 94 159
61 92 146
66 72 47
87 90 63
70 76 58
63 69 45
73 77 51
76 81 53
80 85 59
93 94 63
112 114 74
95 99 68
99 102 65
116 117 78
131 130 80
126 127 81
123 122 76
136 135 85
137 134 83
127 127 86
137 137 88
151 147 92
162 158 98
141 139 78
149 145 81
144 143 86
159 155 84
163 158 92
168 163 94
168 163 98
169 163 97
167 161 95
171 165 97
174 167 97
173 168 98
169 166 103
173 167 95
174 167 93
169 164 94
175 168 99
174 168 95
171 165 90
170 163 93
169 163 90
169 163 88
167 160 88
170 163 90
169 162 88
169 163 88
174 167 93
166 159 90
161 156 80
163 157 85
163 157 80
164 158 82
162 156 79
164 157 88
161 154 82
164 158 84
160 154 75
150 144 70
142 137 62
135 129 66
148 144 72
132 128 53
141 135 62
128 124 51
133 128 60
144 155 32
170 190 0
174 196 0
170 192 0
171 190 0
174 195 0
172 194 0
173 195 0
172 195 0
169 191 0
174 198 0
173 196 0
172 194 0
171 196 0
174 196 0
173 194 0
174 196 0
174 196 0
174 196 0
175 197 0
173 197 0
171 194 0
172 196 0
172 196 0
174 197 0
170 193 0
172 195 0
173 197 0
172 196 0
171 195 0
172 197 0
173 195 0
175 197 0
173 196 0
173 196 0
172 196 0
174 196 0
172 196 0
174 196 0
172 196 0
173 197 0
174 197 0
173 196 0
174 196 0
175 197 0
176 199 0
173 197 0
173 197 0
174 197 0
173 197 0
171 195 0
175 198 0
175 198 0
175 198 0
173 197 0
175 198 0
175 197 0
174 197 0
173 197 0
172 196 0
172 195 0
174 198 0
174 197 0
175 198 0
174 197 0
171 195 0
173 197 0
174 198 0
173 197 0
174 198 0
174 197 0
172 195 0
175 198 0
174 197 0
172 196 0
173 197 0
173 197 0
174 198 0
175 197 0
177 199 0
175 198 0
175 197 0
174 196 0
176 199 0
173 197 0
174 197 0
173 197 0
173 197 0
175 197 0
174 197 0
174 197 0
176 198 0
173 197 0
175 198 0
175 198 0
174 197 0
174 197 0
176 198 0
175 198 0
173 197 0
172 197 0
174 198 0
175 198 0
174 197 0
178 199 0
174 197 0
174 198 0
175 198 0
175 198 0
173 197 0
174 198 0
174 197 0
174 198 0
173 196 0
176 198 0
173 196 0
172 197 0
176 199 0
174 197 0
173 197 0
173 196 0
173 197 0
174 198 0
176 199 0
176 199 0
174 198 0
173 196 0
172 196 0
174 197 0
173 196 0
174 198 0
174 197 0
174 197 0
173 196 0
171 194 0
175 198 0
174 197 0
173 197 0
174 198 0
171 195 0
173 197 0
175 197 0
174 198 0
174 198 0
176 198 0
175 198 0
174 198 0
174 198 0
174 197 0
172 196 0
173 197 0
172 196 0
176 199 0
172 197 0
170 194 0
170 193 0
172 196 0
174 197 0
174 197 0
174 197 0
175 198 0
174 197 0
172 196 0
172 196 0
174 198 0
174 197 0
173 197 0
174 197 0
175 198 0
176 199 0
178 200 0
175 198 0
175 198 0
175 198 0
173 197 0
171 195 0
172 196 0
172 196 0
172 195 0
172 197 0
169 193 0
174 197 0
175 198 0
172 196 0
174 198 0
172 197 0
173 197 0
173 196 0
174 198 0
174 197 0
177 199 0
171 194 0
171 194 0
170 194 0
174 197 0
174 197 0
172 196 0
172 196 0
174 197 0
174 197 0
173 197 0
173 196 0
176 199 0
171 196 0
170 194 0
172 195 0
173 196 0
173 197 0
173 196 0
171 195 0
171 195 0
171 195 0
172 196 0
173 197 0
174 197 0
172 197 0
172 197 0
172 194 0
172 196 0
175 197 0
173 196 0
170 193 0
172 196 0
170 194 0
171 194 0
174 197 0
175 198 0
170 194 0
171 194 0
173 197 0
168 192 0
172 194 0
168 192 0
173 197 0
171 195 0
172 196 0
175 198 0
169 192 0
172 195 0
168 191 0
171 194 0
170 194 0
177 199 0
169 193 0
172 195 0
166 190 0
169 193 0
173 196 0
169 191 0
168 192 0
168 192 0
169 193 0
169 191 0
167 190 0
140 165 102
62 98 171
62 99 179
63 100 179
62 99 179
63 100 181
62 99 181
61 98 175
62 99 177
62 99 181
62 99 179
62 99 181
63 100 181
63 99 177
62 99 179
62 99 179
62 99 177
62 99 181
62 99 181
62 99 179
62 99 177
61 99 181
63 99 179
62 99 179
62 99 179
62 99 177
62 99 177
62 99 179
62 99 177
62 99 179
62 99 177
62 99 175
62 99 179
62 99 179
62 99 181
62 99 177
62 99 179
62 99 177
62 98 175
62 99 175
61 98 173
61 98 173
61 99 181
61 99 177
63 100 177
63 100 177
62 99 181
62 99 181
62 99 181
63 100 179
63 99 175
62 99 173
62 99 175
62 99 177
63 100 179
61 98 171
61 98 175
62 99 173
61 98 169
62 99 171
62 99 173
61 98 171
61 98 175
62 99 171
63 99 167
62 99 173
61 97 171
62 99 175
63 100 177
62 98 173
62 98 169
62 99 169
62 99 173
62 98 172
60 96 164
60 96 152
60 96 162
60 95 158
61 96 164
59 93 150
63 74 85
64 71 44
68 74 54
65 69 47
69 77 60
65 71 52
79 83 59
91 95 70
103 105 71
95 100 75
114 115 78
120 120 82
115 118 78
129 128 79
116 117 73
141 140 90
131 130 79
141 139 88
145 143 87
137 136 78
156 152 89
159 156 92
155 151 84
161 156 93
161 156 87
163 158 87
165 161 94
166 161 97
166 162 95
162 158 81
167 161 88
169 163 97
172 167 95
171 165 90
170 164 87
174 167 96
168 163 87
174 168 94
176 170 102
167 160 82
172 165 88
176 168 97
165 158 85
172 165 85
172 165 93
166 159 82
168 162 84
161 155 79
167 161 80
160 154 85
168 161 87
161 156 82
169 163 85
165 158 88
164 158 85
155 149 79
159 152 79
148 142 72
159 152 80
150 143 70
132 129 56
155 148 75
155 149 66
131 125 48
134 129 56
121 117 48
155 171 28
171 192 0
175 197 0
172 195 0
172 194 0
170 194 0
174 195 0
171 194 0
175 197 0
170 191 0
171 194 0
172 196 0
171 193 0
175 197 0
174 196 0
170 194 0
176 198 0
172 195 0
172 195 0
171 192 0
173 196 0
175 198 0
173 195 0
171 194 0
174 196 0
173 197 0
175 198 0
175 197 0
176 198 0
170 194 0
173 196 0
173 195 0
175 197 0
174 198 0
174 198 0
177 199 0
174 198 0
172 195 0
174 197 0
172 195 0
173 197 0
176 199 0
173 196 0
171 195 0
175 197 0
168 191 0
170 193 0
173 196 0
174 197 0
173 196 0
174 197 0
172 196 0
171 193 0
168 191 0
175 198 0
171 194 0
175 197 0
172 195 0
174 197 0
172 197 0
174 198 0
174 197 0
174 198 0
172 194 0
176 198 0
172 195 0
173 197 0
173 196 0
174 197 0
171 196 0
174 198 0
175 198 0
175 198 0
175 198 0
174 197 0
174 197 0
173 197 0
174 198 0
174 197 0
175 197 0
175 198 0
174 198 0
175 198 0
173 197 0
173 197 0
172 196 0
174 197 0
173 197 0
174 196 0
176 198 0
174 197 0
174 197 0
176 198 0
175 198 0
172 196 0
175 198 0
176 199 0
174 197 0
173 196 0
175 198 0
172 196 0
175 197 0
174 198 0
174 198 0
173 197 0
176 199 0
172 195 0
175 198 0
177 199 0
176 199 0
175 198 0
171 195 0
174 198 0
174 197 0
174 197 0
174 198 0
174 198 0
174 198 0
174 198 0
176 199 0
174 198 0
175 198 0
173 197 0
174 197 0
176 199 0
171 196 0
173 197 0
175 198 0
176 199 0
173 197 0
174 197 0
173 196 0
176 198 0
173 197 0
174 198 0
172 196 0
171 196 0
174 197 0
168 194 0
174 198 0
174 198 0
173 196 0
173 196 0
175 198 0
173 196 0
171 196 0
173 196 0
175 198 0
175 197 0
174 198 0
174 198 0
172 196 0
175 198 0
173 196 0
173 197 0
171 195 0
173 196 0
173 197 0
175 198 0
174 198 0
172 196 0
174 197 0
175 198 0
172 194 0
173 197 0
173 196 0
172 196 0
173 197 0
174 197 0
174 197 0
175 198 0
175 198 0
176 198 0
172 196 0
174 198 0
171 195 0
175 197 0
176 199 0
173 196 0
174 198 0
174 198 0
173 196 0
173 197 0
176 199 0
172 195 0
174 198 0
171 195 0
175 198 0
168 192 0
172 195 0
174 197 0
174 198 0
174 197 0
172 196 0
175 197 0
171 194 0
175 198 0
172 196 0
177 199 0
170 194 0
174 196 0
175 198 0
172 196 0
172 197 0
172 196 0
174 197 0
174 197 0
174 197 0
175 198 0
176 198 0
172 196 0
174 198 0
172 195 0
172 195 0
174 197 0
172 196 0
173 197 0
173 197 0
172 195 0
174 198 0
170 193 0
172 195 0
175 198 0
172 195 0
171 196 0
172 197 0
170 194 0
170 194 0
172 195 0
174 197 0
170 194 0
171 193 0
175 198 0
170 193 0
174 198 0
173 196 0
173 197 0
172 195 0
173 196 0
169 192 0
175 197 0
171 194 0
172 195 0
174 197 0
174 197 0
169 192 0
176 199 0
174 197 0
170 194 0
171 195 0
173 196 0
172 195 0
167 190 0
173 197 0
91 122 159
62 98 175
62 99 179
62 98 171
62 99 177
62 99 181
62 99 179
63 100 181
63 99 179
62 99 179
61 98 181
62 99 179
61 98 171
63 99 177
62 99 179
62 99 179
62 99 181
62 99 179
63 100 179
62 99 181
62 99 177
62 99 179
61 98 179
62 99 181
63 100 179
62 99 179
62 99 177
62 99 179
62 98 175
62 99 171
62 98 171
62 99 179
63 100 181
62 99 177
62 99 173
62 99 177
62 99 177
63 100 177
63 99 177
63 100 177
62 99 175
61 99 177
62 99 175
61 98 175
62 98 171
62 99 175
62 99 173
62 99 179
62 99 175
62 99 177
61 99 177
63 100 179
62 99 179
62 98 165
62 99 177
63 99 173
62 99 175
61 98 175
61 97 171
62 99 169
62 98 167
61 98 173
61 98 169
63 99 171
62 99 175
63 99 173
62 99 177
63 100 179
63 99 165
63 99 165
62 98 173
62 99 173
62 99 167
60 96 158
62 98 168
62 99 177
62 98 167
61 97 168
61 96 161
60 95 156
55 86 147
48 54 37
56 60 38
66 72 50
70 77 58
72 77 52
82 88 67
94 96 63
107 109 68
106 107 71
97 100 67
113 114 70
110 112 72
127 126 78
128 127 82
135 133 81
139 137 85
145 143 91
146 144 85
143 141 81
148 145 81
157 153 92
155 152 92
159 155 93
141 139 81
162 158 90
162 158 94
159 155 88
168 161 87
168 163 95
171 166 95
166 161 90
166 161 80
172 164 93
167 161 79
174 167 95
174 166 93
169 163 88
174 168 99
169 163 82
168 162 87
173 167 95
174 166 94
178 170 104
165 159 79
169 163 90
165 158 84
170 163 91
163 155 88
167 161 82
153 147 79
163 157 82
167 161 84
155 149 72
146 141 68
153 146 64
160 152 79
152 147 72
148 143 70
162 156 72
153 146 77
157 150 74
147 141 62
138 132 70
128 123 58
130 125 56
158 176 0
171 190 0
165 186 0
167 191 0
172 195 0
171 192 0
170 193 0
174 195 0
172 193 0
173 196 0
173 196 0
170 192 0
172 195 0
172 193 0
174 196 0
175 197 0
174 196 0
171 191 0
172 194 0
172 192 0
173 196 0
172 195 0
172 194 0
170 191 0
172 195 0
174 197 0
176 199 0
173 197 0
175 196 0
173 197 0
173 197 0
173 195 0
172 195 0
171 196 0
169 191 0
174 197 0
174 198 0
172 197 0
173 195 0
171 194 0
173 196 0
175 197 0
174 196 0
172 195 0
173 197 0
173 196 0
173 196 0
174 197 0
174 198 0
174 196 0
173 197 0
172 195 0
175 198 0
173 197 0
175 198 0
175 198 0
172 195 0
175 198 0
176 199 0
173 196 0
173 197 0
173 196 0
175 198 0
175 198 0
175 198 0
174 196 0
170 195 0
173 197 0
174 197 0
173 196 0
177 199 0
171 195 0
175 198 0
173 196 0
174 198 0
173 197 0
173 197 0
174 197 0
172 195 0
171 193 0
175 198 0
174 197 0
173 197 0
172 197 0
173 197 0
174 198 0
175 198 0
174 197 0
173 197 0
175 198 0
175 198 0
174 198 0
175 198 0
173 196 0
175 197 0
174 197 0
173 197 0
174 198 0
173 195 0
173 196 0
173 197 0
174 197 0
173 197 0
175 198 0
175 198 0
173 197 0
177 199 0
174 197 0
176 199 0
175 198 0
173 196 0
174 198 0
174 197 0
174 197 0
173 197 0
174 198 0
173 197 0
174 198 0
176 199 0
173 197 0
175 198 0
172 197 0
172 196 0
176 199 0
174 198 0
177 199 0
171 196 0
176 199 0
175 198 0
173 197 0
174 198 0
175 198 0
174 197 0
174 197 0
176 199 0
173 197 0
172 197 0
175 198 0
173 197 0
177 199 0
172 196 0
175 198 0
175 198 0
174 198 0
168 193 0
172 196 0
174 198 0
178 200 0
174 197 0
174 197 0
174 197 0
174 197 0
174 197 0
173 197 0
176 198 0
173 197 0
176 198 0
172 195 0
172 196 0
172 197 0
173 196 0
174 198 0
177 199 0
171 195 0
172 196 0
175 198 0
174 197 0
174 197 0
170 195 0
171 195 0
173 197 0
172 197 0
171 194 0
174 198 0
173 196 0
172 196 0
174 197 0
171 195 0
171 195 0
173 197 0
175 198 0
174 197 0
175 197 0
174 197 0
172 195 0
169 192 0
171 196 0
171 195 0
171 195 0
171 195 0
171 194 0
174 198 0
173 197 0
176 199 0
174 195 0
175 198 0
173 197 0
173 197 0
174 198 0
175 198 0
173 197 0
173 197 0
170 194 0
174 197 0
172 196 0
176 198 0
173 197 0
175 198 0
170 193 0
169 193 0
172 196 0
173 197 0
174 197 0
172 196 0
168 191 0
173 196 0
171 194 0
172 195 0
166 189 0
173 196 0
171 194 0
176 198 0
170 193 0
171 195 0
167 191 0
171 195 0
172 195 0
172 196 0
172 196 0
173 196 0
172 196 0
173 196 0
171 193 0
168 191 0
174 196 0
171 195 0
175 198 0
172 196 0
167 190 0
169 193 0
169 192 0
172 195 0
173 195 0
168 191 0
173 197 0
169 192 0
172 194 0
166 191 0
173 195 0
168 191 0
172 196 0
171 195 0
169 193 0
159 183 57
64 101 179
63 100 175
63 100 179
63 100 179
62 99 181
62 99 175
62 99 175
62 99 177
63 99 177
63 100 181
63 100 179
62 99 181
63 99 177
62 99 179
62 99 179
63 100 181
62 99 179
62 99 181
62 99 175
63 99 179
62 99 179
62 99 177
63 99 177
62 99 177
63 99 177
62 99 175
62 99 181
62 99 179
62 99 179
62 99 177
62 99 181
62 98 173
61 98 177
62 99 175
62 99 173
61 98 171
62 99 173
62 99 173
61 98 173
62 99 177
61 98 171
62 99 177
61 98 167
62 99 179
62 98 171
61 99 177
61 98 171
61 98 175
63 99 173
61 98 177
62 99 165
62 98 171
61 98 167
62 99 177
62 99 171
63 99 179
62 99 173
62 99 175
62 99 173
62 98 173
61 98 167
62 98 171
62 99 179
63 100 173
63 100 177
63 99 171
62 99 171
62 99 175
61 98 171
63 99 175
62 98 165
62 99 169
62 99 174
63 99 177
62 98 161
61 98 169
62 98 169
62 97 168
62 98 169
61 95 158
59 92 150
59 71 77
66 72 51
64 68 46
69 74 49
75 79 52
80 85 62
94 97 64
75 80 55
93 96 64
105 106 60
105 108 70
127 126 76
116 116 68
120 120 76
121 122 73
128 126 74
146 142 81
148 145 82
150 147 83
150 146 78
150 147 86
151 147 83
143 140 77
161 156 90
156 151 80
156 151 83
161 155 84
161 156 92
165 158 89
159 154 85
167 162 93
162 157 71
174 166 86
172 166 93
173 167 93
171 165 89
165 158 79
172 165 88
172 165 87
161 155 84
164 159 79
167 160 84
169 163 90
164 157 90
167 160 82
170 164 90
169 162 84
165 158 84
163 157 87
162 157 80
164 157 84
161 155 79
161 154 87
164 158 79
165 157 84
150 144 74
149 144 75
152 146 77
146 140 66
143 137 62
138 132 60
131 125 60
147 141 64
138 132 53
121 119 45
172 193 0
170 193 0
173 196 0
171 195 0
175 197 0
173 197 0
174 196 0
173 196 0
172 196 0
172 196 0
168 190 0
173 194 0
170 192 0
171 193 0
175 197 0
174 194 0
173 197 0
170 194 0
175 198 0
171 192 0
168 191 0
176 197 0
174 197 0
174 196 0
173 196 0
171 193 0
172 195 0
173 196 0
172 196 0
172 195 0
176 198 0
169 192 0
175 198 0
173 195 0
176 198 0
175 198 0
173 197 0
169 192 0
174 197 0
170 194 0
174 198 0
174 197 0
174 197 0
175 198 0
175 197 0
174 198 0
174 196 0
174 197 0
175 198 0
174 198 0
176 199 0
175 198 0
177 198 0
174 197 0
174 197 0
175 198 0
173 196 0
173 196 0
176 198 0
175 197 0
174 197 0
176 198 0
172 196 0
174 198 0
173 195 0
174 198 0
175 198 0
173 197 0
174 196 0
174 196 0
172 196 0
173 197 0
174 197 0
174 197 0
175 198 0
174 198 0
176 198 0
176 198 0
174 198 0
175 198 0
175 198 0
175 198 0
174 197 0
174 196 0
172 196 0
177 199 0
174 198 0
173 197 0
175 198 0
174 198 0
175 198 0
172 197 0
175 198 0
174 198 0
174 198 0
173 197 0
173 197 0
173 197 0
174 197 0
176 198 0
174 198 0
173 196 0
173 196 0
175 197 0
175 198 0
173 197 0
175 198 0
176 198 0
173 197 0
174 198 0
177 199 0
171 196 0
175 198 0
175 198 0
171 195 0
174 198 0
173 197 0
174 197 0
175 198 0
174 198 0
174 197 0
174 198 0
173 196 0
176 199 0
174 198 0
175 198 0
173 197 0
172 196 0
176 198 0
174 198 0
173 197 0
174 198 0
174 198 0
174 198 0
174 198 0
176 198 0
173 196 0
173 197 0
174 198 0
176 199 0
170 194 0
177 199 0
173 197 0
174 198 0
174 197 0
174 198 0
174 197 0
174 197 0
174 197 0
172 195 0
172 196 0
172 196 0
173 196 0
175 198 0
175 198 0
173 196 0
173 197 0
175 198 0
172 196 0
175 198 0
172 196 0
169 194 0
174 198 0
176 199 0
175 198 0
174 198 0
174 198 0
173 197 0
178 199 0
171 194 0
174 197 0
174 197 0
174 198 0
173 197 0
173 196 0
173 196 0
174 197 0
174 198 0
173 196 0
171 195 0
169 192 0
175 197 0
173 196 0
171 195 0
174 198 0
172 196 0
170 194 0
175 197 0
173 197 0
169 193 0
168 193 0
176 199 0
172 196 0
170 194 0
172 195 0
176 198 0
173 196 0
172 195 0
176 198 0
174 198 0
170 194 0
175 197 0
171 195 0
167 191 0
173 197 0
175 197 0
168 192 0
171 195 0
171 195 0
172 195 0
175 198 0
172 195 0
168 192 0
172 196 0
172 196 0
171 194 0
173 196 0
172 195 0
172 195 0
173 197 0
174 198 0
172 195 0
169 192 0
168 191 0
173 197 0
168 192 0
172 196 0
168 191 0
170 195 0
172 195 0
171 194 0
172 195 0
170 194 0
166 191 0
172 195 0
172 195 0
170 194 0
169 193 0
169 191 0
176 199 0
170 193 0
169 193 0
172 196 0
173 197 0
169 193 0
168 190 0
172 195 0
167 190 0
168 191 0
172 193 0
168 192 0
169 193 0
168 192 0
129 155 125
63 100 181
63 100 179
62 99 177
62 99 177
62 99 177
63 100 181
62 99 175
63 100 179
63 99 177
62 99 177
61 98 177
61 99 181
62 99 177
62 99 175
62 99 179
63 100 181
62 99 181
62 99 179
63 100 181
62 99 179
61 98 175
62 99 181
62 99 179
62 99 181
62 99 173
61 98 173
62 99 177
61 99 177
62 99 181
62 99 177
62 99 177
61 98 175
62 99 179
63 100 179
61 98 177
61 99 177
62 99 181
62 99 177
62 99 175
62 99 179
63 99 175
62 99 179
63 100 181
61 97 165
62 99 179
62 99 179
62 99 173
62 99 173
62 99 177
62 99 171
62 99 173
62 99 175
62 99 175
63 100 181
63 99 179
62 99 175
62 98 173
62 99 175
63 99 171
62 99 171
61 98 179
62 99 175
61 98 169
63 99 177
63 99 175
61 98 171
62 99 169
61 98 171
63 100 175
63 99 167
61 97 164
61 96 160
63 99 171
59 94 152
63 99 173
61 97 164
61 95 159
61 97 164
62 98 167
62 96 163
61 95 153
48 75 116
65 67 37
61 66 48
52 60 45
68 72 45
78 83 49
82 85 56
101 103 68
107 108 63
91 92 57
101 103 60
116 116 63
103 106 64
128 127 74
109 111 71
134 132 84
135 132 82
136 134 81
143 141 72
154 149 87
153 149 88
151 147 86
147 143 81
157 152 90
161 156 88
156 152 79
161 156 90
156 151 82
170 163 92
166 160 87
168 162 85
160 154 85
171 163 91
165 159 85
167 162 88
162 158 83
168 162 86
164 160 83
175 168 91
166 161 92
169 163 88
171 164 82
160 153 79
168 162 85
162 157 77
164 158 80
164 158 87
161 155 77
160 153 70
163 156 79
164 157 82
151 145 77
156 151 80
160 154 84
150 144 72
154 149 72
161 154 75
153 147 74
144 139 66
147 140 66
152 147 68
142 135 58
137 130 53
146 141 56
150 153 58
172 193 0
170 193 0
170 194 0
169 191 0
172 194 0
170 193 0
170 190 0
166 189 0
171 193 0
172 195 0
171 193 0
173 194 0
175 198 0
168 192 0
174 194 0
172 193 0
169 192 0
171 194 0
175 198 0
172 196 0
170 194 0
173 197 0
171 195 0
174 196 0
176 198 0
171 195 0
172 195 0
176 199 0
175 198 0
173 196 0
176 198 0
173 196 0
171 195 0
175 198 0
170 194 0
173 196 0
175 198 0
173 197 0
173 197 0
172 195 0
173 197 0
174 196 0
175 198 0
176 198 0
174 197 0
174 198 0
173 196 0
172 195 0
170 194 0
172 194 0
171 195 0
174 198 0
175 196 0
174 198 0
173 195 0
175 198 0
176 198 0
172 195 0
175 198 0
171 195 0
175 198 0
173 197 0
171 194 0
173 197 0
174 197 0
171 194 0
174 198 0
173 197 0
175 198 0
176 198 0
175 198 0
173 196 0
174 198 0
172 196 0
171 194 0
177 199 0
173 196 0
173 197 0
174 196 0
175 197 0
173 197 0
174 198 0
175 198 0
174 197 0
172 197 0
172 195 0
175 198 0
172 196 0
175 198 0
175 198 0
172 196 0
175 198 0
170 194 0
173 197 0
174 198 0
171 195 0
174 198 0
174 198 0
174 197 0
175 198 0
172 197 0
173 196 0
175 198 0
172 196 0
176 198 0
174 198 0
174 198 0
175 197 0
175 198 0
174 198 0
174 197 0
173 197 0
176 198 0
176 199 0
175 198 0
175 198 0
172 197 0
173 196 0
175 198 0
178 199 0
175 198 0
173 197 0
173 196 0
174 197 0
177 199 0
173 196 0
174 198 0
172 195 0
175 198 0
174 197 0
173 197 0
174 198 0
174 197 0
171 195 0
176 199 0
172 197 0
173 196 0
173 197 0
174 198 0
173 197 0
174 197 0
174 198 0
173 197 0
173 196 0
174 197 0
173 197 0
173 196 0
174 197 0
174 198 0
173 197 0
174 197 0
172 196 0
171 195 0
174 198 0
173 196 0
174 198 0
175 198 0
171 195 0
177 199 0
174 197 0
168 192 0
174 197 0
174 198 0
172 197 0
174 197 0
172 196 0
173 196 0
176 197 0
173 197 0
172 197 0
175 198 0
172 195 0
173 197 0
174 197 0
173 197 0
174 197 0
173 196 0
172 197 0
174 198 0
171 195 0
174 198 0
174 197 0
172 197 0
175 198 0
174 198 0
173 196 0
170 194 0
174 197 0
174 198 0
174 198 0
172 195 0
176 198 0
170 194 0
175 197 0
171 195 0
174 196 0
170 194 0
172 196 0
172 196 0
174 198 0
174 197 0
173 197 0
172 196 0
175 197 0
172 196 0
172 195 0
173 196 0
174 198 0
173 196 0
174 197 0
172 195 0
172 194 0
173 196 0
176 199 0
174 198 0
172 195 0
171 194 0
169 193 0
173 196 0
172 195 0
172 194 0
172 196 0
174 197 0
165 189 0
175 198 0
174 197 0
169 192 0
169 192 0
173 196 0
173 196 0
168 192 0
170 194 0
171 194 0
171 195 0
169 192 0
173 195 0
171 194 0
169 193 0
165 188 0
172 196 0
169 193 0
173 197 0
169 193 0
173 196 0
167 192 0
170 194 0
170 195 0
168 191 0
168 192 0
169 192 0
172 195 0
166 189 0
170 192 0
82 113 169
63 100 181
64 100 179
62 99 176
63 99 175
62 99 175
62 99 181
62 99 177
62 99 179
62 99 175
62 99 178
62 99 175
62 99 177
62 99 179
63 99 179
62 100 181
62 99 179
62 99 179
63 99 177
61 98 179
62 99 175
62 99 179
62 99 179
62 99 179
62 99 179
63 100 181
63 99 175
61 98 175
62 99 177
63 99 171
62 99 173
62 99 181
62 99 175
62 99 179
63 99 173
62 99 179
62 99 179
62 98 171
61 98 177
62 99 177
62 99 177
61 98 171
62 99 177
62 99 175
62 99 173
62 98 171
61 98 173
61 98 173
62 99 175
62 98 169
62 99 177
62 99 175
62 99 177
62 98 169
63 99 175
62 99 175
62 99 173
62 99 177
62 99 173
62 98 169
61 98 171
61 98 173
63 100 175
61 98 169
61 98 170
62 99 175
62 99 169
62 99 171
62 99 167
62 98 173
61 97 156
61 98 171
62 98 173
63 99 177
62 97 162
61 96 154
62 98 166
60 95 161
60 96 159
62 97 165
60 96 161
58 92 149
57 88 140
45 50 38
57 62 38
61 67 34
58 65 47
52 59 31
81 85 51
81 83 44
80 85 58
102 104 62
102 104 65
108 109 71
125 124 71
123 124 75
117 117 61
131 131 73
130 129 75
136 135 69
148 145 81
149 145 79
148 145 73
139 137 77
151 147 76
148 145 81
151 148 78
156 151 91
156 152 83
166 160 90
144 142 76
163 158 88
164 159 89
172 164 90
161 156 83
164 158 80
163 157 80
166 159 79
168 162 85
164 157 82
169 161 84
161 155 68
166 159 82
168 162 90
167 159 95
162 155 77
171 163 87
173 165 91
153 147 79
167 160 77
165 158 77
167 160 74
153 147 70
154 149 70
159 152 75
159 153 72
154 147 72
160 153 72
145 139 64
153 147 70
135 129 48
136 131 48
141 134 62
141 135 64
126 120 60
116 111 39
165 181 22
174 194 0
173 197 0
171 192 0
171 190 0
172 193 0
171 194 0
171 194 0
172 195 0
172 194 0
175 197 0
175 197 0
171 194 0
172 194 0
174 195 0
171 193 0
173 196 0
169 192 0
165 186 0
171 194 0
171 196 0
172 194 0
174 197 0
172 195 0
173 196 0
170 193 0
176 199 0
172 194 0
172 195 0
172 196 0
175 197 0
174 198 0
175 198 0
174 198 0
172 197 0
171 194 0
175 198 0
172 194 0
176 198 0
175 198 0
173 196 0
172 195 0
173 196 0
172 194 0
173 196 0
174 197 0
175 197 0
175 197 0
174 196 0
176 199 0
175 197 0
172 195 0
174 197 0
174 198 0
172 197 0
174 198 0
172 196 0
175 198 0
172 195 0
172 196 0
174 196 0
177 199 0
173 196 0
174 198 0
171 194 0
173 196 0
169 193 0
172 196 0
174 197 0
176 199 0
173 197 0
173 197 0
175 198 0
173 197 0
173 197 0
172 197 0
174 198 0
173 197 0
171 196 0
175 198 0
173 196 0
174 198 0
173 196 0
172 195 0
175 198 0
175 198 0
174 197 0
177 199 0
172 196 0
173 196 0
173 196 0
173 196 0
175 198 0
172 197 0
174 197 0
171 195 0
171 196 0
174 198 0
174 197 0
174 198 0
172 196 0
176 199 0
175 198 0
174 198 0
175 198 0
172 197 0
173 196 0
174 198 0
176 199 0
174 198 0
176 199 0
173 196 0
174 198 0
172 196 0
173 197 0
175 198 0
173 197 0
173 197 0
174 198 0
175 198 0
176 198 0
174 197 0
172 197 0
175 198 0
174 198 0
172 196 0
174 197 0
175 198 0
176 199 0
173 197 0
174 197 0
172 196 0
174 198 0
173 197 0
174 198 0
171 195 0
176 199 0
175 198 0
176 199 0
173 197 0
172 196 0
174 197 0
175 198 0
173 196 0
174 197 0
173 196 0
171 195 0
173 196 0
173 196 0
172 196 0
171 195 0
175 198 0
177 199 0
172 196 0
174 198 0
173 195 0
173 197 0
176 199 0
173 197 0
171 194 0
176 199 0
172 195 0
173 197 0
173 197 0
176 199 0
173 196 0
171 196 0
173 197 0
172 195 0
174 197 0
174 197 0
173 197 0
172 196 0
176 198 0
172 195 0
171 195 0
176 199 0
174 197 0
173 197 0
173 196 0
175 197 0
173 197 0
172 196 0
171 195 0
175 198 0
173 197 0
172 196 0
172 196 0
169 194 0
173 197 0
175 198 0
173 197 0
172 197 0
175 198 0
170 193 0
172 196 0
172 195 0
172 196 0
172 197 0
171 194 0
172 196 0
173 197 0
171 194 0
172 197 0
178 200 0
174 198 0
175 198 0
170 193 0
172 195 0
170 193 0
172 195 0
170 194 0
175 198 0
174 197 0
170 194 0
169 192 0
173 196 0
172 195 0
172 195 0
170 194 0
175 198 0
171 195 0
173 196 0
173 197 0
174 197 0
172 195 0
171 194 0
167 190 0
170 194 0
173 195 0
170 194 0
167 190 0
171 195 0
173 196 0
171 195 0
168 192 0
166 189 0
174 197 0
170 193 0
173 196 0
172 195 0
172 195 0
174 198 0
173 195 0
175 197 0
172 195 0
169 192 0
167 191 0
169 193 0
170 195 0
169 192 0
164 188 0
171 193 0
151 175 72
64 100 177
63 100 177
63 100 177
63 99 175
63 100 179
62 99 177
62 99 179
62 99 179
62 99 175
62 99 177
62 99 173
62 99 181
62 99 177
63 100 181
62 99 179
62 99 177
62 99 180
61 98 175
62 99 179
61 98 173
62 99 179
62 99 177
62 99 175
62 99 177
61 98 177
61 98 179
62 99 179
63 100 181
62 99 175
62 99 175
63 99 179
62 99 171
62 99 175
63 99 177
62 99 173
63 100 179
62 99 179
61 98 173
62 99 175
63 99 175
63 100 177
63 100 179
62 99 173
63 100 179
62 99 173
62 99 175
61 98 169
62 99 179
62 99 171
61 98 171
61 98 171
64 100 179
62 99 171
62 98 173
63 99 171
62 99 177
62 98 173
62 98 171
63 100 173
63 99 173
62 99 173
62 99 173
61 97 163
63 99 169
62 98 167
62 98 173
63 99 167
62 99 173
62 99 171
62 98 169
62 98 170
63 99 165
61 97 161
63 99 175
61 98 161
62 98 165
62 98 170
62 98 163
62 98 170
60 95 154
60 95 160
62 98 165
60 95 161
46 61 75
60 63 37
63 67 42
83 88 55
75 80 54
74 77 49
81 87 56
94 97 65
117 116 65
106 104 54
127 126 74
101 104 63
119 119 65
133 131 79
139 135 76
133 132 77
127 126 74
130 130 78
151 145 81
139 136 80
139 137 73
152 148 79
161 156 83
154 149 76
155 152 77
159 155 78
165 158 94
165 160 88
158 153 79
167 161 81
166 161 91
164 159 78
159 154 79
161 155 68
172 165 93
171 164 87
166 160 79
161 155 80
169 162 80
167 161 79
169 162 88
172 164 88
165 159 75
166 159 84
158 153 66
161 156 70
157 151 70
165 159 82
167 160 87
159 152 74
156 150 75
164 156 82
153 147 66
152 147 58
153 146 74
154 147 74
145 138 66
143 138 62
140 135 60
142 136 51
125 119 48
131 126 45
135 130 56
167 188 0
169 188 0
172 193 0
171 195 0
171 193 0
169 190 0
171 193 0
169 189 0
172 194 0
174 197 0
172 195 0
168 192 0
172 194 0
170 190 0
169 191 0
171 193 0
173 195 0
173 194 0
175 198 0
169 191 0
172 195 0
172 195 0
171 194 0
173 195 0
172 194 0
174 195 0
175 197 0
167 192 0
173 195 0
173 193 0
174 196 0
172 193 0
173 196 0
173 195 0
173 195 0
173 196 0
175 198 0
172 194 0
171 194 0
174 198 0
172 197 0
174 197 0
171 193 0
175 198 0
172 195 0
177 198 0
173 195 0
173 197 0
175 198 0
174 198 0
175 197 0
173 196 0
173 195 0
175 198 0
175 198 0
175 198 0
171 195 0
174 197 0
174 198 0
174 197 0
173 196 0
173 197 0
174 198 0
175 197 0
175 197 0
172 194 0
176 199 0
173 197 0
174 196 0
175 198 0
170 194 0
174 197 0
177 199 0
173 197 0
175 197 0
175 197 0
172 195 0
175 198 0
172 196 0
174 198 0
176 199 0
175 198 0
174 198 0
173 196 0
175 198 0
173 197 0
175 198 0
175 198 0
175 198 0
174 197 0
174 197 0
174 197 0
175 198 0
173 197 0
176 198 0
176 198 0
176 198 0
176 199 0
172 196 0
173 197 0
174 197 0
175 198 0
173 196 0
173 197 0
174 198 0
177 199 0
174 197 0
173 197 0
174 198 0
173 197 0
175 198 0
176 199 0
174 198 0
172 197 0
176 198 0
175 198 0
173 196 0
172 196 0
171 195 0
175 198 0
172 196 0
173 197 0
171 195 0
176 199 0
171 195 0
174 198 0
174 197 0
175 198 0
173 196 0
174 198 0
175 198 0
172 195 0
171 195 0
174 198 0
175 197 0
174 198 0
172 195 0
174 198 0
175 198 0
174 198 0
173 196 0
173 197 0
171 195 0
175 198 0
175 198 0
172 196 0
171 195 0
174 198 0
171 194 0
172 195 0
175 198 0
177 199 0
174 197 0
172 196 0
172 196 0
177 198 0
173 196 0
173 197 0
172 197 0
176 199 0
175 198 0
173 197 0
175 198 0
177 199 0
177 199 0
174 198 0
174 197 0
172 197 0
172 196 0
175 198 0
174 198 0
173 197 0
175 198 0
173 196 0
174 197 0
169 192 0
173 196 0
169 193 0
174 197 0
172 196 0
173 196 0
171 194 0
172 196 0
172 196 0
174 196 0
173 197 0
175 198 0
174 197 0
170 193 0
170 193 0
175 198 0
175 197 0
171 195 0
173 196 0
175 198 0
172 196 0
175 198 0
174 198 0
172 196 0
174 198 0
170 194 0
171 194 0
171 194 0
173 196 0
169 192 0
171 195 0
171 194 0
173 196 0
174 197 0
171 194 0
174 197 0
175 198 0
175 198 0
174 197 0
174 197 0
174 198 0
172 197 0
174 197 0
174 196 0
171 195 0
172 194 0
174 197 0
170 194 0
173 196 0
172 196 0
169 192 0
171 194 0
172 195 0
173 196 0
170 193 0
167 190 0
174 196 0
169 193 0
167 191 0
174 196 0
169 191 0
170 193 0
169 192 0
168 191 0
170 194 0
169 191 0
172 195 0
169 192 0
169 193 0
168 192 0
171 195 0
168 191 0
167 190 0
162 186 0
168 191 0
169 192 0
171 195 0
167 190 0
132 157 111
63 99 173
63 99 173
62 99 177
62 99 175
62 99 181
62 99 181
62 99 171
62 99 173
62 99 179
62 99 179
62 99 171
63 100 177
62 99 177
61 97 172
63 99 175
62 99 177
61 98 171
61 98 174
61 98 179
62 99 177
63 100 181
61 97 175
62 99 169
63 100 179
62 100 181
63 100 177
62 99 179
63 99 175
64 101 177
62 99 173
62 99 175
63 100 181
62 99 179
63 99 171
62 98 171
62 99 175
63 100 177
63 100 175
62 99 177
63 100 177
62 99 171
61 98 175
61 98 167
62 99 177
62 99 173
63 100 177
62 99 177
61 98 171
63 99 173
61 98 169
62 99 179
62 99 173
62 99 173
62 98 167
61 98 167
63 99 171
63 100 175
62 98 171
62 99 177
62 99 175
62 99 175
61 97 167
62 99 163
62 99 171
62 98 171
62 99 175
62 98 165
60 96 155
62 98 162
62 98 167
61 97 161
61 97 159
61 97 169
63 99 165
63 100 173
61 97 160
62 99 168
60 95 154
62 98 162
61 97 163
62 98 160
59 93 144
60 93 155
56 80 118
54 59 33
64 67 38
66 72 38
70 74 43
77 80 47
83 87 50
94 97 48
115 115 64
108 108 63
105 107 52
123 121 70
126 123 73
126 126 81
124 123 58
120 118 63
121 121 68
145 141 78
140 137 70
146 143 90
150 146 76
147 144 81
157 152 76
149 147 80
154 150 77
156 153 80
151 146 80
165 157 85
173 165 88
163 157 80
161 156 84
162 157 80
163 157 74
165 159 88
168 162 84
168 161 84
164 158 75
171 164 87
167 161 77
162 156 79
164 157 75
167 160 80
161 154 70
162 155 82
167 159 84
169 162 87
153 146 72
160 153 77
161 155 77
159 153 75
154 148 66
149 143 66
156 150 74
151 145 60
143 138 64
151 146 62
145 139 62
143 138 64
142 136 60
147 141 56
119 115 42
130 126 45
141 149 32
169 191 0
169 189 0
168 189 0
173 193 0
169 190 0
171 192 0
174 195 0
171 194 0
169 189 0
171 192 0
168 190 0
170 194 0
167 190 0
173 195 0
175 198 0
174 197 0
172 195 0
173 195 0
175 195 0
172 194 0
171 192 0
173 195 0
168 189 0
171 195 0
171 194 0
173 196 0
172 195 0
174 197 0
176 198 0
174 197 0
172 194 0
172 195 0
173 195 0
171 196 0
173 196 0
175 197 0
173 196 0
174 197 0
172 194 0
172 196 0
172 196 0
174 197 0
175 198 0
174 197 0
175 198 0
173 197 0
173 197 0
172 196 0
174 196 0
175 198 0
173 196 0
174 198 0
175 197 0
170 192 0
175 197 0
176 198 0
174 197 0
174 196 0
173 195 0
175 198 0
174 197 0
172 196 0
174 198 0
173 196 0
175 198 0
175 197 0
173 197 0
175 198 0
173 195 0
174 197 0
171 194 0
174 198 0
173 197 0
175 198 0
174 198 0
174 197 0
173 197 0
177 199 0
172 195 0
174 197 0
175 198 0
173 196 0
175 198 0
171 195 0
172 195 0
173 196 0
172 196 0
173 197 0
175 198 0
172 194 0
174 197 0
171 196 0
173 197 0
173 197 0
174 197 0
176 198 0
172 196 0
176 199 0
176 199 0
173 197 0
174 197 0
174 198 0
172 197 0
173 196 0
174 197 0
174 198 0
174 197 0
173 196 0
172 197 0
172 195 0
171 195 0
174 197 0
175 198 0
177 199 0
173 197 0
175 198 0
176 199 0
175 198 0
173 197 0
174 198 0
175 198 0
173 197 0
175 198 0
174 198 0
174 197 0
175 198 0
172 197 0
175 198 0
174 198 0
175 198 0
174 198 0
173 196 0
176 199 0
172 196 0
173 197 0
174 197 0
176 198 0
175 198 0
174 197 0
176 198 0
173 197 0
172 197 0
171 195 0
171 195 0
177 199 0
172 195 0
171 195 0
176 199 0
176 198 0
173 196 0
174 197 0
174 196 0
173 197 0
172 196 0
175 198 0
175 198 0
175 198 0
175 198 0
175 198 0
172 196 0
172 195 0
170 194 0
174 198 0
173 197 0
176 199 0
176 198 0
173 197 0
172 196 0
172 197 0
173 196 0
171 195 0
171 194 0
173 196 0
173 196 0
170 194 0
174 197 0
173 196 0
169 194 0
173 197 0
170 194 0
175 197 0
174 198 0
172 196 0
171 195 0
167 191 0
174 197 0
173 196 0
173 196 0
170 194 0
170 193 0
173 196 0
174 198 0
174 198 0
174 197 0
175 198 0
175 197 0
171 195 0
168 192 0
173 196 0
172 196 0
169 193 0
172 195 0
171 193 0
173 197 0
173 197 0
171 194 0
171 193 0
175 198 0
173 196 0
170 194 0
172 195 0
170 194 0
175 198 0
173 196 0
170 194 0
175 196 0
171 195 0
172 195 0
171 195 0
170 194 0
173 196 0
166 190 0
172 195 0
170 193 0
170 194 0
169 192 0
175 198 0
166 191 0
171 195 0
164 187 0
171 195 0
165 190 0
170 194 0
169 192 0
174 197 0
168 192 0
169 192 0
169 193 0
174 197 0
171 194 0
168 192 0
166 190 0
170 193 0
172 195 0
171 192 0
165 187 0
172 195 0
172 194 0
169 192 0
168 191 0
172 196 0
164 187 0
172 195 0
101 130 151
63 99 175
62 99 177
62 99 177
62 99 177
62 99 175
62 99 177
63 100 179
62 99 179
63 100 179
62 99 179
62 98 173
62 99 181
62 99 179
62 99 179
62 99 175
62 98 173
62 99 179
61 98 171
63 100 179
61 98 177
63 100 181
61 98 177
62 99 179
63 99 173
62 99 179
62 99 175
62 99 177
62 99 175
62 99 179
62 98 173
63 99 177
63 100 181
63 100 179
62 99 175
62 99 173
62 98 173
63 99 175
62 99 177
62 98 173
62 98 167
61 98 171
63 100 181
62 99 174
62 99 175
62 99 177
62 99 171
62 99 173
62 98 171
62 99 171
62 99 177
63 100 177
62 98 161
63 99 175
63 99 177
62 99 173
62 99 169
62 99 175
61 98 167
62 99 173
62 99 177
62 99 177
62 99 171
62 99 173
62 99 173
62 99 173
63 99 173
62 99 171
61 97 161
62 98 167
61 98 173
63 99 167
63 100 173
62 98 163
63 99 173
62 98 162
62 98 163
63 99 170
62 98 161
63 99 172
62 98 165
61 97 166
61 96 155
60 95 156
56 86 134
58 60 25
62 67 36
61 67 46
64 69 42
80 82 42
94 98 47
92 94 49
98 102 56
94 95 54
103 104 48
105 105 63
135 132 71
126 123 62
130 128 72
139 136 74
131 131 67
132 130 71
131 128 71
143 138 70
143 140 81
150 146 78
148 144 72
157 153 79
160 154 84
161 155 84
149 147 67
163 156 80
159 155 85
166 159 88
159 153 69
167 162 74
169 163 87
168 160 82
163 157 82
164 158 79
174 166 90
168 161 80
163 156 77
156 150 66
159 153 75
162 154 77
161 155 75
159 154 68
166 160 79
172 165 88
157 152 70
160 153 77
166 159 84
152 145 72
164 158 72
160 153 72
156 150 66
151 143 75
147 142 62
148 142 62
142 136 62
148 143 58
132 129 45
141 135 53
140 136 48
128 124 51
162 174 39
172 192 0
173 195 0
172 193 0
171 193 0
170 189 0
173 195 0
171 193 0
172 195 0
172 194 0
173 194 0
170 193 0
168 191 0
175 197 0
173 195 0
163 184 0
175 198 0
171 194 0
171 191 0
173 195 0
172 197 0
171 192 0
172 193 0
170 192 0
173 197 0
172 197 0
171 193 0
173 195 0
172 195 0
173 194 0
173 196 0
169 193 0
168 190 0
175 197 0
173 196 0
172 195 0
172 196 0
174 196 0
174 196 0
173 196 0
174 196 0
172 196 0
174 195 0
173 195 0
172 196 0
175 196 0
173 195 0
174 198 0
173 195 0
173 196 0
171 196 0
173 193 0
176 197 0
173 197 0
173 197 0
175 198 0
175 197 0
173 196 0
172 195 0
176 199 0
174 197 0
174 198 0
173 195 0
175 198 0
174 197 0
177 199 0
175 198 0
174 198 0
175 198 0
173 197 0
172 196 0
173 197 0
173 197 0
173 195 0
172 195 0
171 195 0
173 197 0
174 198 0
174 198 0
175 198 0
172 196 0
172 195 0
173 196 0
174 198 0
175 198 0
174 197 0
174 197 0
173 194 0
176 198 0
173 197 0
173 197 0
173 197 0
174 197 0
175 198 0
175 198 0
173 197 0
174 197 0
173 197 0
176 199 0
174 197 0
173 196 0
175 198 0
174 198 0
175 198 0
173 196 0
174 198 0
174 197 0
176 199 0
174 198 0
173 197 0
176 198 0
174 197 0
174 197 0
174 197 0
173 197 0
172 196 0
172 196 0
174 198 0
173 197 0
174 198 0
177 199 0
173 197 0
174 198 0
174 197 0
175 198 0
174 197 0
173 196 0
175 198 0
174 197 0
174 197 0
174 198 0
172 195 0
175 198 0
175 198 0
175 198 0
170 194 0
175 198 0
176 199 0
173 197 0
175 197 0
174 198 0
175 198 0
173 195 0
173 196 0
173 196 0
174 198 0
174 197 0
174 197 0
172 196 0
175 198 0
173 197 0
170 195 0
174 198 0
175 198 0
174 198 0
174 198 0
171 194 0
172 196 0
173 197 0
171 195 0
173 197 0
175 198 0
171 196 0
175 198 0
174 197 0
175 198 0
174 197 0
173 196 0
171 194 0
177 198 0
174 198 0
172 197 0
175 198 0
174 198 0
174 198 0
171 194 0
173 197 0
174 198 0
174 197 0
174 197 0
173 196 0
170 195 0
175 198 0
172 197 0
171 196 0
175 198 0
172 196 0
169 193 0
171 194 0
168 192 0
171 195 0
173 196 0
174 197 0
173 196 0
172 195 0
173 196 0
172 195 0
174 198 0
168 191 0
174 198 0
174 198 0
173 196 0
172 196 0
172 195 0
175 198 0
172 196 0
171 194 0
170 195 0
171 195 0
171 195 0
173 197 0
172 195 0
174 198 0
171 193 0
173 196 0
174 197 0
171 195 0
169 193 0
172 195 0
170 194 0
173 197 0
172 196 0
173 196 0
168 192 0
174 198 0
173 197 0
169 193 0
165 188 0
164 187 0
174 197 0
171 194 0
173 196 0
167 192 0
170 194 0
168 191 0
166 189 0
173 196 0
170 194 0
174 197 0
169 192 0
164 187 0
167 192 0
170 194 0
172 195 0
171 195 0
170 193 0
165 188 0
171 194 0
167 190 0
170 192 0
172 195 0
165 188 0
171 194 0
170 194 25
74 108 169
63 99 173
63 100 177
62 99 177
62 99 179
63 99 175
61 98 175
63 99 175
62 99 179
62 99 177
60 97 169
63 100 177
63 100 177
62 99 179
62 99 175
63 100 177
62 99 177
63 99 177
62 99 179
63 100 179
62 99 175
62 99 171
61 98 177
62 99 175
62 99 179
62 99 171
62 99 171
61 98 179
61 98 173
63 100 177
62 99 175
62 98 175
63 100 173
61 98 175
63 99 175
62 99 177
61 98 169
61 98 169
63 99 175
62 99 175
62 99 177
63 99 173
62 99 177
62 99 177
62 99 175
63 100 175
62 99 177
62 98 169
62 99 179
61 98 169
62 99 175
61 97 167
63 100 175
62 99 175
62 98 169
61 98 169
62 99 177
62 98 165
64 100 177
62 98 159
61 98 165
61 98 167
62 99 171
63 99 175
62 98 167
63 99 171
61 98 161
62 99 165
62 98 167
62 99 171
62 98 163
62 97 162
62 98 163
63 100 173
61 97 162
61 97 164
63 98 166
61 97 162
61 97 164
62 98 166
61 96 160
61 95 156
59 94 156
59 93 149
54 84 131
54 61 36
74 76 32
51 59 35
65 68 34
78 83 45
88 89 52
91 91 41
94 96 54
104 106 69
101 102 51
122 121 64
121 119 62
116 114 56
127 125 64
127 126 67
126 126 68
133 131 74
132 130 59
140 136 73
150 145 77
145 140 72
158 152 90
151 146 73
147 143 70
165 158 84
150 146 73
155 151 75
158 153 68
171 163 93
165 160 73
166 160 89
158 152 70
160 154 75
163 157 82
164 157 77
162 155 80
161 156 68
158 152 64
154 148 64
166 160 76
162 155 75
165 157 84
168 161 77
163 157 75
147 141 68
153 145 70
154 149 70
151 145 75
150 145 56
157 152 64
156 150 62
140 134 64
152 146 58
152 146 66
142 136 66
146 141 62
142 137 60
140 134 60
127 122 56
130 125 51
140 141 42
172 192 0
171 192 0
170 192 0
171 193 0
166 186 0
163 183 0
166 188 0
170 192 0
170 190 0
174 196 0
171 192 0
170 193 0
170 190 0
171 194 0
168 191 0
174 197 0
175 197 0
172 195 0
171 194 0
171 195 0
174 198 0
174 198 0
172 193 0
173 196 0
169 191 0
172 193 0
174 196 0
175 196 0
174 197 0
173 196 0
174 195 0
171 193 0
173 196 0
169 193 0
176 198 0
170 193 0
175 197 0
171 194 0
172 195 0
174 197 0
171 193 0
174 196 0
173 196 0
173 196 0
175 197 0
175 197 0
172 195 0
175 197 0
173 197 0
174 196 0
171 194 0
172 194 0
173 197 0
175 197 0
176 199 0
173 197 0
174 197 0
172 196 0
175 198 0
177 198 0
173 196 0
175 198 0
174 197 0
174 197 0
174 196 0
173 197 0
175 197 0
175 198 0
168 191 0
173 196 0
175 198 0
175 197 0
173 195 0
172 196 0
173 197 0
172 196 0
175 198 0
175 198 0
173 197 0
172 196 0
173 197 0
173 197 0
175 197 0
175 198 0
174 197 0
172 196 0
174 198 0
174 197 0
173 196 0
175 197 0
175 198 0
174 197 0
177 199 0
175 198 0
173 197 0
173 197 0
172 197 0
173 197 0
173 197 0
175 198 0
172 196 0
175 198 0
175 198 0
176 199 0
175 197 0
175 198 0
174 197 0
168 191 0
175 198 0
175 198 0
173 196 0
176 199 0
174 198 0
176 199 0
168 193 0
173 197 0
175 198 0
175 198 0
174 198 0
174 198 0
173 197 0
174 198 0
175 198 0
174 198 0
175 198 0
171 195 0
174 197 0
174 197 0
174 197 0
173 197 0
176 199 0
174 197 0
174 198 0
172 196 0
172 197 0
174 198 0
174 197 0
170 195 0
174 197 0
174 197 0
174 197 0
173 196 0
173 196 0
173 197 0
174 197 0
173 196 0
172 196 0
173 195 0
174 197 0
173 197 0
171 195 0
175 198 0
173 195 0
174 197 0
172 197 0
175 198 0
172 196 0
174 197 0
173 196 0
175 198 0
171 195 0
174 197 0
176 198 0
176 199 0
172 196 0
176 199 0
169 193 0
173 196 0
172 196 0
172 196 0
175 198 0
173 196 0
173 196 0
174 198 0
174 198 0
173 197 0
174 197 0
172 195 0
173 196 0
171 196 0
172 195 0
173 196 0
174 197 0
172 197 0
174 197 0
173 197 0
170 193 0
172 196 0
174 197 0
174 197 0
172 196 0
174 198 0
171 194 0
173 196 0
172 196 0
174 197 0
173 197 0
174 197 0
170 195 0
172 196 0
169 194 0
171 194 0
175 198 0
172 196 0
176 198 0
173 197 0
172 196 0
173 196 0
172 196 0
172 196 0
170 194 0
175 198 0
169 193 0
176 199 0
169 192 0
172 196 0
169 192 0
170 193 0
172 196 0
173 196 0
166 189 0
171 195 0
172 196 0
171 194 0
168 191 0
170 194 0
165 189 0
168 192 0
174 198 0
173 196 0
168 192 0
170 194 0
172 194 0
172 195 0
168 191 0
172 197 0
170 194 0
168 191 0
175 198 0
170 193 0
174 197 0
170 194 0
171 195 0
168 192 0
164 190 0
166 190 0
171 194 0
169 192 0
167 191 0
170 193 0
171 194 0
167 190 0
165 189 0
154 176 76
64 100 175
63 99 171
63 100 175
63 100 177
62 99 177
62 99 173
63 100 179
62 99 179
61 97 167
61 98 171
61 98 171
63 99 175
62 99 175
63 100 179
62 99 175
62 99 175
63 99 175
62 99 179
61 98 175
62 99 173
62 99 179
61 98 173
62 99 179
62 99 181
62 99 177
62 99 175
62 99 175
62 99 173
62 99 175
62 99 175
61 98 171
62 99 177
61 98 177
63 99 175
63 100 175
62 99 175
61 98 163
62 99 173
62 98 171
61 98 161
62 98 171
61 98 169
61 98 167
63 100 175
61 98 167
61 98 163
62 99 173
63 99 169
62 99 177
63 99 171
60 97 167
62 99 175
62 99 171
62 98 167
61 98 177
62 99 173
62 99 171
61 98 171
62 99 171
62 98 169
61 98 163
61 98 173
61 98 169
62 99 169
61 98 171
62 98 165
61 98 165
62 98 157
62 98 167
62 98 169
62 98 165
61 98 163
62 98 163
62 99 167
64 100 167
62 98 167
60 96 154
63 99 169
62 97 158
63 99 170
62 97 157
60 94 162
61 96 160
59 94 150
57 90 130
62 70 46
48 52 28
69 72 29
73 77 28
79 81 44
83 86 45
91 93 50
101 103 54
113 112 61
118 117 59
91 94 60
123 122 51
120 119 61
119 120 56
128 125 62
147 142 76
136 133 71
131 129 60
143 138 64
147 143 69
142 139 69
146 140 75
149 144 75
152 148 78
152 147 73
150 148 61
159 154 79
156 152 71
170 163 89
157 151 77
153 147 68
166 158 79
152 147 69
167 159 70
162 156 81
159 153 70
162 157 75
157 151 66
156 150 62
161 154 74
165 158 74
164 157 72
159 153 79
152 146 62
158 153 70
163 156 74
156 148 58
151 146 72
158 152 70
141 137 48
158 152 70
152 147 60
151 144 64
146 141 68
140 134 62
137 132 51
141 135 58
143 136 60
138 134 58
122 117 45
149 163 22
168 187 0
168 190 0
172 193 0
173 194 0
172 194 0
170 192 0
163 185 0
174 194 0
172 195 0
169 190 0
173 195 0
169 191 0
172 195 0
169 190 0
171 192 0
173 196 0
171 194 0
173 195 0
174 197 0
172 195 0
173 196 0
172 193 0
174 197 0
172 195 0
171 194 0
173 196 0
174 196 0
171 194 0
174 195 0
174 196 0
170 195 0
175 196 0
171 193 0
172 196 0
171 193 0
172 196 0
170 193 0
172 194 0
171 193 0
173 193 0
176 198 0
173 196 0
173 197 0
173 194 0
173 196 0
172 195 0
173 197 0
172 196 0
173 195 0
174 197 0
172 196 0
171 194 0
174 196 0
175 198 0
171 194 0
170 194 0
174 198 0
171 195 0
176 198 0
174 197 0
172 194 0
174 198 0
174 198 0
174 197 0
176 198 0
173 197 0
170 194 0
175 198 0
171 195 0
173 196 0
175 198 0
175 197 0
175 197 0
175 198 0
175 197 0
174 198 0
173 197 0
171 194 0
173 196 0
175 197 0
173 195 0
174 197 0
176 199 0
173 197 0
172 195 0
172 196 0
173 195 0
173 197 0
174 197 0
173 197 0
174 198 0
173 197 0
173 197 0
173 197 0
178 200 0
174 196 0
175 198 0
173 197 0
174 197 0
174 198 0
174 198 0
173 197 0
174 198 0
173 197 0
174 197 0
173 196 0
174 198 0
171 196 0
175 198 0
172 197 0
175 198 0
173 196 0
171 195 0
174 198 0
174 198 0
171 194 0
172 195 0
174 198 0
177 198 0
175 198 0
174 198 0
173 197 0
175 198 0
173 196 0
172 195 0
174 197 0
176 199 0
174 198 0
174 198 0
175 198 0
174 198 0
175 197 0
171 195 0
175 198 0
171 195 0
172 196 0
171 196 0
174 198 0
175 198 0
173 197 0
174 197 0
173 197 0
171 195 0
173 197 0
171 195 0
175 198 0
170 194 0
174 198 0
174 197 0
175 198 0
176 199 0
176 199 0
173 196 0
174 198 0
174 197 0
177 198 0
173 197 0
175 198 0
174 198 0
172 195 0
174 197 0
173 197 0
173 197 0
173 197 0
175 198 0
171 195 0
175 198 0
170 195 0
173 195 0
174 197 0
170 193 0
172 195 0
173 197 0
174 197 0
173 197 0
177 199 0
174 196 0
172 195 0
174 197 0
176 199 0
175 197 0
174 197 0
174 197 0
177 199 0
171 195 0
175 198 0
173 196 0
171 196 0
174 198 0
170 194 0
172 195 0
174 198 0
172 195 0
171 194 0
170 195 0
173 196 0
171 195 0
175 197 0
172 196 0
175 198 0
172 195 0
174 197 0
173 197 0
174 197 0
171 195 0
176 199 0
171 195 0
174 197 0
172 196 0
172 196 0
171 195 0
173 195 0
172 195 0
169 193 0
173 195 0
171 194 0
166 189 0
173 196 0
170 194 0
173 196 0
167 191 0
170 194 0
171 195 0
171 196 0
171 195 0
171 195 0
171 195 0
171 193 0
170 194 0
169 193 0
171 195 0
169 194 0
169 193 0
174 197 0
173 197 0
172 195 0
174 196 0
169 193 0
165 188 0
170 194 0
174 196 0
168 191 0
168 190 0
165 189 0
173 196 0
167 190 0
166 190 0
171 194 0
164 187 0
166 189 0
170 194 0
163 187 0
168 191 0
132 155 111
63 99 175
63 100 177
63 100 175
63 99 171
63 99 178
63 99 173
61 97 165
62 98 178
61 98 176
63 99 179
62 99 169
62 99 177
62 99 175
62 99 177
62 99 175
61 98 174
62 99 171
61 98 175
63 99 175
62 99 171
63 100 179
62 99 173
62 99 171
62 98 171
62 99 175
62 98 169
62 99 177
60 97 169
62 99 175
62 99 179
62 99 175
62 99 175
62 99 175
62 98 169
62 99 173
61 98 173
62 98 169
62 99 179
62 99 175
64 100 173
64 100 179
62 98 167
63 99 177
62 99 175
62 99 173
63 100 173
63 100 175
61 98 169
64 100 179
63 100 179
62 98 171
63 100 179
62 99 171
63 99 165
62 99 175
61 97 167
63 100 173
62 99 169
62 99 173
63 99 173
63 99 167
63 99 171
62 98 169
62 99 173
62 99 173
62 99 169
62 98 163
62 99 165
61 98 173
61 98 167
62 98 167
61 97 157
63 99 171
63 98 162
61 98 163
61 97 160
62 98 157
61 97 157
62 97 158
61 97 161
62 98 162
60 96 147
63 98 162
58 92 153
59 93 147
48 69 91
63 66 24
46 51 29
59 64 29
63 67 32
87 90 47
89 91 49
82 84 46
81 84 43
107 108 48
85 89 43
103 104 54
118 116 59
121 120 48
133 131 67
122 120 49
131 130 60
131 129 59
153 148 82
138 134 74
144 138 69
143 139 66
149 144 76
149 146 74
155 149 67
163 156 80
159 154 74
147 144 65
159 154 76
158 152 75
163 157 75
162 155 77
156 151 60
155 150 58
164 156 75
163 156 87
154 149 67
161 155 75
166 159 80
156 149 72
154 149 66
156 149 62
152 146 66
154 147 68
156 150 70
153 147 53
161 155 64
161 155 74
155 148 70
146 142 62
156 149 68
149 143 68
144 139 58
136 131 58
141 136 53
148 143 58
141 134 53
139 134 45
116 112 39
125 123 48
170 191 0
164 185 0
170 190 0
170 191 0
168 188 0
170 190 0
170 192 0
170 190 0
171 192 0
167 188 0
171 191 0
171 192 0
172 194 0
171 192 0
171 191 0
170 191 0
172 195 0
172 195 0
172 195 0
173 194 0
171 193 0
172 195 0
175 197 0
175 197 0
172 196 0
174 197 0
174 196 0
172 194 0
172 197 0
172 197 0
169 190 0
175 196 0
175 197 0
173 196 0
176 198 0
173 196 0
171 193 0
173 196 0
175 197 0
171 195 0
175 198 0
172 194 0
173 197 0
172 194 0
174 196 0
173 197 0
174 195 0
173 196 0
174 196 0
174 197 0
175 198 0
173 195 0
175 198 0
173 196 0
174 197 0
176 198 0
174 198 0
176 199 0
174 197 0
174 197 0
173 197 0
176 198 0
172 196 0
173 196 0
175 198 0
178 200 0
173 196 0
171 194 0
174 198 0
172 195 0
174 197 0
174 197 0
172 196 0
173 197 0
172 197 0
175 198 0
172 197 0
173 197 0
175 198 0
174 197 0
175 198 0
173 197 0
176 199 0
172 196 0
176 199 0
174 196 0
171 194 0
175 198 0
176 198 0
173 196 0
176 198 0
176 198 0
172 197 0
172 197 0
174 197 0
173 197 0
174 197 0
173 196 0
174 197 0
172 196 0
175 198 0
172 196 0
175 198 0
173 197 0
174 197 0
173 197 0
174 198 0
175 198 0
174 198 0
175 198 0
173 196 0
173 197 0
173 197 0
174 198 0
174 198 0
171 195 0
174 198 0
175 198 0
175 198 0
176 199 0
173 197 0
175 198 0
175 198 0
173 196 0
173 197 0
175 198 0
176 199 0
175 198 0
176 198 0
174 198 0
174 198 0
173 197 0
176 199 0
174 197 0
175 197 0
174 198 0
174 198 0
175 198 0
173 196 0
173 196 0
175 198 0
172 196 0
173 197 0
172 196 0
174 198 0
174 198 0
172 196 0
174 198 0
176 198 0
174 198 0
171 195 0
176 199 0
172 195 0
176 199 0
176 198 0
171 195 0
173 197 0
173 197 0
174 198 0
172 195 0
175 197 0
175 198 0
174 198 0
173 196 0
172 197 0
176 199 0
172 196 0
174 197 0
175 198 0
172 195 0
174 197 0
175 198 0
175 198 0
175 198 0
174 198 0
171 195 0
172 196 0
172 196 0
173 197 0
171 194 0
171 195 0
174 197 0
176 199 0
171 195 0
174 197 0
169 194 0
176 199 0
171 195 0
173 196 0
174 197 0
173 197 0
175 198 0
176 198 0
169 194 0
175 198 0
173 196 0
170 194 0
168 191 0
173 195 0
168 192 0
173 196 0
174 198 0
174 197 0
172 196 0
169 193 0
172 196 0
174 197 0
172 196 0
168 193 0
172 195 0
173 196 0
171 195 0
172 195 0
169 192 0
174 196 0
173 197 0
168 192 0
171 194 0
171 194 0
173 197 0
174 197 0
168 191 0
170 194 0
168 192 0
174 197 0
170 194 0
170 193 0
172 195 0
171 194 0
171 193 0
169 193 0
171 195 0
171 195 0
166 190 0
170 193 0
170 194 0
169 192 0
169 192 0
168 191 0
172 196 0
172 195 0
167 190 0
169 191 0
170 193 0
166 190 0
170 193 0
171 195 0
165 188 0
170 195 0
169 191 0
164 188 0
166 190 0
167 191 0
168 191 0
123 149 133
64 101 175
63 100 175
63 99 176
63 100 175
62 99 178
62 99 175
63 100 177
62 99 175
62 99 169
62 99 179
62 99 173
62 99 175
62 98 169
62 99 169
62 99 177
62 99 175
61 98 174
62 99 175
63 99 171
62 99 177
62 99 179
63 99 177
62 98 173
62 99 175
61 98 169
62 99 177
62 98 167
62 99 165
62 99 177
63 99 171
62 99 171
62 99 177
62 99 175
63 99 167
62 99 175
62 98 173
63 99 171
62 99 175
62 99 173
61 98 171
63 100 177
62 99 175
62 99 177
62 98 171
61 98 169
60 97 167
62 98 169
61 98 173
62 98 163
62 99 173
62 98 169
63 99 175
62 98 169
62 98 171
62 98 171
61 98 169
63 99 169
62 98 169
61 98 169
62 99 169
62 98 167
63 99 175
62 99 169
62 98 171
62 98 167
64 100 173
62 98 167
62 97 161
62 99 167
62 98 167
62 99 169
62 98 169
62 98 163
62 98 159
63 99 165
63 99 165
60 96 142
61 97 155
63 99 170
61 96 147
61 97 162
62 97 160
61 95 156
60 95 159
61 96 159
60 79 96
43 50 26
57 62 29
58 63 23
73 76 40
75 78 31
84 87 45
93 94 40
108 106 53
106 107 54
99 101 46
97 101 46
126 125 55
123 122 48
119 120 61
124 120 52
128 126 61
141 136 58
139 135 73
140 136 59
145 141 64
138 135 51
151 146 74
140 138 66
153 149 61
160 152 73
157 151 70
154 149 68
154 149 64
159 153 70
156 150 74
156 150 67
160 154 70
164 158 75
167 160 84
164 157 72
160 153 77
164 156 74
170 163 84
158 153 68
158 153 72
153 148 62
156 148 70
161 155 68
144 138 53
157 150 66
152 147 66
149 142 58
151 145 64
150 144 62
142 136 48
145 140 56
134 131 45
140 135 53
136 130 51
141 135 48
135 129 51
137 131 53
117 113 36
153 167 16
171 192 0
171 191 0
171 190 0
170 189 0
169 188 0
170 192 0
168 187 0
163 183 0
167 186 0
171 192 0
171 190 0
174 196 0
173 195 0
172 193 0
169 190 0
172 192 0
169 190 0
175 197 0
170 191 0
171 193 0
171 191 0
172 192 0
171 193 0
175 197 0
169 192 0
172 194 0
169 190 0
168 189 0
170 193 0
173 195 0
171 193 0
172 193 0
171 195 0
171 193 0
173 196 0
173 196 0
173 196 0
175 198 0
172 196 0
170 192 0
171 194 0
172 195 0
172 194 0
172 194 0
173 197 0
172 194 0
173 196 0
171 195 0
168 189 0
175 194 0
172 195 0
174 197 0
174 196 0
174 197 0
172 195 0
174 197 0
173 196 0
174 197 0
172 196 0
176 198 0
173 197 0
173 196 0
174 196 0
174 196 0
177 199 0
174 195 0
174 197 0
172 194 0
175 198 0
172 194 0
171 195 0
175 198 0
173 197 0
173 196 0
175 198 0
172 195 0
173 196 0
173 196 0
173 197 0
173 197 0
175 198 0
172 196 0
173 196 0
174 197 0
171 193 0
171 194 0
173 196 0
171 194 0
173 196 0
173 196 0
173 197 0
174 196 0
175 197 0
175 198 0
175 198 0
174 198 0
174 198 0
175 198 0
175 197 0
173 196 0
173 196 0
173 197 0
175 197 0
173 197 0
176 199 0
173 196 0
173 196 0
176 199 0
173 197 0
175 198 0
174 198 0
173 197 0
177 199 0
172 196 0
175 198 0
174 198 0
174 197 0
175 198 0
172 196 0
175 198 0
174 198 0
171 195 0
174 198 0
172 195 0
175 198 0
173 197 0
173 197 0
173 197 0
174 198 0
175 198 0
174 198 0
174 197 0
173 196 0
173 197 0
172 197 0
173 196 0
173 197 0
174 198 0
175 198 0
174 198 0
172 197 0
174 198 0
174 198 0
176 198 0
174 197 0
174 197 0
173 196 0
174 197 0
177 199 0
175 198 0
172 196 0
175 198 0
172 196 0
174 198 0
169 194 0
174 198 0
174 198 0
175 198 0
173 196 0
172 196 0
172 197 0
171 195 0
174 196 0
173 196 0
172 195 0
174 198 0
175 198 0
171 196 0
176 199 0
176 198 0
173 197 0
173 197 0
174 198 0
172 195 0
172 196 0
172 197 0
175 198 0
173 196 0
174 198 0
176 198 0
172 195 0
174 198 0
173 196 0
173 197 0
176 199 0
170 194 0
172 196 0
174 197 0
170 194 0
172 195 0
174 198 0
171 195 0
175 197 0
167 191 0
173 196 0
171 196 0
164 189 0
168 194 0
170 194 0
170 194 0
172 195 0
170 194 0
170 192 0
174 197 0
171 194 0
173 195 0
170 193 0
176 199 0
170 193 0
169 194 0
171 194 0
173 195 0
175 198 0
169 193 0
169 192 0
173 195 0
171 194 0
166 190 0
161 185 0
171 194 0
173 196 0
174 198 0
174 197 0
172 195 0
171 194 0
175 198 0
172 195 0
172 195 0
174 197 0
169 193 0
168 191 0
170 192 0
166 190 0
171 194 0
165 188 0
170 193 0
169 192 0
171 194 0
171 194 0
170 194 0
165 187 0
169 193 0
169 193 0
170 194 0
163 187 0
171 194 0
168 189 0
168 192 0
163 188 0
168 191 0
171 194 0
173 195 0
171 195 0
164 186 0
104 132 151
64 100 175
62 99 177
63 100 179
62 98 169
62 98 170
62 98 171
62 99 171
62 99 177
63 100 179
62 99 171
62 99 177
61 98 173
62 99 175
62 98 173
61 98 171
61 98 167
61 98 178
62 99 177
61 98 171
62 99 175
62 99 177
62 99 177
62 99 173
63 100 179
62 99 175
62 98 165
61 98 171
62 99 175
62 98 167
62 99 171
61 97 166
62 98 173
63 100 179
62 99 179
61 97 161
63 100 175
62 99 173
62 99 173
62 99 177
61 98 173
61 98 175
62 98 167
63 99 177
62 99 165
63 99 175
61 98 173
63 99 165
64 100 175
61 97 163
62 99 171
62 99 171
61 97 161
64 99 163
62 98 165
62 98 167
62 98 175
62 99 171
61 98 165
62 99 169
62 99 173
62 99 169
61 97 167
60 96 151
62 98 159
62 97 153
62 99 171
62 98 161
62 98 159
62 98 165
63 100 173
62 98 167
62 98 169
61 97 161
61 97 159
60 95 147
62 98 161
61 97 153
63 99 165
62 97 159
63 98 165
62 98 157
61 96 148
61 96 159
61 95 147
61 96 156
54 83 127
62 63 18
67 70 24
61 63 33
71 74 37
93 93 23
83 86 39
101 101 31
97 97 42
89 90 50
115 114 41
108 106 37
105 103 44
124 121 57
127 124 60
117 115 57
128 125 61
135 131 56
145 140 65
140 137 59
153 148 63
135 131 53
155 149 68
146 142 61
149 143 51
151 146 73
157 150 66
148 143 66
154 148 73
144 141 60
157 151 75
148 145 64
162 156 67
157 151 69
152 146 62
164 158 84
162 158 77
158 153 66
163 156 74
164 157 75
159 153 68
150 144 62
153 147 66
156 151 64
158 151 68
149 141 60
146 142 48
146 141 56
138 134 48
148 141 64
148 142 64
149 143 58
137 132 51
141 135 53
143 138 56
139 133 60
127 124 45
128 122 48
137 139 22
166 185 0
169 189 0
168 187 0
166 185 0
167 189 0
171 194 0
170 192 0
172 193 0
171 191 0
165 186 0
174 195 0
171 192 0
172 193 0
168 189 0
170 193 0
171 192 0
171 193 0
169 190 0
173 194 0
170 195 0
170 191 0
171 195 0
172 195 0
170 190 0
171 193 0
174 196 0
172 196 0
173 195 0
173 196 0
172 196 0
177 199 0
169 192 0
171 194 0
172 194 0
169 190 0
173 196 0
174 196 0
171 194 0
171 192 0
171 195 0
170 193 0
172 195 0
173 196 0
171 194 0
173 195 0
173 195 0
170 194 0
170 193 0
174 198 0
172 195 0
171 193 0
174 196 0
172 195 0
173 195 0
173 197 0
173 196 0
175 196 0
172 197 0
172 195 0
173 196 0
174 198 0
174 196 0
174 198 0
175 197 0
174 197 0
173 197 0
175 198 0
173 197 0
174 196 0
174 197 0
174 197 0
174 197 0
173 197 0
172 195 0
172 196 0
174 198 0
174 198 0
173 197 0
175 197 0
174 198 0
175 198 0
175 198 0
172 195 0
172 196 0
175 198 0
173 195 0
171 195 0
175 198 0
171 195 0
173 197 0
176 199 0
175 198 0
175 197 0
174 197 0
175 198 0
174 198 0
174 197 0
170 194 0
173 195 0
176 197 0
174 198 0
172 197 0
177 199 0
175 198 0
171 194 0
175 198 0
172 196 0
175 198 0
175 198 0
174 198 0
175 198 0
174 197 0
176 198 0
174 198 0
174 197 0
171 195 0
174 197 0
172 195 0
176 198 0
174 197 0
173 197 0
173 197 0
174 198 0
175 198 0
172 196 0
172 196 0
177 199 0
172 196 0
174 198 0
173 197 0
176 199 0
174 197 0
172 197 0
172 197 0
173 197 0
173 196 0
174 198 0
172 196 0
173 196 0
174 198 0
174 197 0
176 198 0
175 198 0
172 196 0
174 198 0
173 197 0
170 194 0
173 197 0
173 196 0
176 199 0
174 197 0
175 198 0
173 196 0
174 197 0
174 197 0
173 196 0
173 197 0
173 197 0
171 194 0
172 197 0
173 196 0
175 198 0
174 198 0
173 196 0
172 196 0
174 197 0
175 198 0
176 198 0
172 196 0
173 196 0
174 198 0
171 195 0
171 195 0
173 197 0
174 197 0
175 198 0
173 196 0
172 196 0
174 197 0
175 198 0
172 196 0
172 196 0
172 195 0
172 196 0
171 195 0
174 197 0
170 194 0
174 197 0
171 195 0
172 196 0
173 195 0
170 195 0
173 197 0
173 196 0
174 197 0
173 196 0
172 195 0
173 197 0
171 194 0
175 198 0
170 194 0
171 195 0
174 198 0
172 194 0
175 198 0
170 194 0
170 193 0
173 197 0
171 195 0
173 196 0
171 195 0
175 197 0
170 193 0
170 193 0
169 193 0
170 193 0
170 193 0
170 192 0
173 196 0
172 194 0
172 196 0
168 192 0
171 194 0
172 197 0
173 197 0
169 193 0
169 193 0
171 194 0
174 197 0
171 195 0
171 194 0
171 194 0
170 193 0
167 191 0
167 190 0
171 193 0
166 190 0
170 194 0
170 194 0
168 192 0
168 192 0
167 191 0
172 196 0
170 195 0
166 188 0
168 191 0
174 198 0
172 195 0
158 183 0
167 190 0
170 193 0
165 190 0
163 185 0
170 193 0
169 193 0
85 116 163
62 99 176
63 99 171
61 97 173
63 99 173
63 100 181
63 100 179
62 98 172
62 98 173
62 99 175
62 98 169
63 99 171
62 99 177
62 99 169
61 98 171
61 98 169
62 98 171
62 99 177
62 98 169
62 99 175
63 99 173
62 99 175
62 99 175
62 99 171
62 98 169
62 99 177
62 98 169
63 99 177
62 99 171
62 99 175
62 99 177
63 100 175
62 98 171
61 98 169
62 99 175
63 99 171
63 99 173
62 99 173
62 99 171
63 100 175
61 98 165
62 99 177
62 99 177
63 99 173
62 99 173
61 98 171
62 98 173
62 99 165
62 99 169
62 99 167
63 99 171
63 99 173
62 98 165
62 98 169
62 99 169
63 99 171
62 99 167
61 98 169
63 100 179
63 99 169
62 99 169
62 99 167
62 99 175
63 99 173
62 97 159
63 99 171
63 99 169
62 99 167
62 98 171
63 99 173
61 97 163
61 98 159
63 99 163
61 97 164
62 97 163
63 99 161
60 96 149
62 97 164
62 98 153
61 97 159
60 95 154
63 99 161
63 98 168
63 97 155
58 91 136
58 91 139
62 89 130
65 66 18
77 78 9
61 62 14
83 84 33
82 82 35
71 75 40
85 88 41
100 100 33
97 97 48
88 92 36
117 116 45
114 111 51
126 123 57
132 129 57
140 135 65
130 125 59
124 123 59
124 124 61
130 128 48
147 143 56
145 140 57
142 138 68
142 137 54
152 147 63
146 142 64
151 146 69
158 153 71
153 147 66
157 151 72
165 158 81
162 156 60
157 151 66
153 148 56
153 147 58
159 154 68
151 146 58
145 139 52
158 152 58
151 145 62
156 149 68
152 147 62
152 146 60
157 151 62
156 151 53
149 143 56
148 144 58
152 145 60
145 141 48
138 133 48
137 132 45
139 132 58
132 125 60
123 118 39
134 129 39
147 141 56
132 126 39
127 121 42
150 162 16
168 184 0
161 177 0
166 185 0
168 189 0
165 185 0
172 194 0
169 187 0
169 188 0
170 190 0
171 192 0
172 195 0
172 192 0
171 190 0
167 188 0
174 195 0
171 194 0
170 194 0
170 193 0
171 191 0
168 186 0
168 186 0
171 194 0
167 188 0
171 193 0
171 194 0
169 188 0
167 188 0
175 198 0
174 197 0
174 196 0
171 192 0
174 196 0
171 193 0
174 197 0
172 193 0
173 196 0
169 191 0
174 196 0
172 195 0
174 195 0
174 198 0
172 197 0
176 198 0
175 198 0
172 195 0
172 194 0
170 193 0
173 195 0
173 196 0
170 193 0
174 197 0
174 197 0
173 196 0
173 195 0
176 198 0
174 197 0
171 194 0
174 198 0
174 197 0
170 195 0
174 196 0
173 195 0
174 196 0
176 198 0
174 197 0
175 198 0
175 198 0
175 198 0
173 196 0
173 196 0
173 196 0
174 197 0
174 198 0
172 195 0
175 197 0
173 197 0
176 199 0
173 197 0
174 197 0
171 195 0
173 196 0
172 195 0
173 197 0
173 196 0
174 196 0
175 198 0
174 197 0
174 196 0
175 198 0
174 197 0
173 197 0
172 196 0
174 198 0
174 197 0
175 198 0
175 198 0
174 197 0
173 197 0
174 198 0
173 197 0
173 197 0
174 197 0
175 198 0
175 198 0
177 198 0
174 196 0
173 196 0
172 197 0
174 198 0
173 197 0
176 198 0
173 196 0
172 196 0
177 199 0
175 198 0
175 198 0
174 198 0
175 198 0
177 199 0
174 197 0
175 198 0
174 197 0
173 197 0
175 198 0
175 198 0
170 195 0
173 197 0
172 196 0
175 198 0
174 198 0
174 198 0
175 198 0
174 198 0
175 198 0
175 198 0
170 196 0
175 198 0
174 198 0
174 197 0
172 196 0
176 198 0
172 196 0
174 198 0
172 196 0
172 196 0
175 198 0
175 198 0
175 198 0
173 196 0
173 197 0
173 196 0
174 198 0
174 197 0
171 194 0
174 198 0
174 197 0
171 194 0
172 196 0
170 195 0
172 196 0
174 197 0
174 198 0
174 198 0
175 198 0
175 198 0
175 198 0
168 192 0
176 199 0
175 198 0
176 198 0
175 197 0
176 198 0
171 194 0
177 199 0
177 199 0
173 196 0
174 197 0
171 195 0
172 196 0
175 198 0
173 196 0
169 193 0
173 196 0
172 197 0
173 197 0
174 197 0
174 198 0
170 193 0
172 197 0
172 196 0
171 195 0
173 196 0
171 195 0
172 197 0
172 195 0
169 193 0
170 195 0
173 197 0
169 193 0
171 194 0
171 195 0
173 196 0
171 194 0
170 194 0
173 196 0
165 189 0
167 190 0
172 196 0
175 198 0
168 193 0
172 194 0
175 198 0
171 194 0
172 195 0
173 196 0
170 193 0
169 192 0
169 193 0
174 198 0
169 192 0
171 195 0
174 198 0
172 196 0
171 194 0
171 195 0
168 192 0
172 195 0
172 195 0
169 192 0
170 195 0
167 190 0
175 198 0
168 192 0
168 192 0
170 194 0
167 190 0
169 191 0
168 192 0
166 188 0
166 190 0
162 186 0
165 188 0
169 191 0
166 190 0
165 188 0
168 192 0
174 197 0
164 187 0
165 188 0
170 193 0
162 185 0
166 189 0
166 190 0
170 193 0
161 184 0
72 106 175
64 100 175
63 100 173
63 99 171
64 100 175
62 98 169
62 98 170
63 99 175
62 98 167
61 98 177
62 99 165
62 98 169
62 99 175
62 98 171
62 99 179
62 98 167
62 99 177
62 98 169
62 99 171
62 99 173
63 100 179
63 99 177
63 99 175
62 99 175
62 99 177
62 99 179
63 99 173
63 99 171
62 98 178
62 99 173
62 99 171
62 99 175
62 99 175
63 100 181
62 99 177
63 99 173
62 99 171
62 99 171
63 99 177
63 99 173
61 98 171
62 99 173
62 98 169
62 98 169
62 98 171
61 98 173
61 98 167
61 97 161
61 98 167
62 99 173
61 98 163
62 98 169
62 99 173
62 98 165
61 97 161
62 99 167
62 99 169
62 98 161
62 99 165
63 99 173
62 98 161
63 99 169
62 99 165
62 98 165
62 99 167
61 97 157
62 99 171
61 97 165
62 98 169
61 97 165
61 97 163
61 97 161
61 98 163
63 98 159
62 98 163
63 99 173
63 99 173
62 99 167
62 98 161
61 97 159
62 97 158
61 97 159
61 97 160
64 98 165
61 95 148
59 94 147
58 91 141
62 65 12
58 62 7
59 65 32
97 96 17
75 79 37
83 86 21
99 97 27
85 83 33
121 118 56
94 96 40
102 103 46
108 107 41
104 103 41
124 122 47
133 130 54
112 111 41
132 128 50
135 132 58
134 131 63
150 144 73
141 137 56
145 140 71
147 142 64
145 141 56
148 143 59
138 135 52
146 141 60
150 145 64
149 143 58
156 151 71
156 149 70
139 135 56
151 144 58
146 142 56
162 155 60
158 152 64
159 152 60
151 144 64
152 146 51
163 155 79
148 142 56
151 145 64
152 146 60
151 145 56
142 137 60
139 133 48
133 129 45
144 138 60
140 135 53
136 131 39
144 137 48
127 121 48
134 129 39
143 137 58
143 138 45
134 130 39
137 142 16
168 185 0
163 181 0
167 185 0
164 181 0
167 188 0
168 188 0
171 191 0
169 191 0
167 185 0
167 188 0
168 190 0
164 181 0
171 193 0
168 191 0
171 193 0
173 194 0
172 195 0
169 191 0
173 195 0
167 185 0
166 187 0
164 188 0
174 197 0
168 189 0
170 193 0
174 193 0
171 193 0
170 192 0
171 195 0
171 193 0
172 196 0
172 194 0
172 195 0
170 192 0
170 193 0
174 197 0
172 192 0
174 196 0
173 195 0
172 194 0
172 196 0
175 197 0
172 194 0
173 195 0
171 194 0
172 197 0
174 197 0
176 198 0
175 198 0
172 195 0
172 194 0
173 197 0
172 193 0
174 196 0
174 197 0
172 194 0
174 196 0
170 194 0
173 197 0
175 198 0
169 192 0
171 193 0
171 194 0
174 196 0
173 195 0
174 197 0
176 199 0
174 195 0
171 194 0
174 196 0
174 198 0
174 197 0
173 197 0
173 197 0
173 197 0
174 196 0
173 196 0
173 196 0
173 195 0
173 196 0
175 198 0
173 196 0
177 199 0
175 198 0
174 197 0
175 197 0
173 197 0
173 196 0
174 198 0
176 198 0
173 196 0
175 198 0
175 198 0
174 195 0
173 196 0
175 198 0
175 198 0
175 197 0
174 197 0
173 197 0
177 199 0
175 198 0
173 196 0
176 199 0
174 198 0
174 198 0
174 197 0
174 197 0
173 197 0
174 198 0
175 198 0
173 197 0
176 199 0
177 199 0
173 197 0
173 197 0
177 199 0
177 199 0
174 198 0
174 197 0
175 198 0
174 197 0
174 198 0
172 197 0
175 198 0
175 198 0
173 197 0
172 196 0
177 199 0
176 198 0
169 193 0
170 195 0
173 197 0
173 197 0
174 198 0
173 197 0
173 197 0
173 197 0
175 197 0
174 197 0
172 196 0
173 196 0
173 196 0
174 198 0
175 198 0
174 197 0
175 198 0
175 197 0
175 197 0
172 196 0
175 198 0
171 195 0
171 195 0
172 195 0
172 197 0
172 196 0
172 195 0
176 199 0
174 197 0
175 198 0
173 197 0
175 198 0
174 198 0
175 198 0
172 195 0
175 198 0
170 194 0
175 198 0
173 197 0
175 198 0
172 196 0
173 196 0
173 197 0
174 197 0
175 197 0
173 197 0
173 195 0
173 197 0
169 192 0
173 197 0
172 196 0
175 198 0
173 196 0
171 195 0
172 195 0
172 195 0
172 197 0
172 196 0
170 194 0
175 198 0
177 199 0
172 196 0
173 194 0
173 197 0
170 193 0
171 194 0
173 197 0
172 196 0
170 194 0
172 196 0
172 196 0
174 197 0
171 194 0
172 195 0
173 196 0
175 198 0
171 195 0
175 198 0
173 196 0
174 198 0
172 196 0
173 196 0
175 197 0
170 193 0
171 194 0
171 195 0
171 194 0
171 194 0
169 192 0
167 190 0
174 197 0
171 195 0
170 194 0
169 192 0
169 194 0
173 196 0
170 195 0
169 192 0
170 193 0
169 192 0
169 192 0
169 194 0
169 193 0
166 189 0
169 193 0
169 190 0
168 192 0
171 194 0
171 194 0
169 193 0
174 198 0
171 194 0
171 195 0
167 189 0
173 196 0
168 193 0
165 189 0
165 189 0
165 188 0
170 192 0
165 187 0
171 195 0
168 192 0
170 191 0
169 192 0
164 187 25
64 100 167
64 100 177
63 99 169
62 99 173
63 99 173
62 98 170
63 100 177
63 100 175
62 99 180
62 98 171
61 98 173
60 97 171
61 98 169
62 98 171
62 98 168
62 99 173
62 99 171
62 99 175
62 99 175
61 97 165
62 99 171
63 100 179
61 98 163
63 99 173
62 99 173
62 98 172
62 99 177
62 99 177
61 97 164
62 99 173
62 99 171
62 98 170
62 98 165
61 98 167
62 98 169
62 99 175
63 99 175
63 99 173
62 99 175
62 98 167
61 97 165
62 99 175
63 100 171
62 99 175
63 100 175
63 99 173
63 99 167
62 99 173
62 98 169
61 98 163
61 98 167
61 97 159
62 99 167
63 99 177
62 98 169
61 97 165
63 99 163
63 99 171
63 100 173
62 98 165
63 99 165
62 98 161
63 99 163
63 99 169
62 98 163
62 98 169
63 99 167
61 97 153
63 98 161
61 97 157
62 98 169
62 98 165
62 97 159
62 98 159
62 98 161
62 99 165
63 99 161
61 96 155
61 97 155
61 97 158
61 97 159
62 98 163
62 96 155
60 96 158
62 97 156
60 93 150
61 95 155
60 64 26
81 80 17
69 69 18
90 90 31
62 66 24
88 89 28
88 89 27
92 92 21
111 111 40
112 111 29
97 98 31
122 118 49
104 105 38
122 119 46
113 111 44
137 135 48
108 106 36
123 120 51
134 132 51
145 139 66
126 124 60
139 136 49
140 136 57
139 135 53
147 142 62
130 128 56
143 137 59
138 132 56
153 148 64
162 155 70
142 136 60
152 146 56
152 148 56
153 148 64
157 150 66
157 150 68
151 144 66
154 146 62
150 145 53
153 146 56
145 140 60
155 148 60
146 141 51
157 151 64
145 140 45
153 147 53
144 139 56
138 134 39
134 128 51
142 136 45
137 132 51
129 122 39
135 128 56
139 133 45
131 124 48
125 124 39
167 183 0
161 181 0
169 187 0
164 182 0
173 193 0
169 190 0
164 184 0
170 188 0
171 188 0
169 189 0
164 183 0
166 185 0
169 191 0
170 190 0
171 192 0
168 188 0
171 191 0
170 190 0
167 189 0
173 192 0
165 185 0
166 188 0
168 191 0
168 189 0
170 194 0
169 190 0
171 194 0
171 193 0
170 193 0
168 190 0
171 194 0
166 187 0
172 195 0
172 195 0
173 196 0
173 195 0
173 196 0
170 191 0
170 191 0
167 190 0
172 194 0
171 194 0
171 194 0
171 194 0
172 194 0
173 196 0
174 198 0
174 198 0
172 197 0
171 194 0
173 195 0
171 193 0
170 194 0
171 194 0
174 196 0
171 195 0
172 195 0
171 195 0
174 196 0
175 197 0
173 197 0
174 197 0
173 196 0
171 194 0
174 197 0
171 194 0
173 196 0
176 199 0
172 196 0
172 196 0
172 195 0
171 195 0
174 197 0
174 197 0
175 197 0
172 197 0
173 197 0
171 195 0
173 195 0
176 199 0
173 197 0
175 198 0
172 196 0
173 197 0
174 198 0
174 198 0
173 195 0
174 197 0
173 197 0
174 197 0
172 196 0
174 198 0
173 196 0
174 197 0
176 197 0
174 197 0
172 197 0
173 196 0
175 198 0
176 199 0
174 197 0
174 198 0
175 198 0
172 195 0
175 198 0
175 198 0
170 196 0
176 199 0
174 197 0
171 196 0
175 197 0
174 198 0
172 197 0
175 198 0
174 198 0
173 197 0
174 198 0
172 195 0
173 197 0
173 197 0
173 197 0
173 196 0
174 197 0
170 194 0
172 195 0
174 198 0
171 194 0
173 197 0
174 197 0
174 198 0
172 196 0
173 196 0
173 197 0
174 198 0
176 199 0
173 197 0
174 198 0
176 199 0
175 198 0
175 198 0
169 193 0
174 198 0
174 198 0
172 195 0
174 197 0
173 196 0
172 196 0
174 197 0
174 198 0
172 196 0
174 197 0
173 196 0
172 196 0
174 197 0
173 197 0
174 198 0
172 196 0
175 198 0
176 198 0
174 197 0
175 198 0
171 195 0
175 198 0
175 198 0
174 198 0
174 198 0
174 197 0
176 199 0
172 197 0
174 197 0
175 198 0
173 196 0
173 197 0
175 198 0
171 196 0
172 196 0
172 196 0
169 194 0
172 194 0
172 195 0
175 198 0
173 196 0
169 193 0
173 196 0
172 195 0
174 197 0
174 198 0
170 195 0
170 194 0
172 196 0
167 191 0
170 193 0
171 194 0
174 197 0
172 194 0
172 197 0
173 197 0
172 196 0
174 198 0
168 191 0
173 196 0
173 196 0
169 194 0
171 195 0
171 194 0
172 196 0
171 194 0
171 194 0
171 194 0
170 194 0
172 196 0
168 191 0
174 198 0
169 193 0
172 195 0
169 193 0
173 196 0
173 197 0
170 194 0
171 195 0
167 191 0
166 190 0
170 195 0
171 194 0
174 196 0
170 192 0
169 192 0
168 192 0
169 193 0
167 189 0
169 193 0
171 195 0
168 192 0
173 196 0
167 190 0
174 195 72
172 195 0
168 192 0
167 189 36
169 192 0
171 194 0
167 190 0
167 192 0
168 191 0
167 190 0
171 196 0
162 185 0
172 196 0
168 191 0
170 193 0
166 190 0
170 193 0
164 188 0
169 191 0
171 195 0
163 187 0
157 179 36
64 100 177
63 99 175
62 99 171
64 100 177
63 99 173
63 99 174
61 98 171
62 99 175
61 97 170
63 99 173
61 97 165
63 100 177
61 98 176
62 99 171
62 99 175
62 99 175
62 99 178
62 99 179
61 98 174
63 99 169
62 99 181
62 98 170
62 98 161
61 98 173
62 98 167
62 98 169
62 99 171
62 98 165
62 99 169
62 99 167
62 98 167
63 100 177
63 100 175
62 98 167
63 99 167
61 98 163
61 98 173
62 99 173
62 99 175
62 98 169
63 99 177
63 100 175
62 98 173
63 99 167
62 99 171
62 98 163
62 98 169
61 98 165
62 98 161
61 98 165
61 98 163
63 99 175
63 99 165
62 98 167
61 98 165
63 99 175
63 99 169
61 98 171
62 99 167
62 99 175
63 99 169
61 98 163
62 98 165
63 99 169
63 99 163
64 100 171
62 99 171
62 99 171
61 97 155
61 97 155
62 98 163
61 97 159
62 98 163
63 99 161
61 96 149
61 97 155
62 98 161
61 97 156
60 95 142
62 97 165
61 97 160
61 97 151
62 98 155
60 94 147
59 92 141
57 90 133
60 94 141
51 61 51
79 79 17
76 74 25
88 90 23
95 94 28
90 89 40
88 88 30
105 105 32
89 89 28
108 107 37
102 101 22
103 104 49
116 115 43
117 117 43
126 123 39
114 112 49
108 107 29
133 129 52
129 126 50
132 126 45
139 135 63
137 132 47
150 145 61
144 140 49
150 146 63
152 146 65
141 137 49
155 148 68
138 134 48
145 140 51
154 148 60
146 139 61
156 150 56
152 146 51
139 134 56
153 146 51
158 152 64
140 134 42
147 141 53
149 144 56
131 126 36
146 140 45
145 138 51
149 143 56
144 138 48
143 137 51
142 135 56
143 137 53
131 128 45
136 131 45
136 131 51
120 116 42
130 125 32
129 124 45
119 116 28
151 166 16
168 186 0
170 189 0
162 179 0
168 188 0
171 188 0
165 183 0
170 190 0
171 192 0
169 189 0
168 187 0
169 188 0
169 188 0
171 193 0
170 187 0
170 190 0
167 188 0
169 187 0
169 190 0
170 188 0
170 192 0
169 191 0
171 194 0
168 189 0
170 190 0
170 195 0
169 189 0
173 192 0
171 191 0
174 195 0
172 194 0
169 192 0
171 194 0
174 197 0
172 194 0
173 195 0
172 193 0
169 191 0
170 193 0
171 193 0
173 196 0
172 195 0
173 195 0
173 196 0
173 195 0
170 193 0
174 196 0
173 196 0
173 196 0
174 197 0
173 196 0
172 194 0
174 195 0
174 195 0
171 192 0
174 197 0
174 197 0
173 197 0
172 195 0
173 197 0
171 195 0
173 196 0
171 192 0
176 198 0
176 199 0
173 195 0
171 194 0
174 196 0
172 195 0
175 198 0
172 195 0
173 197 0
176 199 0
175 198 0
173 195 0
174 197 0
175 198 0
175 197 0
171 194 0
174 197 0
174 197 0
174 197 0
173 196 0
168 191 0
172 196 0
174 197 0
172 197 0
173 195 0
175 198 0
172 195 0
172 196 0
176 199 0
174 198 0
175 198 0
175 198 0
173 196 0
175 198 0
172 196 0
177 199 0
174 197 0
175 197 0
173 197 0
175 198 0
173 196 0
175 198 0
172 197 0
174 197 0
173 197 0
174 198 0
174 197 0
176 198 0
172 197 0
175 198 0
175 198 0
173 197 0
175 198 0
172 196 0
175 197 0
173 197 0
170 194 0
174 197 0
172 196 0
173 196 0
173 196 0
173 197 0
174 197 0
174 197 0
173 195 0
176 199 0
172 196 0
175 198 0
171 195 0
174 198 0
175 198 0
174 198 0
173 197 0
171 195 0
174 197 0
173 197 0
172 197 0
174 197 0
172 196 0
175 198 0
173 196 0
172 195 0
175 198 0
174 198 0
173 196 0
175 198 0
174 197 0
175 198 0
173 197 0
170 192 0
175 198 0
175 198 0
174 198 0
174 198 0
174 197 0
171 195 0
171 194 0
175 198 0
173 197 0
175 197 0
172 195 0
173 196 0
174 197 0
173 197 0
173 196 0
174 198 0
172 196 0
175 198 0
175 198 0
176 199 0
172 195 0
176 199 0
174 198 0
173 196 0
170 194 0
168 194 0
171 194 0
174 197 0
172 196 0
173 197 0
173 196 0
173 197 0
176 199 0
173 197 0
171 195 0
167 193 0
173 195 0
173 195 0
172 196 0
172 196 0
173 195 0
175 198 0
171 194 0
171 195 0
171 195 0
174 198 0
174 196 0
174 198 0
174 197 0
170 194 0
173 197 0
172 194 0
174 196 0
170 194 0
172 196 0
170 193 0
170 193 0
174 198 0
171 194 0
169 193 0
170 193 0
175 198 0
175 198 0
171 193 0
171 195 0
172 194 0
171 195 0
171 195 0
171 194 0
173 195 0
168 193 0
172 195 0
167 191 0
169 192 36
176 198 72
178 200 88
179 200 108
182 203 125
183 203 120
185 205 120
187 207 130
175 198 72
185 205 130
183 202 135
183 204 114
188 207 135
184 205 130
189 209 144
188 209 130
188 207 144
174 196 95
186 207 120
180 202 95
174 196 62
175 197 62
168 192 0
170 193 0
166 189 0
171 194 0
167 191 0
163 186 0
166 188 0
169 192 0
167 190 0
161 184 36
63 99 165
63 100 171
62 98 173
63 99 171
63 99 173
63 98 165
63 100 179
62 99 173
64 100 179
61 98 171
62 99 175
62 99 171
62 99 179
62 98 174
62 98 165
62 98 171
62 99 173
60 97 169
62 99 167
62 98 167
63 99 175
62 99 171
62 99 173
62 99 169
61 97 163
62 99 173
62 99 175
62 98 171
61 98 175
62 98 167
61 98 165
63 99 169
63 99 165
62 99 171
63 99 167
62 99 173
62 99 171
62 98 169
61 97 163
61 97 161
62 99 171
62 98 163
62 99 171
63 99 175
62 98 163
62 99 173
63 100 175
61 98 169
62 99 171
62 98 167
62 99 175
63 99 163
63 99 177
62 98 167
62 98 171
63 99 171
61 98 163
62 99 167
61 97 159
63 100 179
62 98 163
61 97 161
61 97 161
61 97 151
63 99 167
62 98 165
62 98 157
62 98 165
62 99 169
62 97 155
61 98 167
62 97 159
62 97 153
63 98 155
64 100 169
62 98 164
62 98 159
62 97 155
60 94 151
62 97 161
60 95 149
61 97 151
61 96 150
62 97 160
61 95 150
59 93 134
57 89 132
83 84 38
86 87 21
75 75 28
64 65 14
80 80 13
87 89 17
108 108 26
89 91 33
105 102 30
98 99 36
113 109 37
107 107 34
122 119 35
116 115 28
119 116 45
126 125 44
117 116 16
129 126 48
133 127 49
133 128 53
140 136 44
147 142 54
136 131 44
138 134 39
145 139 56
151 146 53
145 139 53
150 145 56
142 139 45
150 144 58
146 140 45
141 136 45
151 145 64
144 138 54
149 144 56
139 135 51
147 141 62
153 147 66
140 136 39
140 135 42
148 142 45
138 132 60
132 128 22
139 133 45
139 133 51
143 136 36
147 141 45
140 134 45
129 124 42
132 129 32
142 134 48
114 111 16
120 114 39
105 101 22
147 155 22
162 179 0
168 186 0
167 182 0
167 185 0
162 176 0
169 189 0
167 184 0
167 185 0
166 182 0
167 187 0
168 188 0
170 190 0
172 192 0
165 188 0
169 187 0
172 192 0
173 195 0
173 193 0
173 195 0
172 193 0
175 197 0
171 193 0
172 192 0
173 195 0
167 187 0
169 189 0
175 196 0
172 194 0
171 192 0
171 193 0
171 194 0
173 195 0
174 196 0
172 193 0
174 196 0
168 189 0
170 192 0
173 196 0
173 196 0
174 196 0
170 194 0
171 194 0
173 197 0
175 197 0
174 197 0
174 196 0
173 196 0
174 197 0
174 198 0
174 197 0
172 194 0
174 196 0
175 198 0
172 196 0
170 192 0
173 196 0
169 192 0
174 196 0
174 196 0
173 196 0
174 198 0
176 197 0
171 194 0
170 194 0
174 197 0
175 198 0
176 199 0
173 196 0
175 198 0
172 196 0
174 198 0
175 198 0
175 198 0
173 195 0
174 197 0
173 196 0
174 197 0
173 196 0
172 196 0
172 195 0
173 197 0
173 197 0
172 196 0
174 196 0
173 196 0
175 198 0
174 196 0
173 197 0
172 196 0
175 197 0
173 195 0
174 197 0
173 196 0
173 197 0
175 197 0
171 195 0
175 198 0
176 198 0
174 198 0
173 197 0
173 197 0
175 198 0
174 198 0
173 197 0
175 198 0
176 197 0
175 198 0
173 196 0
175 198 0
175 198 0
173 197 0
174 198 0
175 198 0
175 198 0
174 198 0
175 198 0
174 197 0
174 198 0
172 196 0
176 199 0
173 197 0
174 197 0
176 198 0
174 197 0
173 197 0
173 197 0
174 197 0
172 197 0
175 198 0
175 198 0
175 198 0
173 197 0
173 197 0
175 198 0
172 196 0
174 197 0
173 196 0
175 198 0
173 197 0
170 195 0
174 198 0
170 194 0
175 198 0
175 198 0
174 198 0
173 197 0
175 198 0
174 198 0
176 199 0
172 196 0
174 197 0
174 198 0
174 197 0
172 196 0
173 196 0
174 198 0
175 198 0
171 195 0
174 197 0
172 196 0
172 196 0
174 198 0
174 198 0
172 196 0
173 196 0
172 197 0
174 198 0
174 198 0
174 197 0
172 196 0
172 196 0
175 198 0
172 195 0
172 195 0
171 194 0
171 194 0
174 198 0
176 198 0
174 197 0
172 196 0
174 197 0
174 198 0
171 195 0
172 196 0
174 197 0
175 198 0
174 198 0
172 195 0
173 196 0
175 198 0
175 198 0
173 196 0
173 197 0
172 195 0
175 198 0
175 198 0
172 196 0
172 196 0
173 197 0
174 197 0
173 196 0
175 198 0
167 192 0
168 193 0
173 196 0
172 196 0
176 198 0
171 195 0
171 195 0
170 194 0
174 197 0
169 193 0
175 198 0
168 193 0
174 198 0
172 194 0
176 199 0
173 196 0
166 191 0
172 196 0
175 198 0
174 197 0
174 196 0
178 200 80
184 205 102
186 206 130
186 207 135
190 210 144
188 208 135
183 204 108
176 197 102
176 199 72
180 202 102
177 199 95
187 208 135
176 198 80
175 197 108
186 207 120
183 205 108
180 201 114
186 206 125
181 203 88
181 202 125
186 207 130
180 201 108
184 204 130
190 209 153
180 201 114
179 199 102
174 195 102
174 195 72
171 195 0
171 194 0
165 189 0
166 189 0
153 177 57
161 183 36
163 187 25
65 101 177
64 100 175
64 100 175
64 100 179
62 99 167
62 98 167
61 98 170
63 99 177
62 98 172
62 98 173
63 99 175
62 99 173
61 98 170
62 99 175
62 98 171
61 97 165
62 99 176
62 99 165
62 98 175
61 98 169
62 99 171
62 99 173
60 97 166
61 98 167
63 99 175
62 99 175
63 99 173
61 98 163
62 98 171
62 98 173
62 99 167
62 99 173
62 98 167
62 98 165
61 98 167
63 99 167
62 99 169
63 99 169
63 100 175
62 99 171
62 98 169
63 99 169
61 98 169
61 97 163
61 98 163
62 99 173
62 98 165
61 98 169
62 98 165
63 99 171
63 100 173
61 97 163
63 99 171
61 97 159
62 98 163
60 96 151
62 98 163
62 98 167
63 99 161
61 97 157
62 99 169
61 97 161
63 99 169
61 98 163
62 99 165
63 99 169
63 99 165
61 97 155
63 99 171
62 98 159
62 98 161
62 97 151
62 98 165
60 96 149
61 96 159
61 97 160
61 97 155
61 96 149
61 96 151
62 97 157
61 96 147
61 95 141
61 97 161
62 97 157
61 96 152
60 94 150
59 90 122
88 94 87
87 85 20
91 91 21
84 84 12
88 86 7
92 92 8
82 83 20
99 99 26
106 105 39
109 107 41
101 101 30
98 97 19
103 102 38
110 107 34
124 121 42
128 125 39
127 124 37
126 123 46
123 122 36
152 146 62
138 133 37
134 130 52
143 138 49
138 133 47
142 137 51
136 132 56
121 117 34
143 137 52
138 134 48
141 136 45
136 132 53
138 133 53
143 138 47
158 151 58
150 145 60
141 136 45
144 138 51
140 135 53
143 137 48
140 136 51
133 128 16
142 136 51
141 134 51
145 139 51
137 132 39
140 134 42
134 129 45
142 136 53
151 144 48
129 123 36
118 113 28
121 116 36
121 114 32
140 145 28
166 182 0
165 183 0
162 178 0
162 181 0
162 176 0
168 185 0
169 188 0
174 194 0
165 182 0
165 182 0
167 184 0
166 186 0
173 193 0
170 192 0
172 192 0
172 195 0
172 195 0
170 190 0
165 183 0
171 192 0
170 191 0
172 193 0
168 187 0
171 191 0
171 192 0
171 191 0
173 193 0
171 193 0
169 191 0
175 195 0
170 193 0
166 187 0
165 187 0
168 189 0
170 192 0
173 194 0
170 193 0
171 191 0
172 195 0
172 193 0
165 188 0
173 196 0
172 194 0
173 195 0
169 191 0
173 196 0
175 197 0
174 197 0
170 193 0
172 194 0
175 197 0
173 196 0
174 197 0
171 192 0
174 196 0
173 196 0
173 196 0
170 193 0
173 196 0
171 195 0
173 195 0
174 196 0
174 197 0
172 194 0
173 196 0
174 197 0
170 192 0
172 196 0
175 197 0
175 197 0
173 197 0
174 198 0
172 194 0
172 195 0
173 197 0
174 198 0
174 197 0
170 194 0
173 196 0
174 196 0
175 197 0
173 196 0
177 198 0
174 197 0
168 193 0
174 196 0
174 197 0
169 193 0
176 199 0
174 197 0
174 198 0
175 198 0
173 197 0
174 197 0
174 197 0
174 196 0
172 197 0
173 196 0
173 197 0
176 198 0
174 196 0
172 196 0
174 197 0
173 196 0
173 197 0
172 196 0
174 197 0
176 199 0
175 197 0
177 199 0
173 197 0
172 197 0
173 196 0
173 197 0
173 197 0
177 199 0
174 197 0
173 197 0
171 195 0
174 198 0
173 197 0
173 197 0
174 198 0
174 197 0
174 197 0
170 195 0
172 197 0
171 195 0
174 198 0
176 198 0
174 198 0
173 197 0
174 197 0
175 198 0
172 197 0
175 198 0
178 200 0
173 197 0
171 196 0
175 198 0
176 199 0
171 194 0
176 198 0
171 195 0
173 197 0
175 198 0
173 196 0
174 198 0
172 196 0
172 196 0
172 196 0
174 196 0
173 197 0
173 196 0
174 198 0
168 192 0
174 197 0
174 198 0
170 195 0
171 194 0
171 195 0
171 195 0
173 197 0
176 199 0
173 197 0
174 197 0
171 195 0
172 196 0
173 197 0
174 197 0
173 196 0
173 197 0
171 195 0
174 197 0
171 195 0
172 195 0
172 196 0
173 197 0
174 197 0
171 194 0
171 195 0
169 192 0
173 196 0
170 194 0
170 193 0
176 199 0
174 196 0
173 196 0
170 193 0
174 197 0
172 195 0
174 197 0
173 197 0
171 195 0
172 195 0
172 195 0
175 198 0
171 194 0
175 197 0
173 196 0
174 197 0
171 193 0
170 195 0
167 192 0
174 197 0
171 194 0
168 192 0
169 192 0
169 193 0
171 195 0
176 199 0
173 195 0
172 196 0
173 197 0
168 193 0
169 192 0
174 196 0
173 197 0
171 193 0
163 186 0
171 194 0
172 194 80
185 205 114
177 199 108
185 206 114
190 210 135
182 204 108
187 208 144
180 203 95
183 205 114
182 204 108
181 204 108
181 203 88
181 203 102
177 199 88
177 200 72
179 202 102
181 203 95
177 200 80
182 203 88
184 206 125
181 203 95
181 203 95
181 204 108
180 202 95
180 202 108
180 202 95
177 199 95
180 202 95
178 200 88
183 205 108
181 201 125
185 206 125
173 192 108
174 197 72
172 195 51
150 175 80
125 151 122
120 145 111
88 118 159
64 100 171
63 100 171
63 99 171
63 99 171
63 99 173
63 99 173
62 98 168
63 99 178
62 99 175
61 98 172
61 97 166
62 99 173
61 98 172
61 98 171
61 98 176
61 98 177
62 99 175
62 99 173
63 99 177
62 99 169
61 97 163
61 98 168
62 98 169
62 98 167
60 97 165
62 99 175
61 98 169
62 99 173
62 99 173
61 98 161
62 98 165
63 99 173
62 99 175
61 98 165
62 99 171
63 99 171
62 99 169
63 99 167
61 97 161
62 98 165
62 98 161
62 98 165
61 97 159
62 98 167
63 99 167
61 97 161
63 99 169
63 99 175
62 98 161
62 98 167
61 98 161
62 98 157
62 98 167
62 97 163
62 98 165
63 99 171
62 99 165
62 98 165
62 98 155
62 98 159
62 98 161
61 97 155
63 99 165
63 99 167
62 98 167
62 98 159
62 98 165
63 99 161
63 100 173
62 98 161
63 100 167
60 96 153
63 99 167
60 95 142
61 97 155
63 99 163
62 98 165
63 98 155
61 97 151
61 97 155
61 97 159
61 95 147
62 97 155
61 95 151
58 92 135
58 91 127
85 86 37
95 91 0
86 84 11
88 89 19
78 80 14
93 93 16
98 97 20
92 93 20
105 103 20
97 95 20
96 93 20
108 107 28
99 99 26
120 117 40
123 120 32
127 122 37
132 127 41
131 127 42
121 118 32
133 130 44
125 122 34
130 126 44
136 131 47
126 121 47
139 132 49
128 125 47
137 134 41
140 135 53
142 136 45
135 132 36
130 127 39
145 140 52
138 133 48
148 143 48
140 136 45
143 137 51
150 144 60
146 141 45
149 145 39
151 148 42
135 130 28
135 130 39
132 128 45
139 133 56
140 135 39
135 130 36
125 121 32
136 131 42
133 129 36
128 122 39
135 130 32
120 115 32
123 127 22
163 179 0
164 182 0
162 179 0
163 178 0
162 177 0
160 176 0
167 185 0
166 184 0
161 180 0
172 189 0
168 185 0
167 186 0
167 184 0
169 187 0
166 186 0
165 185 0
172 192 0
170 190 0
166 185 0
168 187 0
169 190 0
171 191 0
168 190 0
173 195 0
171 192 0
172 193 0
167 188 0
171 193 0
170 191 0
169 190 0
172 194 0
174 195 0
166 188 0
173 196 0
171 195 0
168 191 0
172 195 0
174 198 0
167 190 0
169 191 0
170 193 0
172 195 0
167 189 0
171 193 0
171 194 0
172 196 0
175 198 0
172 194 0
174 197 0
174 197 0
174 196 0
172 193 0
170 193 0
175 198 0
172 194 0
175 197 0
173 195 0
171 192 0
174 197 0
175 197 0
169 193 0
173 194 0
173 196 0
173 196 0
175 197 0
172 196 0
174 196 0
171 195 0
173 195 0
174 197 0
171 193 0
173 195 0
174 196 0
174 196 0
174 196 0
174 197 0
176 198 0
175 198 0
172 195 0
172 196 0
174 198 0
176 199 0
174 197 0
171 194 0
175 198 0
178 200 0
173 197 0
172 196 0
173 197 0
172 195 0
172 194 0
170 193 0
173 197 0
173 195 0
172 197 0
174 196 0
172 196 0
171 196 0
173 196 0
174 197 0
174 197 0
173 195 0
175 198 0
176 198 0
173 197 0
171 196 0
173 196 0
176 199 0
175 198 0
175 198 0
173 197 0
173 196 0
170 193 0
175 198 0
171 195 0
173 197 0
173 197 0
174 198 0
173 197 0
172 196 0
175 198 0
174 198 0
175 198 0
175 198 0
174 198 0
174 196 0
172 195 0
174 198 0
173 197 0
173 196 0
169 193 0
177 199 0
173 197 0
174 198 0
174 198 0
172 196 0
172 196 0
173 196 0
175 198 0
174 197 0
173 197 0
174 197 0
173 196 0
171 195 0
176 198 0
173 197 0
174 198 0
173 196 0
173 196 0
174 197 0
171 194 0
171 195 0
173 197 0
173 197 0
172 195 0
173 196 0
171 194 0
171 195 0
168 192 0
177 199 0
173 197 0
173 197 0
171 195 0
173 196 0
172 196 0
175 198 0
173 196 0
172 196 0
173 197 0
172 197 0
170 195 0
172 195 0
171 194 0
174 198 0
173 197 0
172 195 0
175 197 0
173 196 0
173 197 0
172 195 0
174 197 0
170 193 0
173 197 0
174 198 0
172 195 0
170 194 0
173 197 0
175 198 0
168 192 0
169 193 0
173 195 0
172 196 0
175 198 0
173 195 0
169 194 0
169 192 0
175 198 0
171 193 0
174 197 0
168 192 0
173 197 0
173 197 0
170 194 0
174 197 0
173 196 0
172 195 0
171 194 0
172 196 0
173 197 0
172 196 0
170 193 0
166 190 0
170 192 0
172 195 0
171 194 0
164 188 0
172 195 0
172 195 0
170 194 0
178 201 88
180 201 108
183 203 130
185 205 114
186 207 140
182 203 108
184 206 125
183 204 95
182 204 114
181 204 102
181 202 95
183 205 108
178 200 88
178 201 72
182 204 102
181 203 95
192 212 153
188 208 125
198 216 173
197 216 173
193 212 153
199 217 177
194 213 157
191 212 153
190 210 140
181 203 102
178 201 72
174 197 36
182 204 108
183 205 102
180 202 108
181 204 125
182 203 114
177 199 62
181 202 95
187 208 130
182 204 114
185 205 120
175 196 117
142 166 122
137 160 108
133 158 120
110 137 135
89 119 153
73 106 159
61 98 163
62 98 165
61 98 167
62 98 169
61 97 173
61 98 175
61 97 167
60 96 165
61 98 171
62 98 165
62 99 173
61 98 169
62 98 171
62 99 171
61 98 173
62 99 179
61 98 165
61 98 167
61 98 161
60 95 160
62 98 161
61 98 165
62 98 169
63 99 171
62 98 169
61 98 163
62 98 174
62 98 165
61 98 169
62 98 167
62 99 173
63 99 171
62 98 163
62 99 167
62 99 169
62 98 163
62 98 161
63 99 177
61 98 163
61 98 165
62 98 161
62 98 167
63 99 167
61 98 165
62 98 163
62 99 169
62 98 167
61 97 161
63 99 171
62 98 163
64 100 173
61 98 167
62 98 165
60 96 161
61 97 155
62 98 167
62 97 161
61 97 157
63 99 169
62 98 159
61 97 161
63 99 165
61 97 159
60 96 147
62 98 159
63 100 173
61 97 159
61 97 155
63 99 161
62 98 155
62 98 161
61 96 144
62 98 151
61 97 162
62 98 161
62 97 147
63 99 161
61 96 155
61 96 147
59 94 144
59 94 151
60 92 133
58 92 131
82 82 36
69 65 12
78 77 7
79 78 11
91 92 16
100 99 16
90 89 0
96 93 22
84 85 25
105 104 16
107 103 16
110 108 32
108 107 13
119 116 42
120 117 30
117 114 36
121 118 25
120 118 28
124 121 41
128 125 16
125 119 48
126 121 32
139 135 45
131 126 39
136 130 42
131 127 41
120 117 34
141 136 45
140 137 32
140 135 42
139 135 49
149 144 39
140 134 42
141 136 51
140 135 51
135 131 32
144 138 45
144 139 39
135 131 39
147 141 45
137 132 36
138 132 45
142 133 48
132 127 48
147 144 42
123 118 32
121 115 42
126 122 36
123 120 16
139 132 42
116 111 28
128 130 22
157 170 0
159 172 0
160 174 0
164 180 0
167 183 0
166 183 0
163 180 0
171 187 0
171 188 0
165 184 0
166 185 0
166 183 0
166 183 0
161 177 0
171 191 0
165 186 0
170 187 0
171 191 0
170 187 0
171 192 0
171 191 0
171 194 0
174 193 0
170 191 0
175 196 0
171 194 0
168 187 0
173 192 0
173 195 0
169 191 0
168 189 0
167 188 0
170 191 0
173 195 0
173 195 0
170 192 0
172 195 0
170 193 0
173 196 0
173 196 0
172 195 0
171 194 0
172 192 0
173 196 0
171 193 0
174 196 0
172 196 0
174 196 0
167 190 0
170 193 0
173 197 0
172 194 0
171 193 0
175 197 0
175 197 0
170 191 0
171 194 0
172 194 0
171 193 0
174 198 0
173 197 0
173 197 0
172 195 0
172 194 0
176 198 0
173 196 0
173 197 0
174 196 0
176 197 0
173 197 0
174 197 0
175 197 0
174 197 0
173 197 0
174 196 0
173 194 0
175 197 0
174 198 0
173 196 0
175 198 0
173 196 0
173 197 0
171 195 0
174 198 0
172 195 0
172 197 0
171 194 0
175 198 0
174 197 0
174 197 0
173 196 0
176 198 0
174 197 0
175 197 0
175 198 0
174 198 0
172 194 0
173 196 0
173 196 0
177 199 0
174 196 0
173 197 0
175 197 0
176 199 0
173 197 0
171 194 0
174 198 0
176 199 0
173 197 0
173 197 0
174 197 0
174 197 0
175 198 0
176 199 0
175 198 0
176 198 0
171 195 0
174 198 0
174 198 0
173 196 0
173 197 0
174 197 0
174 198 0
174 198 0
175 198 0
173 196 0
174 198 0
172 196 0
172 195 0
173 196 0
171 194 0
176 199 0
174 197 0
172 197 0
174 197 0
173 197 0
173 197 0
173 196 0
175 198 0
174 197 0
170 193 0
172 196 0
173 197 0
174 197 0
174 198 0
172 196 0
173 197 0
175 198 0
170 194 0
173 196 0
173 196 0
174 196 0
175 198 0
174 197 0
173 197 0
175 198 0
173 197 0
172 197 0
173 196 0
174 198 0
167 191 0
175 198 0
174 198 0
173 197 0
176 199 0
176 199 0
172 196 0
173 197 0
169 193 0
172 196 0
172 196 0
175 198 0
176 199 0
170 194 0
170 193 0
173 197 0
177 199 0
173 197 0
176 198 0
170 194 0
169 192 0
169 193 0
174 198 0
174 198 0
168 192 0
175 198 0
169 192 0
171 194 0
169 194 0
171 195 0
172 196 0
172 196 0
171 195 0
172 196 0
172 196 0
169 193 0
173 197 0
170 195 0
174 197 0
171 195 0
170 195 0
174 198 0
174 197 0
173 196 0
175 198 0
171 194 0
172 195 0
175 198 0
170 194 0
169 194 0
174 197 0
169 193 0
173 196 0
169 191 0
172 196 0
169 192 0
172 195 0
169 192 36
166 189 36
188 207 135
188 208 130
184 205 108
178 199 80
178 201 88
182 204 114
181 203 102
180 202 95
177 200 72
178 201 88
184 206 125
200 218 181
204 221 198
213 228 226
215 230 234
222 235 250
221 236 255
220 235 250
221 235 253
222 236 255
220 235 253
220 234 248
218 233 248
221 235 250
220 234 250
222 236 253
219 233 245
222 236 253
214 229 226
207 224 214
204 221 194
184 205 125
178 201 88
183 205 108
182 204 108
181 203 95
176 198 51
178 199 95
158 180 144
123 146 184
100 127 179
92 120 183
79 111 155
92 122 155
115 141 120
111 137 128
100 129 152
67 102 165
61 97 169
60 96 168
62 99 173
59 95 161
62 99 177
61 97 170
61 97 163
61 98 165
60 96 159
61 98 175
61 98 171
60 97 162
60 97 167
62 99 173
63 99 173
61 97 165
60 97 161
61 98 171
63 99 175
62 98 169
61 97 168
63 99 175
63 99 169
62 98 171
61 97 165
61 98 163
62 98 169
62 98 163
63 99 169
62 98 163
62 98 153
62 98 165
62 99 173
62 98 163
61 97 159
62 98 166
61 98 165
62 98 169
63 99 165
61 97 163
62 98 163
62 98 171
63 99 163
62 97 155
62 98 163
63 99 169
63 99 167
61 98 161
62 98 161
62 98 167
62 98 167
63 99 167
62 98 161
62 98 153
62 98 157
62 98 163
61 97 157
61 97 161
62 98 161
61 97 151
64 100 167
62 98 159
60 97 155
61 96 157
61 97 157
61 98 159
62 98 157
62 98 159
62 98 159
61 97 165
61 97 151
62 97 149
62 98 159
62 98 153
63 99 167
61 96 149
61 96 151
61 96 140
61 95 142
59 94 151
60 93 147
91 87 39
89 87 16
85 85 7
82 82 0
88 87 1
110 108 0
81 79 16
93 92 19
92 90 18
107 105 13
93 93 16
98 98 16
108 108 26
115 111 28
120 117 32
111 110 32
123 120 28
118 114 39
122 118 34
125 121 32
136 131 54
120 117 16
130 127 53
123 119 22
138 132 37
138 135 39
141 136 48
136 130 42
139 135 45
137 132 32
144 139 42
145 138 53
135 130 42
149 142 48
145 139 42
143 137 45
142 135 51
154 147 53
139 132 36
149 142 48
145 141 39
144 139 48
132 128 22
129 123 39
124 119 36
134 130 42
133 126 39
126 122 28
128 122 28
116 111 32
140 145 22
155 169 0
165 182 0
164 181 0
165 182 0
166 181 0
169 186 0
164 181 0
164 180 0
167 184 0
165 185 0
170 188 0
169 187 0
165 180 0
167 183 0
168 186 0
170 188 0
167 187 0
164 185 0
166 186 0
170 188 0
169 190 0
165 184 0
170 191 0
174 196 0
173 193 0
168 188 0
169 192 0
170 190 0
171 193 0
169 188 0
170 191 0
175 197 0
164 183 0
170 191 0
169 190 0
174 196 0
173 196 0
173 195 0
171 191 0
170 192 0
173 196 0
174 195 0
168 190 0
173 197 0
172 192 0
171 192 0
172 194 0
169 193 0
169 192 0
173 196 0
172 194 0
172 196 0
173 196 0
172 195 0
175 197 0
172 196 0
172 196 0
171 195 0
175 197 0
173 194 0
174 197 0
173 197 0
173 195 0
171 193 0
170 193 0
171 196 0
174 198 0
172 196 0
173 197 0
174 198 0
174 196 0
172 195 0
175 198 0
175 197 0
174 196 0
173 197 0
173 195 0
174 196 0
174 196 0
173 197 0
171 194 0
174 197 0
171 196 0
172 195 0
175 198 0
173 196 0
175 198 0
174 196 0
173 197 0
171 195 0
173 197 0
176 199 0
172 195 0
175 198 0
174 197 0
174 198 0
174 197 0
173 196 0
173 195 0
177 199 0
174 198 0
177 198 0
174 196 0
172 195 0
175 197 0
174 196 0
175 197 0
175 197 0
171 195 0
172 195 0
171 194 0
176 199 0
174 198 0
175 198 0
173 197 0
173 197 0
176 199 0
174 197 0
172 197 0
175 198 0
173 197 0
173 197 0
174 198 0
174 198 0
175 198 0
173 197 0
176 199 0
173 197 0
174 197 0
175 198 0
174 197 0
176 199 0
174 197 0
174 198 0
170 194 0
174 198 0
173 197 0
175 198 0
175 198 0
174 197 0
174 198 0
173 197 0
174 198 0
173 197 0
172 196 0
174 197 0
174 198 0
174 197 0
169 193 0
174 197 0
175 198 0
173 197 0
174 198 0
175 198 0
174 198 0
175 198 0
175 198 0
174 197 0
172 197 0
175 198 0
172 197 0
172 196 0
172 195 0
172 196 0
171 195 0
172 195 0
172 196 0
174 198 0
169 193 0
173 196 0
174 198 0
170 195 0
172 196 0
174 197 0
173 197 0
172 196 0
176 198 0
177 199 0
172 196 0
175 198 0
174 197 0
170 194 0
170 193 0
174 198 0
173 197 0
174 198 0
174 198 0
171 194 0
171 195 0
173 195 0
174 196 0
176 199 0
171 196 0
175 197 0
175 198 0
171 195 0
173 197 0
174 198 0
170 193 0
172 196 0
170 194 0
170 194 0
175 198 0
173 195 0
171 195 0
171 194 0
170 194 0
175 198 0
166 189 0
172 194 0
170 194 0
174 198 0
170 194 0
176 199 0
172 195 0
173 196 0
173 196 0
177 199 80
183 204 108
180 200 108
179 202 80
178 201 72
180 201 102
179 201 95
180 203 95
180 202 95
185 207 125
200 218 181
206 223 201
216 231 234
219 233 250
220 235 250
220 235 255
219 234 250
220 234 250
217 233 250
220 235 255
217 233 250
216 232 250
218 233 253
218 234 253
217 233 250
217 233 250
216 232 245
217 233 250
217 233 248
219 234 250
219 234 250
219 234 253
218 233 248
222 236 255
222 236 253
223 236 253
212 227 220
198 216 173
182 204 108
180 202 80
176 199 72
124 148 175
105 132 186
98 126 186
115 139 179
99 125 179
73 106 169
63 100 177
63 100 177
84 116 161
94 123 153
93 122 151
65 101 169
60 97 171
61 97 169
61 98 167
61 97 176
60 97 169
61 98 172
61 97 171
61 98 165
60 97 167
61 98 165
62 98 171
60 96 159
61 98 172
61 98 165
62 99 171
61 98 171
62 98 169
62 98 167
61 97 164
61 98 167
62 99 171
60 96 165
61 97 165
62 99 169
62 98 161
62 98 167
61 98 165
62 99 165
61 97 153
61 97 163
62 98 165
62 98 165
62 98 167
61 97 163
62 97 155
62 97 161
62 98 161
61 97 159
63 100 175
63 99 169
60 96 155
64 100 167
61 97 161
61 96 149
62 99 167
63 98 159
61 97 157
63 99 171
61 97 151
63 99 165
62 98 165
62 98 161
63 99 159
63 99 167
62 98 155
61 97 151
62 98 155
62 98 161
61 98 159
61 96 157
62 98 157
63 99 167
62 98 157
62 98 159
61 97 149
60 96 151
62 97 151
63 99 157
61 97 153
61 97 157
61 97 159
60 95 140
59 94 135
62 97 154
60 96 159
60 94 142
60 95 136
60 95 151
56 88 132
96 94 5
66 64 0
81 79 0
92 90 16
92 90 0
84 83 11
68 69 12
81 81 0
93 92 22
96 95 16
102 101 28
101 99 16
107 104 0
103 100 16
110 106 16
119 116 36
119 115 34
126 123 28
117 116 16
116 112 25
121 118 26
118 114 0
133 130 28
135 130 36
141 136 47
137 133 32
124 120 34
129 126 39
144 137 43
127 123 34
142 135 45
131 127 39
132 128 28
135 129 28
139 134 39
137 132 48
123 119 32
135 131 36
137 133 36
137 131 45
146 139 45
133 128 22
137 133 39
131 125 36
129 125 36
131 122 48
120 114 16
125 119 28
101 94 22
130 130 28
161 175 0
163 180 0
169 186 0
165 182 0
162 179 0
165 180 0
155 168 0
168 183 0
165 180 0
170 187 0
172 191 0
160 174 0
164 182 0
163 180 0
166 186 0
168 188 0
170 191 0
167 186 0
168 188 0
170 190 0
171 191 0
166 188 0
168 189 0
169 191 0
171 193 0
171 192 0
172 191 0
170 193 0
169 191 0
170 189 0
171 191 0
171 190 0
167 187 0
173 194 0
173 194 0
170 193 0
173 194 0
171 191 0
170 192 0
167 190 0
169 191 0
173 195 0
169 192 0
171 194 0
174 195 0
171 191 0
174 197 0
171 192 0
173 197 0
174 196 0
170 193 0
171 195 0
173 194 0
173 197 0
173 195 0
174 197 0
171 194 0
174 197 0
166 187 0
175 197 0
173 194 0
171 196 0
175 195 0
175 195 0
173 196 0
173 197 0
172 195 0
171 194 0
173 196 0
173 194 0
175 197 0
169 194 0
174 198 0
171 195 0
176 199 0
173 196 0
171 195 0
172 195 0
175 198 0
171 196 0
175 198 0
174 197 0
176 199 0
172 195 0
173 197 0
175 197 0
173 197 0
174 197 0
172 195 0
174 197 0
173 196 0
174 197 0
172 196 0
173 197 0
175 197 0
175 198 0
173 196 0
173 196 0
176 199 0
176 199 0
175 198 0
174 197 0
173 197 0
174 198 0
172 196 0
175 198 0
171 196 0
174 197 0
175 198 0
171 195 0
174 198 0
174 197 0
172 196 0
173 196 0
174 196 0
175 197 0
174 198 0
174 198 0
174 198 0
176 199 0
175 198 0
173 197 0
172 195 0
176 198 0
171 195 0
175 198 0
174 197 0
174 198 0
171 195 0
175 198 0
175 198 0
173 196 0
175 198 0
173 197 0
170 194 0
175 198 0
169 193 0
175 198 0
174 198 0
173 196 0
174 198 0
172 196 0
173 197 0
174 198 0
172 196 0
175 197 0
172 196 0
169 194 0
175 198 0
173 196 0
175 198 0
174 198 0
173 197 0
172 196 0
175 197 0
173 196 0
174 198 0
173 196 0
174 197 0
172 195 0
170 195 0
172 195 0
171 196 0
175 198 0
173 197 0
173 197 0
173 197 0
172 196 0
175 198 0
174 197 0
174 197 0
172 196 0
172 195 0
175 197 0
170 194 0
173 196 0
172 195 0
174 197 0
171 195 0
170 193 0
175 198 0
175 197 0
171 195 0
171 195 0
173 196 0
174 197 0
171 193 0
175 197 0
170 194 0
172 196 0
171 193 0
174 198 0
170 195 0
173 196 0
168 192 0
173 196 0
171 194 0
173 196 0
172 195 0
173 197 0
173 197 0
169 193 0
171 195 0
172 196 0
170 193 0
173 197 0
171 195 0
173 196 0
172 194 0
170 194 0
168 192 0
167 191 0
170 194 0
170 194 0
168 191 0
177 198 36
173 195 72
182 203 108
181 203 114
185 205 130
179 201 102
176 200 62
181 203 95
183 205 120
179 203 102
196 215 165
210 226 211
222 236 253
222 236 253
220 234 250
216 232 245
217 233 250
215 232 248
219 234 255
215 231 245
216 233 255
217 233 255
215 232 253
216 233 255
216 232 253
212 230 245
214 230 245
214 231 248
215 232 255
215 232 255
216 233 255
217 233 255
216 232 250
217 233 255
215 231 250
215 232 248
216 232 248
216 232 245
219 233 250
219 233 253
221 235 253
221 235 253
215 230 234
189 210 144
140 163 153
80 112 186
90 119 184
110 135 191
100 127 186
97 124 181
63 100 175
76 108 167
63 99 179
66 101 169
71 105 169
78 109 155
92 121 152
62 98 171
61 98 175
62 98 170
62 99 177
61 97 164
62 99 169
62 99 173
61 97 164
60 97 163
61 98 165
63 99 175
61 98 165
61 97 161
61 97 168
61 97 164
61 98 167
61 97 161
63 99 171
62 98 167
63 99 173
62 99 169
62 99 169
62 98 165
60 96 161
62 98 169
62 99 169
62 98 167
62 98 165
62 98 171
63 99 171
61 97 157
61 97 159
63 100 171
62 98 161
62 98 163
62 98 161
62 98 163
60 97 161
62 98 165
63 99 173
62 98 165
63 99 171
62 98 157
61 97 153
62 98 163
62 98 165
61 97 159
63 99 167
62 98 163
63 99 165
62 98 165
62 98 161
63 99 167
64 100 169
62 98 163
62 97 151
60 96 153
60 97 155
62 98 157
61 97 159
62 98 157
62 98 159
61 97 157
61 97 163
62 97 147
61 95 140
61 95 140
62 97 158
62 97 158
60 96 155
60 95 137
63 99 162
63 98 155
61 96 149
59 93 140
60 95 136
59 93 147
59 88 116
88 84 0
78 76 16
81 76 0
92 89 0
97 94 0
87 86 5
93 91 0
84 82 0
82 79 0
99 96 16
110 107 22
110 108 11
114 111 32
110 107 20
112 108 7
110 108 22
111 109 34
113 110 25
110 108 16
114 113 16
127 122 23
121 117 36
128 125 32
131 126 32
129 126 22
128 124 32
131 127 16
123 116 22
128 122 42
136 131 44
131 126 36
141 136 28
130 125 28
134 130 28
135 130 42
120 117 16
136 130 36
132 127 42
129 124 22
129 122 28
107 103 16
136 130 39
128 121 28
121 118 22
128 122 32
120 114 0
127 121 28
120 111 28
136 143 16
159 175 0
160 172 0
165 181 0
150 161 0
166 180 0
166 182 0
160 173 0
163 181 0
160 176 0
167 184 0
168 186 0
168 187 0
165 182 0
163 180 0
166 186 0
166 183 0
165 185 0
169 188 0
162 183 0
173 191 0
165 182 0
170 191 0
168 186 0
167 188 0
170 190 0
165 184 0
167 187 0
170 189 0
170 192 0
168 191 0
171 192 0
172 193 0
171 191 0
171 193 0
168 188 0
171 193 0
173 196 0
171 193 0
170 193 0
169 189 0
170 192 0
170 190 0
171 193 0
170 193 0
173 195 0
173 196 0
170 192 0
169 192 0
174 196 0
171 193 0
169 191 0
170 192 0
170 193 0
173 196 0
172 197 0
174 196 0
176 195 0
174 197 0
169 192 0
173 195 0
173 195 0
175 198 0
173 196 0
170 192 0
175 196 0
171 194 0
173 195 0
173 196 0
171 195 0
174 197 0
173 196 0
173 194 0
172 193 0
170 194 0
173 196 0
170 194 0
172 196 0
172 195 0
172 195 0
173 196 0
173 196 0
174 198 0
176 199 0
171 194 0
173 196 0
172 194 0
174 197 0
176 199 0
172 196 0
173 194 0
173 197 0
174 198 0
173 195 0
172 196 0
173 196 0
172 195 0
175 198 0
172 196 0
176 198 0
174 197 0
173 197 0
175 197 0
172 196 0
176 198 0
173 196 0
174 198 0
174 197 0
175 198 0
174 197 0
175 198 0
173 196 0
174 198 0
174 196 0
175 198 0
173 197 0
174 198 0
175 197 0
172 196 0
173 197 0
175 197 0
174 198 0
177 199 0
173 197 0
172 197 0
171 196 0
173 197 0
174 198 0
173 196 0
175 198 0
173 197 0
173 197 0
172 197 0
172 196 0
174 198 0
173 197 0
174 197 0
173 197 0
172 196 0
174 198 0
175 197 0
172 197 0
173 197 0
174 197 0
173 197 0
170 194 0
173 196 0
174 197 0
176 199 0
173 196 0
172 196 0
174 197 0
172 196 0
177 199 0
173 197 0
174 197 0
172 195 0
176 199 0
175 198 0
173 196 0
175 198 0
171 195 0
173 197 0
169 192 0
174 198 0
173 196 0
173 197 0
173 197 0
168 190 0
174 197 0
170 194 0
173 197 0
172 196 0
169 193 0
171 194 0
173 197 0
176 199 0
173 196 0
173 197 0
173 197 0
174 197 0
171 195 0
168 191 0
174 197 0
173 196 0
170 194 0
174 197 0
174 197 0
174 198 0
172 196 0
171 194 0
173 197 0
170 194 0
170 193 0
174 198 0
171 196 0
171 194 0
175 198 0
171 194 0
172 196 0
175 198 0
169 192 0
166 190 0
171 195 0
169 192 0
171 194 0
170 194 0
169 193 0
172 195 0
173 196 0
167 190 0
170 193 0
169 193 0
175 198 0
171 193 0
175 198 0
167 191 36
184 205 120
187 208 130
182 203 120
181 203 108
177 200 80
179 202 88
175 198 36
190 210 140
209 225 207
219 233 240
220 234 250
218 233 250
219 234 255
216 232 248
217 233 253
216 232 250
214 231 248
215 232 253
213 230 248
214 231 253
211 229 242
212 230 250
212 230 253
210 229 248
210 228 242
212 230 250
211 229 250
213 230 253
211 230 253
212 230 248
209 227 240
211 229 245
212 230 250
215 232 255
211 228 248
211 229 240
216 232 255
216 233 255
217 233 253
215 231 245
219 234 253
219 234 253
221 236 255
220 235 250
218 232 250
94 122 188
69 104 179
99 126 189
111 137 194
99 126 186
99 126 184
62 98 173
66 101 163
65 101 170
68 103 173
61 97 170
66 100 165
83 114 156
69 103 159
60 96 160
59 95 156
61 97 172
63 99 169
61 98 175
60 96 159
61 97 164
59 95 160
62 98 166
59 96 165
60 97 165
63 99 173
59 95 157
61 98 173
62 98 159
62 98 163
64 100 173
61 98 166
61 97 165
63 99 175
63 99 167
62 98 163
62 98 161
62 99 173
61 98 169
62 97 159
61 98 167
61 98 163
61 97 157
63 99 169
62 98 169
62 98 163
61 97 163
63 99 161
60 96 157
61 97 157
62 98 165
60 96 157
61 97 163
62 98 163
63 99 165
61 97 163
62 98 157
62 98 157
62 98 161
62 99 169
63 100 169
61 97 155
62 99 167
63 99 165
62 98 161
62 98 157
62 97 151
60 96 151
61 97 155
61 97 151
61 96 144
62 97 153
62 97 159
62 98 159
62 98 163
62 98 155
60 96 142
62 98 159
60 96 151
61 96 147
61 97 163
59 93 142
61 96 149
61 96 142
62 97 151
63 98 154
61 95 144
59 92 135
60 95 147
77 100 123
89 83 16
56 53 0
91 88 19
92 90 0
86 83 0
70 68 0
86 82 0
87 84 11
101 97 0
105 100 0
110 103 11
117 113 25
97 94 12
99 97 16
108 107 0
112 107 16
115 113 28
114 112 16
112 110 30
131 127 22
122 117 22
117 112 16
117 113 22
120 117 36
125 120 32
134 128 28
131 127 22
128 124 16
130 126 23
134 129 28
120 116 16
126 122 22
133 128 28
125 120 16
122 119 22
132 127 22
134 129 28
118 115 16
130 125 28
118 114 32
130 125 28
118 113 0
118 112 22
131 127 32
100 95 16
115 112 16
118 111 28
143 148 16
159 173 0
160 172 0
161 177 0
159 173 0
153 166 0
165 177 0
157 171 0
163 175 0
163 182 0
162 175 0
157 174 0
168 186 0
163 178 0
170 187 0
167 186 0
170 189 0
169 189 0
170 190 0
166 183 0
168 187 0
171 193 0
171 192 0
163 182 0
159 179 0
170 190 0
172 193 0
168 188 0
170 190 0
168 189 0
168 189 0
165 187 0
173 193 0
165 185 0
168 189 0
172 193 0
173 193 0
169 190 0
172 194 0
169 191 0
173 196 0
171 193 0
172 194 0
175 197 0
166 190 0
173 194 0
174 197 0
172 194 0
171 193 0
167 189 0
172 195 0
175 197 0
172 193 0
169 192 0
172 196 0
174 196 0
171 194 0
171 193 0
170 194 0
175 197 0
172 194 0
171 194 0
175 198 0
172 195 0
174 197 0
172 197 0
173 196 0
170 193 0
171 195 0
171 194 0
165 189 0
175 198 0
176 198 0
172 194 0
174 196 0
172 195 0
171 193 0
175 198 0
172 196 0
173 195 0
172 196 0
173 196 0
173 197 0
171 194 0
175 196 0
170 194 0
174 197 0
172 193 0
172 196 0
173 196 0
173 196 0
174 197 0
172 196 0
174 197 0
173 197 0
173 197 0
174 197 0
172 195 0
173 197 0
172 197 0
174 197 0
176 197 0
176 199 0
176 197 0
176 198 0
172 195 0
174 198 0
173 197 0
172 197 0
172 197 0
172 195 0
173 197 0
171 194 0
174 197 0
175 198 0
176 199 0
172 197 0
172 196 0
171 194 0
173 197 0
175 197 0
173 196 0
173 196 0
173 197 0
173 197 0
173 197 0
176 198 0
174 198 0
176 198 0
174 198 0
173 196 0
174 197 0
175 197 0
175 198 0
175 198 0
172 195 0
175 198 0
173 196 0
172 196 0
174 198 0
174 198 0
173 197 0
175 198 0
174 197 0
175 197 0
173 196 0
175 198 0
175 198 0
175 197 0
170 195 0
174 197 0
178 200 0
174 198 0
173 197 0
175 198 0
171 195 0
169 192 0
174 198 0
171 196 0
173 197 0
175 198 0
173 197 0
170 195 0
172 197 0
171 194 0
176 199 0
175 197 0
174 198 0
170 195 0
171 195 0
171 195 0
173 197 0
171 196 0
173 197 0
174 197 0
174 198 0
174 197 0
170 195 0
174 198 0
174 198 0
173 196 0
174 198 0
174 198 0
173 196 0
175 198 0
171 195 0
170 194 0
172 197 0
174 198 0
167 190 0
174 197 0
172 196 0
174 198 0
175 198 0
170 194 0
174 198 0
172 196 0
170 195 0
170 193 0
171 193 0
173 196 0
172 195 0
166 190 0
175 198 0
171 195 0
167 191 0
173 196 0
172 197 0
172 194 0
171 194 0
171 195 0
165 188 0
168 192 0
172 196 0
170 193 0
167 191 36
175 197 80
184 205 125
183 204 120
185 206 120
185 207 125
180 202 108
178 202 88
193 212 157
209 225 211
221 235 250
220 234 250
218 233 250
218 233 250
215 231 245
216 232 253
217 233 253
212 230 248
214 231 253
211 229 248
212 230 250
213 231 255
212 230 253
212 230 253
213 231 255
212 230 255
211 230 253
210 229 255
211 230 255
211 230 255
211 230 255
211 230 255
210 229 253
211 230 255
211 230 255
212 231 255
211 230 255
212 230 255
212 230 250
212 230 250
212 230 250
215 232 255
214 230 245
215 232 255
216 233 253
219 234 255
220 235 255
217 233 254
183 200 233
84 115 188
100 128 188
80 112 186
103 129 190
95 123 186
89 118 181
72 106 179
60 96 162
62 98 171
61 98 170
65 100 161
66 101 165
73 107 163
76 108 152
61 97 165
62 98 166
61 97 168
61 97 159
61 98 163
61 97 165
61 98 169
61 97 170
62 99 171
61 97 155
60 96 163
61 98 169
61 97 168
61 97 159
63 99 165
63 100 171
62 98 167
63 100 171
62 98 157
62 98 167
63 99 171
63 99 161
62 98 165
62 99 167
62 98 165
62 98 155
62 98 167
62 98 165
61 97 153
62 99 171
62 98 163
61 98 159
62 98 167
60 96 159
63 99 169
60 96 157
62 98 159
61 98 163
62 98 167
61 96 156
60 96 155
62 98 159
61 98 163
61 97 157
62 99 169
62 98 163
61 97 149
61 97 155
61 97 161
61 97 151
61 98 165
61 97 153
62 97 157
62 98 155
62 97 155
61 97 155
60 94 142
61 97 155
63 99 163
62 97 153
60 95 142
62 97 151
61 97 157
61 96 151
60 96 144
62 97 149
60 94 144
60 95 144
59 93 135
60 95 140
60 95 143
60 94 145
60 94 142
59 93 140
81 100 103
124 125 0
76 69 0
80 77 0
100 95 16
86 82 0
83 79 0
112 105 0
79 76 0
95 89 0
107 102 0
109 106 11
105 102 16
111 107 0
71 71 0
96 95 16
117 113 0
114 111 19
92 90 19
127 121 25
123 118 0
129 124 28
104 99 19
123 119 30
128 125 22
116 110 28
121 118 22
125 120 32
126 123 0
110 107 0
136 128 36
136 133 28
122 117 28
127 122 32
115 112 16
134 129 32
134 127 28
127 121 36
137 131 42
138 131 45
111 108 0
127 121 36
136 131 39
115 110 16
118 110 28
132 126 42
124 126 16
142 150 0
166 180 0
150 159 0
156 167 0
162 174 0
154 165 0
166 181 0
170 186 0
158 170 0
161 176 0
166 184 0
163 178 0
164 180 0
165 181 0
165 183 0
163 181 0
168 186 0
166 185 0
169 187 0
168 186 0
167 185 0
167 183 0
167 188 0
168 187 0
161 180 0
164 185 0
173 192 0
166 185 0
169 191 0
169 190 0
166 183 0
166 187 0
166 186 0
171 193 0
168 188 0
167 189 0
173 192 0
170 191 0
172 194 0
173 195 0
175 195 0
170 192 0
170 194 0
173 195 0
175 194 0
169 189 0
168 189 0
168 189 0
173 196 0
171 194 0
170 192 0
170 191 0
175 195 0
169 190 0
174 196 0
171 195 0
171 194 0
173 194 0
170 193 0
172 195 0
175 197 0
174 197 0
172 194 0
172 195 0
172 196 0
175 198 0
170 194 0
173 197 0
173 196 0
172 195 0
174 197 0
176 198 0
174 198 0
175 198 0
171 194 0
171 194 0
174 196 0
170 195 0
173 195 0
173 195 0
176 198 0
171 194 0
173 196 0
174 196 0
172 196 0
172 195 0
173 196 0
172 196 0
170 194 0
175 197 0
172 196 0
172 196 0
174 198 0
175 197 0
175 197 0
170 193 0
173 197 0
174 198 0
172 196 0
172 196 0
173 196 0
174 197 0
172 197 0
173 196 0
175 197 0
174 198 0
173 196 0
170 194 0
174 196 0
172 196 0
173 197 0
173 195 0
176 198 0
173 196 0
173 196 0
173 197 0
172 196 0
175 198 0
174 198 0
172 196 0
175 198 0
174 198 0
173 197 0
173 197 0
174 198 0
173 197 0
173 196 0
176 198 0
173 197 0
176 198 0
170 195 0
172 196 0
173 197 0
176 198 0
172 195 0
174 198 0
172 196 0
171 195 0
173 196 0
171 194 0
173 197 0
176 199 0
175 198 0
176 199 0
172 196 0
170 194 0
173 197 0
173 197 0
173 197 0
173 197 0
173 197 0
172 196 0
174 197 0
174 198 0
173 197 0
174 198 0
175 198 0
173 197 0
174 197 0
172 196 0
171 195 0
172 197 0
173 197 0
176 199 0
175 198 0
174 197 0
172 196 0
176 199 0
175 198 0
171 195 0
173 197 0
176 199 0
172 196 0
177 199 0
176 198 0
173 196 0
173 197 0
174 197 0
173 196 0
172 196 0
172 197 0
171 195 0
177 199 0
174 198 0
174 198 0
170 195 0
171 195 0
174 196 0
171 196 0
175 198 0
175 198 0
172 195 0
173 197 0
172 196 0
174 198 0
172 197 0
174 197 0
175 196 0
175 198 0
171 194 0
172 196 0
174 197 0
173 197 0
172 196 0
171 194 0
169 193 0
171 195 0
172 194 0
171 194 0
174 197 0
167 190 0
171 196 0
170 194 0
172 196 0
175 197 0
184 205 108
186 206 114
183 205 108
181 203 95
181 204 102
180 201 80
184 207 130
184 206 125
208 224 207
220 234 245
220 234 250
218 233 250
218 233 250
216 232 250
214 230 248
216 233 255
211 229 245
213 230 250
211 229 250
210 229 250
211 230 255
211 230 255
211 230 255
209 229 255
208 228 255
207 227 248
206 225 240
204 224 240
207 225 240
202 221 226
204 224 226
207 226 231
201 221 217
205 224 240
204 223 223
204 223 223
202 221 228
209 228 250
206 226 248
212 230 255
211 230 255
212 230 255
211 230 253
212 230 253
211 229 248
212 230 248
212 230 245
211 227 252
213 229 250
215 230 253
149 169 214
73 106 181
89 119 182
84 115 184
88 118 184
113 138 194
90 119 186
68 103 175
62 99 181
66 102 177
67 101 163
78 109 159
68 102 151
72 106 164
77 108 156
64 100 161
60 96 166
61 98 169
60 97 163
62 98 170
60 96 157
61 97 161
60 95 164
60 96 171
62 98 165
62 98 157
62 98 165
61 97 165
61 98 165
61 97 161
62 99 169
62 99 167
61 98 161
62 98 165
61 98 167
61 97 159
62 98 163
62 99 167
63 99 167
61 98 165
62 99 171
61 97 161
61 97 153
63 99 167
62 99 167
61 97 153
62 98 165
61 97 163
62 98 161
64 99 165
62 99 173
62 98 163
60 96 151
61 98 163
62 98 157
62 98 165
62 98 157
62 97 153
61 96 149
63 99 167
61 97 151
61 98 165
62 98 167
60 96 147
62 98 159
63 99 167
59 95 149
61 97 151
62 98 159
62 98 165
62 97 149
61 96 144
63 98 153
61 97 155
61 97 149
63 98 153
62 98 155
60 95 138
62 97 144
61 96 153
61 95 144
59 93 131
62 98 156
62 97 153
61 95 145
57 90 123
59 93 123
59 93 136
83 100 77
111 113 0
113 115 16
92 92 0
103 99 22
90 83 0
92 86 0
102 95 0
98 94 0
87 84 0
86 84 0
102 96 0
97 94 0
96 94 0
100 96 0
95 92 0
106 102 0
104 99 16
99 97 0
118 114 16
111 105 16
107 104 0
126 122 22
119 114 16
120 117 0
124 120 22
121 116 0
127 121 16
129 125 0
121 117 28
128 124 36
123 117 16
115 112 0
125 122 16
124 118 28
133 126 28
117 112 0
115 110 16
130 124 36
120 114 36
111 105 28
110 107 22
111 105 32
122 116 16
108 103 16
134 141 16
149 158 0
152 161 0
155 164 0
160 172 0
160 174 0
157 170 0
159 172 0
159 172 0
158 172 0
162 176 0
158 174 0
159 172 0
159 174 0
161 177 0
163 180 0
157 174 0
164 179 0
164 179 0
168 187 0
164 180 0
166 183 0
166 187 0
169 187 0
162 179 0
169 185 0
168 189 0
169 190 0
169 189 0
168 187 0
169 189 0
174 195 0
172 196 0
163 182 0
169 191 0
168 188 0
169 190 0
168 189 0
171 194 0
169 192 0
170 191 0
167 190 0
169 189 0
175 196 0
169 192 0
170 190 0
170 192 0
173 195 0
169 193 0
173 194 0
172 192 0
174 196 0
169 192 0
174 196 0
175 197 0
171 193 0
172 192 0
174 196 0
171 193 0
174 194 0
175 197 0
173 196 0
173 195 0
172 194 0
174 196 0
171 192 0
176 197 0
171 192 0
172 193 0
171 193 0
172 195 0
172 194 0
173 193 0
172 196 0
170 194 0
172 195 0
171 194 0
174 197 0
170 193 0
173 194 0
173 197 0
173 196 0
174 196 0
172 196 0
173 197 0
175 197 0
169 192 0
172 197 0
173 197 0
173 196 0
173 196 0
177 199 0
174 197 0
174 196 0
173 196 0
173 196 0
173 197 0
173 197 0
176 199 0
172 195 0
171 195 0
176 199 0
175 198 0
174 197 0
174 198 0
173 196 0
174 198 0
171 196 0
175 198 0
172 197 0
175 198 0
174 197 0
175 197 0
175 198 0
173 197 0
174 197 0
171 195 0
174 197 0
171 195 0
173 197 0
172 195 0
175 197 0
174 196 0
175 197 0
173 197 0
175 198 0
177 199 0
175 198 0
174 198 0
173 197 0
172 195 0
177 199 0
175 198 0
173 197 0
172 196 0
175 198 0
175 198 0
175 198 0
174 197 0
174 197 0
173 197 0
170 194 0
174 198 0
172 196 0
173 196 0
173 195 0
174 197 0
175 198 0
172 196 0
171 195 0
174 198 0
170 194 0
174 197 0
176 198 0
174 197 0
173 196 0
170 194 0
174 197 0
173 196 0
175 198 0
174 197 0
176 198 0
175 198 0
174 197 0
174 197 0
173 196 0
174 198 0
174 198 0
173 197 0
172 196 0
169 193 0
174 197 0
171 195 0
175 198 0
172 195 0
176 198 0
174 198 0
172 196 0
172 196 0
169 193 0
174 197 0
176 198 0
170 195 0
173 197 0
173 196 0
171 195 0
173 196 0
171 195 0
171 195 0
174 197 0
173 196 0
174 197 0
174 198 0
173 197 0
174 196 0
173 196 0
173 196 0
174 198 0
175 198 0
169 192 0
167 192 0
171 195 0
171 194 0
169 194 0
173 197 0
169 194 0
174 197 0
170 195 0
166 190 0
176 199 0
168 192 0
171 193 0
170 194 0
169 191 0
169 192 0
172 196 0
189 208 125
192 212 149
185 205 120
181 203 102
180 202 95
180 203 95
181 203 95
196 214 161
217 232 237
220 234 250
217 232 245
217 233 253
217 233 255
212 229 242
214 231 253
212 229 248
213 231 255
210 228 245
212 230 255
210 229 255
210 229 255
208 228 253
206 225 237
202 222 228
210 228 240
205 223 220
195 214 188
200 218 207
208 224 223
198 216 194
200 218 198
198 215 198
207 224 217
206 223 217
204 221 201
202 220 194
207 224 211
198 216 198
201 219 201
196 214 198
193 213 188
203 222 211
204 223 226
205 223 231
208 227 242
211 230 255
213 231 255
214 231 255
211 228 253
214 231 254
209 225 250
208 224 249
104 130 193
73 107 181
78 110 181
83 114 181
98 126 189
85 115 175
94 122 185
75 107 175
61 98 175
61 98 174
66 101 173
68 103 164
69 103 154
62 98 166
66 101 165
75 108 169
60 97 166
62 99 169
60 96 157
61 98 169
61 98 168
61 97 167
61 97 164
62 98 169
61 98 169
62 99 171
61 97 165
62 98 163
61 97 165
61 97 161
60 96 153
61 97 151
61 98 167
63 99 163
62 99 165
61 97 153
63 100 173
62 98 165
62 98 161
61 98 161
62 98 163
63 99 165
63 99 163
62 98 161
61 97 153
62 98 161
62 97 161
61 97 155
61 97 155
62 98 159
60 96 149
62 98 163
61 98 159
60 96 149
63 99 163
61 96 157
61 96 151
62 98 157
61 97 149
62 98 163
60 96 151
62 98 159
62 98 155
62 98 165
62 97 151
63 99 165
59 95 140
62 98 159
61 96 147
62 98 161
62 97 149
60 95 140
61 96 147
60 96 140
60 96 144
62 97 157
61 96 140
62 97 147
60 94 137
62 97 149
62 97 153
62 98 157
61 97 155
61 95 151
61 95 147
58 92 120
58 91 129
105 112 57
104 104 0
116 124 0
118 120 0
104 102 0
70 67 0
87 79 0
91 85 0
81 77 11
91 87 0
106 102 0
91 89 0
96 93 0
110 106 11
101 97 0
101 96 0
88 86 0
101 98 0
109 107 0
104 100 11
108 104 16
113 108 0
107 105 0
114 111 22
110 107 0
110 106 0
121 116 16
107 102 16
114 111 32
112 109 22
118 113 16
126 120 16
116 113 0
114 110 16
120 115 28
130 125 0
112 106 16
126 122 22
123 118 0
127 122 22
115 107 32
93 87 0
111 105 16
115 118 0
150 155 0
150 157 0
143 150 0
152 160 0
149 160 0
154 165 0
153 164 0
153 164 0
158 168 0
162 178 0
163 176 0
168 183 0
165 181 0
163 179 0
166 181 0
167 182 0
159 172 0
163 178 0
162 177 0
168 188 0
164 183 0
161 176 0
163 180 0
162 178 0
168 185 0
167 186 0
169 189 0
170 189 0
171 195 0
166 183 0
164 183 0
167 186 0
168 188 0
165 185 0
171 191 0
167 187 0
171 191 0
168 189 0
170 190 0
166 186 0
164 182 0
174 196 0
171 193 0
169 190 0
168 190 0
173 195 0
169 192 0
173 193 0
168 190 0
172 196 0
172 194 0
170 192 0
166 189 0
172 195 0
174 195 0
173 196 0
173 195 0
176 197 0
167 189 0
173 195 0
173 195 0
171 193 0
170 193 0
172 196 0
172 193 0
172 195 0
169 193 0
174 195 0
173 194 0
175 197 0
174 196 0
173 196 0
175 198 0
171 195 0
166 190 0
172 193 0
172 194 0
173 194 0
172 196 0
169 193 0
172 196 0
172 196 0
172 195 0
170 191 0
172 195 0
174 198 0
172 196 0
174 197 0
175 198 0
174 197 0
173 196 0
174 198 0
173 196 0
173 197 0
175 196 0
173 196 0
175 196 0
171 196 0
173 196 0
175 198 0
178 199 0
176 198 0
173 196 0
175 198 0
174 196 0
173 196 0
172 196 0
173 195 0
175 198 0
170 194 0
173 197 0
173 197 0
172 196 0
173 196 0
170 194 0
173 197 0
172 197 0
174 196 0
173 197 0
173 197 0
172 197 0
171 196 0
170 194 0
173 196 0
174 198 0
171 195 0
173 197 0
174 198 0
174 198 0
173 196 0
172 196 0
176 199 0
174 198 0
174 198 0
173 196 0
175 198 0
175 198 0
173 197 0
171 195 0
177 199 0
176 199 0
173 197 0
172 196 0
174 197 0
170 195 0
173 197 0
173 196 0
173 197 0
173 196 0
174 197 0
171 195 0
174 198 0
174 198 0
175 197 0
175 198 0
175 197 0
171 195 0
174 198 0
173 197 0
174 198 0
173 197 0
173 197 0
171 195 0
175 198 0
170 194 0
173 195 0
174 196 0
171 194 0
171 194 0
171 194 0
174 197 0
174 198 0
175 198 0
175 198 0
176 199 0
175 197 0
171 195 0
174 197 0
171 194 0
170 194 0
175 198 0
173 196 0
175 198 0
173 196 0
174 197 0
171 195 0
172 196 0
168 193 0
169 193 0
172 195 0
169 194 0
169 193 0
173 195 0
166 190 0
174 197 0
175 197 0
171 194 0
174 198 0
174 198 0
172 195 0
175 197 0
175 198 0
171 195 0
173 195 0
176 198 0
171 196 0
174 198 0
173 196 0
174 197 0
174 197 0
170 194 0
172 194 0
172 196 0
172 196 0
171 195 0
171 195 36
180 202 88
179 200 95
182 204 114
181 203 102
177 201 80
177 200 62
181 203 95
215 230 231
221 235 250
221 235 255
215 231 240
216 232 250
216 232 250
215 232 253
213 231 253
211 229 248
212 230 253
211 230 255
210 229 255
207 227 242
204 223 234
203 222 214
201 219 204
207 224 217
201 219 204
207 224 220
215 230 237
206 223 217
208 224 211
201 218 211
193 212 181
198 216 181
188 208 153
191 210 144
190 210 144
191 211 153
192 211 165
185 206 144
195 214 161
192 211 144
194 213 181
196 215 188
206 222 214
199 217 194
204 221 211
208 225 226
204 222 201
200 219 209
205 223 237
208 227 253
203 222 249
211 228 253
212 229 253
205 221 248
119 143 199
67 103 182
84 115 186
85 115 184
90 119 184
80 111 182
85 116 184
62 99 173
62 98 169
62 99 177
60 97 163
63 99 167
61 97 173
65 100 157
64 97 150
61 97 167
59 95 141
61 97 159
61 97 165
59 95 163
61 98 165
62 98 171
61 97 161
60 97 163
61 97 160
61 97 163
61 97 157
61 97 162
61 97 159
60 96 155
61 97 166
62 98 159
62 99 165
62 98 163
62 98 171
62 97 157
61 97 159
62 99 167
62 98 163
61 97 159
62 98 163
62 99 169
62 98 163
60 96 155
61 97 157
61 97 159
61 97 157
61 97 157
63 99 163
60 96 153
63 99 163
61 97 155
62 98 161
62 99 163
61 97 153
62 98 159
62 98 159
60 96 151
62 98 165
63 99 163
62 98 157
62 97 147
61 96 149
62 98 155
61 97 155
61 97 157
60 95 147
61 96 144
62 98 155
59 93 133
61 96 144
62 98 157
60 96 153
61 97 147
61 96 142
61 97 155
60 96 151
61 97 147
62 97 151
61 97 153
60 95 142
58 93 133
60 95 142
59 93 131
62 96 143
64 96 133
115 121 25
123 131 0
121 123 0
121 120 0
110 115 0
91 93 0
103 98 0
97 89 0
87 81 0
92 88 0
87 82 0
91 89 0
78 74 0
93 86 11
85 82 0
95 89 0
84 82 0
107 102 0
111 106 0
102 100 0
117 111 16
113 110 0
117 112 0
102 98 0
102 100 0
113 109 16
116 109 0
122 118 0
101 96 0
118 114 0
122 115 22
102 98 0
116 112 0
131 124 16
102 97 16
115 112 22
104 96 0
104 99 0
109 102 16
107 101 16
91 88 0
119 114 28
145 147 0
151 157 0
149 156 0
146 152 0
158 171 0
157 167 0
163 177 0
157 168 0
148 156 0
158 171 0
163 178 0
156 165 0
163 175 0
159 174 0
153 167 0
162 176 0
163 180 0
162 180 0
165 180 0
158 173 0
167 185 0
163 180 0
166 187 0
166 183 0
168 188 0
169 187 0
169 189 0
168 188 0
165 182 0
170 190 0
168 185 0
172 194 0
167 187 0
172 193 0
162 181 0
166 186 0
174 195 0
167 188 0
166 186 0
168 190 0
167 188 0
171 193 0
167 190 0
166 187 0
171 195 0
172 194 0
168 192 0
169 189 0
174 196 0
172 192 0
169 190 0
172 194 0
170 193 0
169 192 0
173 195 0
172 196 0
170 192 0
173 196 0
173 196 0
173 195 0
170 191 0
171 194 0
168 191 0
167 188 0
173 194 0
172 194 0
174 196 0
172 195 0
175 196 0
170 193 0
170 192 0
171 193 0
173 197 0
174 197 0
175 198 0
172 195 0
171 194 0
172 196 0
172 194 0
173 195 0
169 191 0
172 195 0
172 197 0
173 196 0
174 198 0
173 196 0
175 198 0
171 194 0
174 194 0
172 196 0
172 195 0
173 197 0
173 196 0
174 196 0
174 197 0
175 198 0
172 196 0
172 196 0
173 197 0
174 196 0
173 196 0
176 198 0
172 195 0
174 198 0
174 196 0
173 197 0
172 197 0
174 197 0
173 196 0
173 197 0
173 196 0
174 198 0
176 198 0
176 198 0
171 195 0
173 197 0
174 197 0
170 194 0
175 198 0
174 196 0
173 197 0
172 195 0
177 199 0
173 196 0
174 197 0
174 198 0
175 198 0
174 198 0
175 198 0
175 198 0
174 198 0
173 197 0
172 197 0
178 200 0
176 198 0
172 197 0
173 197 0
173 195 0
172 197 0
172 196 0
172 196 0
176 199 0
176 199 0
174 197 0
175 198 0
175 198 0
176 198 0
172 196 0
175 197 0
176 199 0
173 196 0
173 197 0
175 198 0
174 198 0
174 197 0
175 198 0
171 196 0
174 198 0
174 198 0
173 197 0
174 197 0
173 197 0
171 194 0
172 196 0
174 197 0
174 197 0
170 194 0
176 199 0
175 198 0
174 198 0
174 197 0
172 197 0
174 198 0
175 198 0
172 196 0
177 199 0
172 196 0
175 198 0
172 197 0
174 197 0
174 198 0
172 195 0
173 196 0
172 195 0
173 196 0
173 196 0
175 198 0
171 194 0
173 196 0
173 197 0
173 197 0
167 191 0
172 195 0
171 195 0
173 196 0
174 197 0
170 193 0
177 198 0
172 195 0
174 197 0
173 197 0
174 197 0
167 190 0
172 195 0
173 196 0
174 198 0
173 197 0
172 196 0
166 190 0
172 196 0
172 196 0
172 195 0
173 196 0
170 192 0
170 194 0
170 194 0
175 198 0
178 199 102
178 199 102
180 202 88
181 202 88
179 202 102
182 205 114
206 222 194
222 236 253
221 235 253
220 235 253
217 233 253
212 229 245
214 231 250
213 231 253
213 231 255
213 231 255
211 230 255
209 229 253
203 222 223
195 215 188
193 212 181
207 224 223
207 224 214
209 225 223
211 226 223
196 212 198
195 214 169
182 203 108
178 201 72
176 200 72
174 197 51
176 200 88
177 200 80
175 198 51
169 192 36
170 194 51
179 202 95
173 196 51
170 194 51
173 196 62
174 197 80
173 197 51
177 201 88
176 198 80
174 197 88
175 197 108
193 212 165
189 208 169
206 222 215
185 204 198
158 179 196
178 198 224
194 213 242
212 229 254
215 232 255
193 211 241
84 115 188
68 103 181
85 115 186
79 111 179
84 115 184
79 111 186
85 115 183
62 99 171
61 97 168
61 97 170
62 98 173
66 102 177
64 100 165
61 97 167
65 99 163
66 100 161
61 97 159
61 97 164
59 95 152
61 97 153
61 98 168
60 95 156
62 98 159
60 95 149
61 97 159
62 98 159
62 98 161
61 98 163
62 98 161
61 97 157
61 98 161
62 98 165
61 97 163
61 97 163
61 96 155
62 98 161
63 98 159
61 97 159
61 97 157
62 98 161
61 97 159
61 97 161
61 97 151
62 98 153
61 96 155
62 98 159
63 99 161
61 97 151
61 97 151
63 99 165
62 98 157
62 98 161
61 96 144
62 98 161
63 99 163
61 96 153
63 99 161
61 97 155
63 99 167
62 98 161
61 97 149
61 97 159
61 97 149
61 97 151
61 97 147
62 97 147
62 98 155
63 99 165
62 98 165
63 99 163
61 97 161
60 95 140
63 98 159
62 97 155
61 97 144
61 97 149
63 98 156
60 95 142
58 92 140
59 94 135
62 97 155
59 94 135
61 95 135
60 93 148
75 95 102
108 113 0
124 128 0
119 125 0
117 125 0
110 117 0
111 112 0
106 105 0
108 108 0
105 104 0
90 88 0
87 85 16
91 85 0
82 78 0
107 100 0
89 86 11
94 86 0
104 98 0
95 92 0
97 91 0
103 95 0
102 98 0
97 90 0
109 105 0
113 108 0
110 105 0
122 117 16
106 101 0
112 106 0
107 104 0
108 103 0
117 112 0
114 108 16
101 96 16
123 115 16
98 94 0
113 105 16
113 106 16
106 101 22
103 99 0
115 116 0
137 144 0
147 154 0
152 154 0
158 172 0
146 151 0
146 154 0
142 151 0
149 160 0
160 172 0
162 172 0
158 167 0
150 164 0
155 168 0
166 180 0
156 170 0
164 178 0
166 182 0
157 171 0
165 182 0
162 176 0
160 173 0
165 183 0
165 185 0
167 184 0
167 185 0
165 182 0
161 177 0
167 183 0
167 185 0
170 191 0
169 187 0
168 189 0
166 186 0
164 182 0
165 183 0
169 189 0
164 183 0
167 187 0
167 185 0
167 186 0
172 194 0
173 196 0
171 191 0
170 191 0
175 196 0
166 186 0
170 191 0
173 196 0
170 190 0
167 186 0
169 191 0
172 195 0
167 189 0
169 190 0
165 187 0
169 191 0
170 190 0
171 193 0
169 191 0
172 195 0
172 196 0
171 192 0
170 192 0
170 191 0
172 193 0
175 197 0
170 193 0
170 192 0
171 194 0
171 193 0
173 194 0
173 197 0
175 198 0
169 191 0
172 194 0
174 195 0
174 196 0
175 197 0
173 196 0
175 198 0
171 193 0
173 196 0
172 195 0
172 195 0
173 196 0
172 195 0
174 197 0
176 198 0
177 198 0
173 196 0
174 196 0
173 197 0
176 198 0
174 198 0
173 196 0
174 197 0
173 197 0
173 196 0
173 197 0
172 195 0
176 199 0
174 197 0
171 194 0
173 197 0
171 195 0
177 199 0
175 197 0
175 197 0
176 199 0
174 198 0
174 197 0
173 195 0
173 195 0
174 197 0
173 197 0
172 197 0
176 198 0
172 196 0
175 197 0
174 197 0
175 198 0
176 199 0
174 198 0
176 198 0
176 199 0
174 197 0
173 197 0
175 197 0
174 197 0
174 196 0
174 198 0
173 196 0
174 196 0
171 194 0
173 197 0
174 198 0
177 199 0
174 197 0
172 196 0
174 198 0
175 198 0
174 198 0
172 196 0
174 197 0
174 198 0
174 198 0
173 196 0
175 198 0
173 197 0
173 197 0
171 196 0
173 196 0
176 198 0
175 197 0
174 198 0
175 198 0
173 195 0
172 197 0
174 198 0
170 195 0
175 198 0
174 197 0
175 198 0
169 193 0
174 198 0
177 199 0
173 197 0
174 196 0
175 198 0
175 198 0
176 199 0
177 199 0
174 197 0
174 197 0
175 198 0
174 197 0
175 197 0
175 198 0
176 198 0
176 199 0
169 192 0
172 194 0
172 197 0
171 196 0
169 193 0
173 196 0
173 197 0
174 198 0
172 196 0
174 198 0
176 198 0
174 197 0
172 197 0
174 196 0
171 196 0
171 195 0
172 196 0
166 189 0
171 196 0
171 195 0
173 196 0
171 193 0
169 193 0
168 192 0
171 195 0
174 197 0
171 194 0
172 196 0
174 197 0
172 196 0
170 194 0
171 195 0
171 194 0
173 196 0
168 192 0
170 192 0
169 194 0
180 201 80
187 207 120
187 208 130
182 204 95
185 206 114
180 202 95
181 203 95
216 231 234
220 234 245
220 235 250
220 235 255
215 232 250
216 232 253
214 231 253
213 231 255
212 231 255
210 229 255
208 227 248
207 225 240
198 217 198
197 216 184
197 215 191
201 218 204
207 222 201
190 211 149
178 200 108
175 199 62
172 195 80
176 200 80
176 199 36
173 195 36
177 199 36
171 195 72
177 201 95
174 198 72
177 200 88
175 198 72
174 197 72
175 199 62
172 197 108
178 201 95
176 199 80
169 193 80
169 193 62
177 200 72
174 199 62
177 199 72
173 196 51
178 201 102
172 195 80
142 167 142
118 145 171
109 136 165
123 148 157
121 147 163
151 173 194
184 203 231
211 228 253
176 195 231
68 103 182
78 111 184
101 128 191
98 126 191
68 103 173
89 118 179
75 108 181
62 99 175
62 99 177
60 96 167
62 99 171
62 99 167
61 96 161
60 96 156
61 96 163
59 95 157
61 98 172
62 99 175
61 98 161
61 97 168
61 97 165
62 98 159
61 97 157
61 98 163
60 96 153
60 96 151
62 98 166
62 98 167
61 97 157
62 98 161
62 98 161
61 97 159
60 97 157
61 97 155
62 97 153
63 99 169
63 99 169
61 97 151
62 99 165
63 99 163
62 97 157
61 97 155
61 96 151
62 98 163
62 98 159
61 97 157
63 99 165
61 96 153
61 97 159
61 97 157
63 99 165
62 97 151
61 97 151
62 97 151
62 98 163
61 97 155
61 96 144
63 99 165
61 97 153
61 96 144
61 97 151
60 95 142
61 96 137
61 97 159
63 98 153
60 95 147
63 99 157
60 95 144
61 97 149
61 96 147
61 96 137
60 95 142
62 98 164
62 97 149
62 98 157
61 96 149
60 95 140
61 96 144
60 95 138
58 91 133
60 94 125
59 93 134
59 92 133
89 106 93
102 105 0
104 107 0
103 104 0
107 112 0
107 110 0
104 107 0
107 109 0
106 108 0
110 115 0
82 83 0
85 81 0
80 77 0
79 73 0
96 88 0
93 85 0
96 87 0
86 80 0
97 89 0
97 90 0
95 93 0
93 90 0
95 88 0
96 88 0
99 95 0
87 82 0
113 107 0
103 98 0
101 95 0
98 93 0
108 100 16
118 113 0
100 95 0
108 100 16
100 93 16
97 92 0
119 112 16
117 114 16
121 117 0
145 147 0
146 150 0
150 154 0
148 158 0
141 148 0
149 154 0
147 150 0
156 164 0
156 166 0
146 156 0
154 164 0
153 161 0
163 175 0
157 168 0
151 164 0
152 164 0
160 177 0
151 162 0
163 177 0
162 175 0
164 178 0
167 184 0
160 177 0
166 185 0
162 179 0
164 180 0
169 185 0
167 186 0
168 186 0
159 177 0
164 181 0
167 185 0
163 180 0
170 187 0
164 183 0
172 193 0
163 183 0
168 189 0
171 193 0
169 191 0
165 184 0
171 190 0
170 193 0
168 189 0
172 192 0
173 194 0
171 192 0
172 195 0
174 196 0
173 195 0
171 193 0
171 192 0
168 187 0
172 194 0
172 194 0
167 188 0
172 194 0
173 195 0
169 192 0
169 192 0
169 192 0
174 196 0
173 195 0
171 192 0
171 196 0
170 192 0
173 197 0
173 195 0
173 196 0
171 194 0
174 197 0
173 196 0
175 197 0
174 196 0
171 195 0
172 194 0
175 196 0
169 191 0
172 196 0
173 196 0
174 196 0
172 194 0
173 195 0
173 196 0
173 197 0
173 196 0
178 199 0
175 198 0
171 195 0
176 199 0
173 197 0
172 195 0
174 197 0
172 194 0
175 198 0
172 195 0
174 197 0
174 196 0
174 198 0
175 197 0
175 198 0
173 196 0
176 198 0
173 196 0
172 195 0
177 197 0
174 197 0
171 194 0
176 199 0
172 196 0
173 196 0
176 198 0
174 196 0
172 194 0
174 197 0
172 195 0
173 196 0
173 196 0
170 194 0
174 198 0
174 198 0
176 197 0
172 194 0
175 198 0
173 197 0
170 195 0
172 196 0
174 198 0
172 196 0
176 198 0
173 197 0
174 198 0
175 197 0
172 197 0
174 197 0
173 196 0
170 194 0
171 194 0
174 197 0
170 193 0
174 197 0
172 195 0
173 196 0
169 193 0
173 197 0
174 196 0
173 196 0
174 198 0
177 199 0
172 195 0
172 197 0
175 198 0
173 197 0
174 198 0
172 195 0
176 199 0
175 197 0
174 198 0
174 198 0
173 197 0
171 195 0
172 196 0
172 196 0
175 198 0
173 197 0
175 198 0
171 195 0
171 194 0
171 194 0
176 198 0
170 193 0
173 197 0
174 197 0
177 199 0
171 195 0
174 197 0
174 197 0
174 197 0
175 198 0
172 196 0
172 196 0
173 197 0
174 197 0
173 196 0
172 196 0
173 196 0
174 197 0
169 193 0
173 196 0
174 198 0
173 197 0
173 196 0
173 196 0
173 196 0
171 194 0
172 195 0
173 197 0
172 197 0
169 192 0
171 195 0
168 192 0
171 195 0
175 198 0
171 195 0
172 196 0
172 196 0
170 195 0
173 197 0
174 196 0
171 194 0
172 196 0
174 197 0
172 196 0
174 197 0
173 197 0
173 196 0
171 194 0
168 193 0
181 202 95
192 211 149
186 206 114
179 201 95
180 203 95
176 200 72
188 209 135
217 232 237
220 235 250
218 233 248
218 233 253
214 231 245
214 231 253
210 228 240
213 231 255
212 230 255
208 227 245
204 224 226
206 223 211
203 221 211
207 223 220
193 212 177
191 211 153
180 203 108
177 200 72
175 199 62
175 199 51
175 198 72
171 195 72
171 195 80
171 196 102
168 191 36
175 199 80
175 198 72
176 199 88
172 195 72
171 196 62
175 198 62
175 198 51
169 193 62
174 198 80
170 193 72
173 197 62
177 199 62
180 201 72
171 195 88
177 201 102
174 198 62
171 195 72
172 195 51
170 195 51
128 153 140
100 128 167
105 132 163
114 141 163
111 137 151
106 134 171
101 130 163
140 163 180
195 213 241
155 176 218
83 115 188
63 100 181
80 112 181
83 114 182
74 107 177
85 115 181
74 107 175
62 99 179
60 96 169
62 99 171
62 98 167
62 98 163
68 102 156
63 98 162
65 100 159
65 99 157
62 98 168
61 97 163
60 96 159
60 95 155
62 98 163
60 96 158
62 99 171
61 97 163
61 97 157
62 98 165
61 97 161
60 96 161
62 98 155
62 98 161
62 98 163
62 98 161
62 98 155
61 96 151
62 98 159
61 97 159
60 96 155
61 96 147
61 97 155
62 98 161
63 99 163
61 96 155
62 98 159
61 96 149
60 96 149
61 96 147
62 98 155
62 98 157
62 98 159
63 99 159
61 97 157
62 98 151
64 100 173
64 100 165
62 97 149
62 98 157
60 96 142
61 96 147
62 98 153
61 97 153
61 96 149
62 97 151
62 97 153
61 97 144
62 97 147
60 96 149
61 97 149
62 98 163
61 96 147
61 96 147
59 93 130
62 97 153
60 95 144
60 96 144
60 95 137
62 97 151
61 95 140
60 94 135
60 95 137
58 91 115
60 93 145
60 93 141
114 122 36
103 107 0
112 118 0
120 122 0
98 102 0
117 126 0
111 119 0
112 112 0
116 118 0
108 110 0
106 106 0
90 97 0
75 73 0
100 94 0
105 104 0
83 78 0
86 81 0
91 86 0
98 90 0
83 78 0
78 68 0
91 87 0
89 83 0
100 93 0
87 81 0
110 104 0
103 95 16
99 93 16
105 98 0
100 94 0
94 89 0
110 99 0
101 95 16
111 103 0
111 107 0
128 130 0
132 132 0
144 148 0
141 143 0
140 145 0
140 149 0
150 155 0
145 151 0
156 161 0
147 153 0
147 156 0
152 161 0
154 163 0
154 163 0
164 177 0
145 152 0
158 173 0
153 167 0
154 166 0
157 168 0
152 164 0
159 176 0
161 177 0
157 170 0
157 172 0
168 184 0
158 172 0
167 186 0
163 180 0
168 186 0
161 178 0
164 183 0
170 188 0
165 182 0
166 182 0
166 182 0
170 190 0
169 189 0
164 185 0
167 188 0
170 191 0
169 190 0
163 181 0
170 190 0
168 187 0
167 187 0
170 192 0
165 183 0
167 187 0
172 193 0
170 191 0
169 190 0
167 189 0
162 183 0
174 197 0
172 195 0
174 196 0
171 191 0
171 193 0
169 191 0
169 193 0
170 193 0
171 191 0
174 196 0
174 196 0
168 188 0
172 194 0
166 187 0
172 194 0
172 194 0
171 193 0
175 197 0
170 191 0
173 195 0
173 196 0
174 196 0
168 189 0
171 193 0
172 195 0
170 193 0
172 195 0
173 194 0
172 194 0
173 196 0
175 198 0
171 195 0
172 194 0
174 197 0
168 191 0
174 198 0
173 197 0
171 194 0
170 193 0
172 194 0
173 197 0
171 194 0
174 197 0
173 195 0
175 198 0
173 195 0
175 197 0
171 195 0
172 196 0
173 195 0
172 195 0
173 197 0
172 195 0
171 195 0
171 194 0
175 198 0
178 200 0
174 197 0
173 196 0
171 194 0
174 196 0
173 197 0
173 197 0
175 198 0
174 197 0
173 196 0
175 197 0
171 194 0
173 196 0
173 196 0
174 198 0
174 198 0
176 198 0
174 198 0
175 198 0
173 197 0
176 198 0
174 197 0
173 196 0
172 197 0
173 197 0
173 197 0
173 197 0
175 198 0
175 198 0
174 198 0
174 198 0
174 198 0
170 194 0
174 196 0
173 197 0
173 197 0
170 194 0
177 199 0
171 195 0
172 195 0
174 198 0
174 197 0
172 196 0
174 197 0
173 195 0
176 198 0
174 198 0
175 198 0
173 196 0
172 196 0
173 196 0
172 195 0
175 198 0
173 197 0
174 198 0
172 195 0
172 196 0
172 196 0
171 196 0
177 199 0
174 198 0
172 195 0
175 198 0
174 198 0
175 198 0
173 196 0
174 197 0
174 197 0
175 197 0
173 196 0
172 195 0
171 195 0
173 197 0
173 196 0
169 192 0
174 197 0
174 197 0
172 197 0
175 198 0
174 198 0
171 194 0
172 196 0
172 195 0
175 198 0
171 195 0
174 198 0
169 193 0
173 196 0
175 198 0
168 193 0
172 194 0
174 197 0
176 198 0
172 196 0
169 194 0
171 194 0
171 194 0
170 193 0
170 195 0
174 197 0
171 193 0
174 197 0
173 196 0
173 196 0
177 199 0
171 195 0
176 199 0
170 194 0
170 194 0
171 194 0
174 197 0
175 198 62
184 205 120
188 208 120
185 206 114
181 203 88
179 202 80
199 217 173
222 236 250
222 236 255
218 233 248
217 233 253
213 230 245
212 230 248
211 230 250
212 230 255
210 229 253
203 222 217
202 220 214
207 224 217
212 227 223
194 212 177
178 200 102
176 199 51
177 200 72
175 198 72
176 200 88
175 198 88
176 199 88
175 200 102
176 200 62
171 195 88
172 197 72
168 193 72
178 201 80
171 196 72
178 202 108
175 199 72
175 199 88
174 197 51
173 196 51
173 196 72
172 195 88
172 196 62
166 190 51
174 197 36
174 196 36
172 195 62
170 193 62
174 197 95
170 194 51
169 192 51
176 199 95
110 138 151
90 121 169
111 139 175
108 136 182
100 129 161
101 129 173
111 138 159
116 142 167
100 130 177
147 168 204
124 148 203
84 115 186
73 107 181
84 115 182
84 115 184
94 122 184
95 123 188
86 116 184
61 98 169
61 98 167
61 98 169
62 98 170
66 101 167
64 99 158
74 107 161
60 96 158
59 94 151
61 97 165
59 94 158
61 96 153
60 96 158
61 96 152
61 97 162
60 95 149
60 96 142
60 95 144
61 97 153
62 98 163
62 99 169
62 98 159
59 94 147
61 97 157
62 99 165
62 98 159
61 98 161
62 98 161
63 99 163
61 97 163
63 99 157
62 98 161
61 96 155
60 96 157
60 96 140
61 97 159
62 98 155
60 95 142
61 97 157
61 97 158
60 96 151
62 98 159
61 97 153
62 98 159
60 95 140
61 96 149
61 96 147
62 98 155
63 99 167
61 97 153
61 96 147
61 96 142
60 95 140
63 98 155
62 97 153
61 97 159
63 99 163
58 93 128
62 97 149
62 98 155
61 96 147
61 96 147
59 93 137
61 97 151
60 95 140
60 94 135
61 96 137
60 93 130
60 95 142
61 96 144
59 92 123
60 95 144
56 89 117
75 102 120
117 120 0
120 127 0
101 110 0
125 129 0
122 128 0
112 115 0
113 117 0
115 119 0
97 97 0
106 110 0
114 114 0
92 92 0
105 103 0
105 105 0
102 101 0
106 106 0
106 102 0
94 94 0
107 102 0
100 100 0
101 96 0
100 102 0
99 94 0
98 90 0
93 91 0
102 98 0
89 85 0
108 101 0
109 103 0
117 115 0
129 131 0
119 119 0
129 133 0
130 132 0
131 136 0
128 133 0
137 138 0
125 126 0
137 140 0
142 145 0
147 151 0
141 143 0
142 151 0
138 144 0
145 151 0
154 165 0
144 152 0
157 168 0
149 158 0
160 172 0
141 152 0
162 172 0
162 177 0
164 178 0
153 165 0
163 177 0
160 175 0
158 171 0
166 182 0
155 169 0
168 185 0
169 187 0
166 184 0
159 174 0
161 175 0
171 188 0
166 184 0
166 185 0
168 186 0
166 186 0
167 186 0
168 186 0
164 182 0
164 181 0
171 192 0
168 187 0
169 189 0
168 185 0
168 186 0
164 184 0
168 189 0
165 187 0
171 191 0
167 188 0
168 189 0
170 193 0
171 192 0
172 192 0
170 193 0
172 194 0
172 194 0
170 191 0
171 192 0
168 188 0
170 193 0
172 192 0
170 192 0
170 191 0
172 194 0
169 191 0
170 192 0
170 194 0
171 193 0
170 194 0
171 191 0
171 195 0
173 195 0
171 194 0
167 189 0
171 195 0
171 193 0
166 188 0
172 193 0
175 197 0
174 196 0
173 196 0
170 192 0
173 196 0
171 194 0
172 195 0
172 194 0
174 196 0
171 196 0
171 194 0
174 197 0
174 196 0
174 196 0
171 193 0
173 197 0
167 191 0
171 194 0
173 196 0
173 196 0
174 197 0
172 193 0
175 196 0
175 198 0
174 197 0
172 194 0
174 195 0
173 196 0
173 195 0
173 195 0
172 195 0
174 198 0
171 194 0
173 197 0
174 197 0
172 197 0
172 196 0
172 195 0
174 196 0
174 197 0
172 195 0
176 199 0
174 197 0
172 195 0
175 198 0
175 198 0
174 198 0
175 198 0
174 198 0
173 196 0
173 197 0
172 197 0
173 196 0
173 197 0
175 198 0
172 196 0
174 198 0
173 196 0
174 197 0
173 197 0
174 198 0
174 197 0
175 198 0
174 197 0
174 197 0
173 197 0
174 198 0
174 198 0
173 196 0
174 197 0
175 198 0
173 196 0
173 196 0
171 195 0
173 196 0
172 196 0
172 196 0
172 195 0
175 198 0
173 197 0
175 198 0
174 198 0
174 198 0
173 197 0
172 196 0
170 194 0
173 197 0
172 196 0
172 195 0
175 198 0
173 196 0
175 198 0
174 197 0
173 196 0
174 198 0
177 199 0
173 196 0
171 195 0
175 197 0
173 197 0
171 195 0
173 196 0
172 196 0
172 195 0
171 194 0
171 195 0
173 197 0
174 198 0
169 193 0
170 193 0
173 196 0
174 198 0
173 197 0
174 197 0
175 197 0
174 197 0
172 196 0
173 196 0
173 197 0
170 194 0
170 195 0
171 194 0
171 195 0
175 197 0
169 193 0
175 198 0
169 193 0
173 195 0
174 197 0
173 196 0
175 198 0
173 196 0
175 198 0
170 193 0
170 194 0
170 192 0
169 194 0
173 197 0
172 195 0
173 196 0
172 196 0
170 193 0
180 201 95
182 203 102
184 205 108
175 199 62
179 202 88
181 203 102
193 213 153
219 234 248
220 234 250
219 234 253
217 233 253
214 231 250
212 230 253
212 230 253
212 230 255
210 228 242
203 221 204
203 221 211
211 227 226
188 208 153
180 202 102
174 197 62
177 201 95
172 196 88
169 193 72
174 197 72
174 197 36
174 198 36
173 197 88
173 196 51
174 199 62
175 199 88
175 199 72
174 197 80
175 199 72
176 199 72
172 196 36
171 195 36
171 195 51
172 197 108
175 199 88
173 196 80
172 195 51
173 197 80
171 196 80
174 197 88
169 193 51
169 191 80
173 197 102
171 195 88
171 194 36
171 194 80
172 195 72
141 167 140
100 130 177
98 127 173
95 125 165
110 137 161
110 138 167
99 126 171
119 144 161
90 119 165
91 121 171
101 129 172
86 116 169
73 107 177
79 112 186
68 103 179
84 115 186
75 108 184
75 108 177
80 112 181
68 102 172
62 99 177
62 99 177
61 98 171
61 97 167
61 97 163
60 96 165
63 99 165
63 98 149
62 97 157
62 98 167
61 97 153
62 98 160
61 96 156
62 98 168
61 97 162
60 95 152
61 97 163
61 97 159
59 94 140
60 96 149
62 98 157
61 96 161
61 97 149
62 98 165
62 98 157
61 97 151
62 98 157
63 99 157
62 98 157
62 98 157
61 97 153
60 96 151
62 98 165
61 97 151
61 96 149
61 97 155
61 96 157
60 95 149
62 98 163
60 95 137
61 96 142
61 96 144
60 95 137
61 97 151
62 98 153
60 95 144
62 97 159
62 98 159
62 97 153
59 94 133
60 96 144
62 96 151
62 97 153
62 97 149
61 96 137
64 100 159
60 95 149
62 97 153
59 93 147
60 95 142
61 96 149
61 96 140
62 98 153
60 95 133
59 93 130
61 95 151
58 92 120
62 97 142
61 95 138
58 92 117
57 89 125
82 98 84
104 110 0
95 102 0
111 118 0
104 111 0
112 118 0
110 118 0
122 125 0
125 130 0
122 127 0
112 112 0
113 119 0
105 108 0
112 114 0
102 102 0
112 113 0
99 97 0
117 116 0
104 106 0
93 93 0
109 111 0
100 99 0
114 115 0
103 99 0
127 126 0
118 113 0
109 108 0
103 101 0
108 109 0
113 113 0
112 110 0
118 115 0
123 122 0
130 131 0
128 125 0
135 138 0
152 161 0
138 139 0
141 144 0
134 140 0
141 144 0
142 148 0
142 147 0
146 151 0
157 164 0
146 152 0
150 156 0
153 160 0
144 152 0
161 176 0
160 169 0
152 160 0
152 165 0
156 168 0
160 174 0
159 168 0
162 174 0
164 180 0
167 182 0
165 181 0
149 164 0
163 179 0
168 184 0
161 178 0
170 187 0
162 177 0
161 177 0
162 181 0
164 184 0
168 186 0
162 181 0
163 179 0
170 190 0
170 190 0
169 189 0
169 189 0
172 195 0
163 182 0
170 190 0
166 185 0
166 187 0
166 189 0
169 191 0
171 192 0
168 188 0
175 196 0
169 189 0
167 189 0
167 187 0
176 197 0
169 189 0
170 191 0
170 193 0
166 188 0
167 190 0
170 192 0
168 188 0
174 197 0
166 189 0
172 194 0
172 196 0
172 194 0
173 194 0
171 193 0
169 192 0
174 197 0
173 194 0
174 196 0
172 195 0
176 198 0
173 195 0
174 196 0
171 192 0
170 191 0
171 193 0
171 194 0
172 195 0
171 194 0
172 195 0
173 195 0
172 195 0
170 194 0
174 196 0
172 194 0
176 198 0
173 196 0
174 196 0
173 195 0
172 195 0
173 196 0
174 196 0
171 195 0
170 193 0
174 196 0
177 199 0
175 198 0
171 196 0
172 194 0
171 193 0
172 195 0
172 194 0
176 198 0
172 194 0
171 195 0
173 196 0
170 193 0
173 196 0
172 196 0
173 195 0
174 198 0
173 197 0
171 195 0
173 196 0
175 198 0
170 195 0
173 196 0
175 197 0
172 196 0
172 195 0
173 197 0
172 197 0
175 198 0
174 197 0
173 196 0
173 196 0
174 198 0
174 198 0
174 197 0
173 197 0
174 197 0
171 195 0
174 197 0
173 197 0
173 197 0
170 195 0
174 197 0
173 197 0
174 197 0
173 197 0
170 194 0
174 197 0
175 197 0
173 196 0
174 197 0
173 196 0
175 198 0
171 195 0
175 198 0
169 194 0
171 195 0
175 198 0
175 198 0
174 198 0
175 198 0
174 198 0
172 196 0
174 197 0
174 197 0
173 197 0
171 194 0
174 198 0
175 198 0
175 198 0
172 196 0
174 197 0
173 196 0
174 198 0
174 196 0
175 197 0
173 196 0
173 196 0
172 195 0
168 192 0
174 198 0
175 197 0
174 197 0
175 197 0
173 197 0
171 196 0
173 197 0
174 198 0
170 194 0
173 196 0
173 196 0
174 197 0
171 195 0
172 195 0
174 197 0
173 196 0
172 196 0
175 198 0
172 195 0
173 196 0
172 196 0
171 195 0
175 198 0
172 195 0
173 196 0
171 195 0
171 195 0
174 198 0
170 192 0
171 195 0
175 198 0
177 199 0
173 196 0
171 196 0
174 197 0
172 196 0
169 193 0
173 197 0
174 198 0
174 198 0
171 195 0
170 193 0
176 199 36
181 202 102
184 205 114
181 203 80
179 202 80
180 202 80
193 212 153
222 236 253
219 234 248
220 235 255
217 233 250
213 230 248
213 231 250
212 230 253
208 228 245
204 223 223
204 221 198
205 222 207
194 214 165
180 203 102
171 195 62
175 198 80
175 198 80
176 199 72
178 201 72
174 197 62
170 194 0
174 199 80
177 200 72
177 201 80
171 194 62
171 195 51
171 196 72
167 191 62
172 196 88
171 194 62
173 197 80
173 197 62
168 192 62
167 190 36
171 195 51
170 194 62
172 198 114
173 197 62
174 196 80
171 196 80
168 191 62
169 194 62
170 194 62
172 196 72
172 196 36
171 195 80
169 193 80
172 196 62
161 185 88
102 130 161
93 123 173
114 141 159
86 116 157
81 113 173
103 131 169
96 126 155
99 128 160
107 134 149
104 131 169
106 133 177
104 131 181
71 106 179
73 106 177
84 115 179
80 111 177
85 115 181
74 107 171
80 111 171
61 97 163
61 97 165
60 96 160
61 97 163
61 97 157
68 102 165
70 104 159
68 101 149
62 98 155
61 97 161
62 98 165
61 97 159
60 96 156
63 99 169
61 97 160
62 99 165
60 96 155
61 96 151
58 93 144
61 97 157
62 98 157
61 96 144
62 98 155
60 96 153
61 96 151
61 97 157
61 97 157
62 97 149
61 96 149
59 94 149
62 97 158
61 96 149
62 98 155
61 97 149
62 98 151
61 97 151
62 98 161
61 96 147
62 98 159
61 97 151
61 96 151
61 97 157
62 97 157
61 96 149
61 97 155
62 97 149
61 96 147
62 97 153
62 97 155
62 97 155
62 97 153
61 96 151
62 97 144
61 97 155
61 96 144
62 98 159
61 97 149
60 96 147
60 95 133
61 96 149
62 97 144
59 94 137
59 93 128
61 96 144
58 92 137
60 95 147
60 94 151
61 95 137
59 93 136
56 88 108
62 92 117
113 120 25
110 112 0
108 119 0
118 122 0
101 105 0
118 122 0
120 126 0
95 97 0
105 108 0
97 97 0
119 125 0
106 106 0
114 117 0
117 122 0
121 125 0
103 107 0
105 105 0
110 116 0
113 114 0
104 103 0
109 106 0
98 100 0
118 117 0
118 123 0
107 104 0
122 121 0
137 140 0
137 138 0
118 122 0
129 132 0
118 119 0
128 129 0
138 140 0
136 137 0
140 144 0
147 154 0
118 123 0
112 114 0
122 126 0
129 136 0
140 147 0
150 159 0
148 158 0
151 159 0
155 163 0
147 158 0
151 162 0
149 156 0
155 167 0
160 172 0
150 163 0
152 164 0
144 155 0
155 169 0
160 170 0
154 166 0
157 167 0
164 180 0
168 180 0
161 176 0
167 185 0
160 174 0
161 179 0
163 181 0
167 185 0
155 171 0
161 179 0
169 187 0
165 183 0
164 182 0
165 181 0
166 185 0
168 185 0
169 187 0
168 188 0
174 194 0
168 189 0
171 190 0
170 189 0
167 188 0
169 189 0
164 186 0
172 192 0
168 190 0
169 190 0
167 188 0
167 187 0
168 188 0
168 191 0
170 190 0
169 189 0
169 191 0
170 192 0
171 194 0
168 189 0
171 192 0
169 190 0
173 195 0
170 191 0
172 194 0
173 195 0
173 195 0
168 190 0
172 192 0
172 193 0
172 192 0
173 194 0
170 190 0
174 195 0
168 189 0
172 195 0
172 195 0
170 193 0
175 196 0
170 193 0
174 196 0
172 194 0
173 196 0
170 192 0
175 198 0
173 196 0
173 196 0
173 197 0
172 195 0
171 196 0
170 192 0
173 196 0
175 198 0
171 194 0
173 195 0
175 198 0
175 197 0
172 195 0
174 196 0
171 193 0
169 192 0
174 197 0
171 195 0
176 197 0
173 195 0
173 195 0
172 196 0
173 197 0
172 195 0
175 197 0
171 194 0
172 195 0
173 194 0
173 195 0
174 198 0
172 196 0
173 196 0
176 199 0
173 196 0
173 197 0
173 196 0
174 197 0
174 197 0
173 195 0
175 197 0
172 196 0
173 197 0
172 196 0
175 198 0
174 196 0
174 198 0
174 198 0
173 196 0
173 197 0
174 197 0
174 197 0
172 196 0
174 197 0
177 199 0
177 199 0
176 199 0
172 197 0
175 198 0
173 197 0
174 198 0
170 195 0
172 195 0
175 198 0
172 197 0
175 198 0
172 196 0
173 197 0
173 196 0
172 197 0
172 196 0
172 197 0
174 198 0
175 198 0
172 196 0
175 198 0
172 196 0
175 198 0
176 198 0
173 196 0
173 196 0
171 195 0
175 197 0
174 198 0
174 197 0
170 192 0
170 194 0
172 196 0
171 193 0
173 197 0
172 196 0
169 194 0
175 198 0
173 196 0
168 192 0
174 197 0
174 197 0
170 194 0
172 195 0
173 197 0
172 196 0
176 199 0
174 197 0
173 195 0
175 198 0
171 194 0
175 198 0
172 195 0
173 197 0
173 197 0
169 193 0
172 195 0
172 196 0
171 195 0
174 197 0
175 197 0
170 194 0
175 198 0
173 196 0
167 190 0
175 198 0
175 198 0
172 196 0
174 197 0
172 195 0
171 194 0
172 196 0
174 198 0
174 197 0
171 195 0
172 195 0
173 197 0
166 190 0
173 196 0
173 196 0
170 192 0
183 203 130
184 205 95
180 202 80
185 206 108
178 201 80
199 217 177
221 235 253
221 235 255
217 233 248
217 233 255
215 232 253
214 231 255
213 230 253
208 226 237
203 221 207
203 220 204
200 218 177
176 198 72
176 199 62
176 198 80
176 200 72
174 198 80
168 192 51
173 196 80
173 197 62
175 198 62
176 199 102
173 196 51
171 196 72
169 195 102
174 198 72
176 200 80
176 199 80
170 193 62
173 198 102
173 197 62
168 192 36
171 196 88
176 200 102
172 196 88
171 194 88
172 195 51
177 200 88
174 197 51
174 195 72
175 198 51
174 197 51
169 194 88
172 196 72
171 195 108
174 198 51
172 195 72
171 194 80
171 195 51
167 190 62
110 137 163
92 123 181
99 128 177
101 129 161
106 134 179
85 115 161
106 134 165
103 130 156
86 117 180
112 138 169
90 119 153
103 131 173
89 119 175
71 105 169
74 107 184
79 111 175
84 114 177
68 102 169
95 123 184
79 110 175
62 99 165
61 98 165
63 99 169
60 95 163
61 97 164
62 98 161
64 99 154
66 99 150
61 97 153
62 97 167
61 98 159
60 96 149
62 98 163
60 96 155
62 98 163
61 96 151
60 95 142
62 98 155
62 98 161
62 97 149
61 97 151
61 96 145
62 98 157
62 98 153
60 96 149
62 97 161
60 96 144
61 96 151
63 99 163
61 97 151
61 96 155
61 96 155
61 96 147
62 97 153
61 96 151
61 96 151
63 99 161
61 96 144
62 98 153
61 97 153
61 96 155
62 97 149
61 96 153
64 100 173
61 97 147
62 97 147
59 94 135
61 97 149
61 97 144
61 96 142
61 96 144
61 97 153
61 96 144
59 93 128
61 96 149
61 95 135
60 96 142
60 95 137
60 95 142
61 97 149
63 98 155
61 96 147
59 94 130
61 96 137
60 94 137
60 94 138
59 92 131
60 95 130
59 92 130
93 111 95
117 130 0
117 127 0
126 131 0
118 128 0
100 107 0
113 121 0
124 134 0
124 131 0
123 130 0
109 118 0
119 125 0
118 127 0
120 124 0
115 119 0
101 103 0
121 121 0
125 128 0
118 122 0
101 102 0
117 118 0
129 131 0
125 128 0
105 108 0
118 116 0
135 140 0
126 131 0
129 133 0
127 132 0
114 111 0
130 132 0
130 129 0
130 134 0
127 126 0
141 146 0
129 129 0
137 143 0
124 123 0
140 145 0
143 151 0
152 156 0
136 142 0
149 162 0
142 148 0
150 158 0
156 166 0
144 152 0
146 157 0
162 177 0
146 156 0
156 167 0
148 157 0
158 169 0
162 174 0
156 170 0
157 171 0
156 171 0
163 180 0
166 181 0
163 177 0
162 179 0
163 177 0
164 177 0
160 176 0
167 183 0
163 181 0
158 176 0
156 171 0
163 180 0
164 183 0
168 189 0
170 191 0
162 179 0
160 182 0
169 189 0
167 186 0
166 186 0
164 185 0
169 191 0
168 189 0
166 187 0
164 183 0
167 187 0
170 190 0
163 185 0
172 192 0
167 187 0
171 191 0
172 194 0
172 193 0
171 192 0
170 192 0
171 195 0
169 190 0
173 196 0
170 193 0
170 194 0
171 193 0
163 185 0
173 194 0
169 193 0
171 194 0
171 193 0
172 192 0
173 195 0
172 192 0
168 189 0
166 189 0
172 194 0
167 188 0
173 194 0
173 196 0
171 191 0
172 193 0
172 193 0
173 197 0
174 196 0
172 194 0
172 194 0
173 197 0
174 198 0
171 193 0
168 190 0
170 194 0
168 190 0
173 194 0
176 198 0
169 193 0
174 197 0
173 197 0
174 197 0
174 196 0
172 193 0
174 197 0
173 197 0
172 195 0
173 196 0
173 196 0
174 197 0
175 198 0
174 197 0
172 196 0
173 195 0
171 193 0
172 195 0
172 196 0
176 198 0
170 193 0
174 196 0
172 195 0
171 195 0
172 194 0
175 197 0
174 197 0
174 196 0
175 198 0
174 196 0
175 198 0
172 197 0
173 197 0
173 197 0
174 197 0
173 197 0
174 196 0
173 196 0
171 195 0
169 193 0
174 196 0
175 198 0
179 200 0
172 197 0
176 199 0
174 197 0
176 198 0
171 194 0
171 195 0
171 194 0
174 197 0
169 194 0
174 197 0
172 196 0
175 198 0
173 197 0
175 198 0
176 199 0
173 196 0
176 198 0
174 198 0
171 195 0
176 198 0
172 196 0
173 196 0
174 198 0
171 196 0
176 199 0
174 197 0
176 198 0
172 196 0
174 197 0
176 199 0
172 195 0
171 195 0
174 198 0
175 197 0
173 196 0
176 199 0
175 198 0
174 197 0
174 197 0
172 196 0
171 195 0
175 198 0
174 197 0
167 191 0
173 196 0
173 197 0
171 194 0
173 197 0
173 196 0
172 196 0
173 196 0
172 196 0
173 197 0
170 194 0
173 197 0
174 198 0
170 194 0
173 196 0
173 196 0
175 198 0
173 197 0
172 196 0
172 196 0
174 198 0
170 194 0
169 193 0
172 196 0
175 198 0
175 198 0
170 194 0
172 195 0
174 198 0
169 193 0
172 196 0
173 196 0
172 196 0
173 197 0
174 196 0
175 198 0
176 198 0
172 196 0
174 197 0
172 195 0
173 196 0
175 199 51
187 207 120
189 209 130
185 206 108
178 201 80
178 201 80
189 209 135
221 234 248
220 235 253
220 235 255
214 231 245
215 232 255
213 231 250
212 231 255
203 222 217
196 214 184
211 226 220
188 209 135
174 198 72
176 199 62
175 198 72
170 195 62
175 198 36
171 195 51
174 198 62
178 202 102
173 196 62
177 199 62
173 197 72
172 196 102
174 196 80
170 194 51
171 196 80
171 195 51
172 195 88
173 197 62
170 193 51
164 186 88
173 197 80
173 197 80
172 196 95
169 193 80
172 195 62
174 197 80
172 195 36
173 196 80
166 190 72
171 194 51
173 196 36
174 196 36
167 191 0
169 191 62
168 192 62
170 193 88
160 183 88
166 190 51
168 192 72
152 176 102
101 129 163
105 134 179
95 124 172
80 112 167
95 124 163
101 129 169
91 120 163
106 134 169
106 133 166
116 142 165
78 110 154
106 132 169
88 117 166
71 106 173
84 115 186
89 118 184
89 119 189
90 119 179
74 107 173
68 102 169
66 101 163
60 95 151
60 96 157
61 97 153
62 98 163
63 96 144
63 97 155
68 101 144
64 99 158
62 98 167
61 96 155
61 96 154
62 97 158
62 97 157
61 97 149
60 95 156
60 96 151
61 97 160
59 94 137
62 97 159
62 97 149
63 99 161
62 97 149
61 97 157
61 96 147
62 97 151
61 97 151
61 97 153
61 96 149
61 95 149
61 96 147
62 98 159
61 96 149
61 96 149
60 96 144
62 98 149
60 95 137
60 96 151
61 97 159
61 97 151
62 98 155
61 96 147
60 95 142
61 96 151
59 94 137
62 97 151
62 97 147
61 97 142
62 98 153
61 96 142
60 95 144
60 94 133
61 95 137
59 94 135
61 97 149
62 97 147
58 91 130
61 96 135
61 96 137
60 95 130
60 95 142
59 94 125
61 97 149
58 92 133
60 95 135
59 92 130
57 90 102
58 90 120
104 120 51
119 127 0
122 138 0
113 122 0
120 131 0
104 109 0
121 130 0
119 128 0
110 116 0
116 122 0
122 129 0
118 124 0
114 120 0
112 119 0
118 124 0
109 116 0
111 117 0
122 128 0
116 124 0
113 114 0
126 126 0
116 121 0
112 110 0
128 131 0
125 128 0
99 96 0
133 139 0
112 114 0
137 143 0
127 129 0
142 146 0
122 123 0
136 141 0
134 140 0
121 128 0
130 137 0
139 144 0
151 154 0
142 146 0
132 137 0
145 155 0
137 143 0
142 145 0
133 138 0
153 158 0
155 165 0
150 161 0
152 161 0
155 164 0
152 161 0
156 166 0
155 167 0
160 172 0
159 170 0
156 170 0
159 174 0
152 164 0
154 167 0
157 171 0
156 171 0
163 177 0
159 172 0
158 174 0
154 169 0
158 174 0
167 183 0
165 182 0
156 175 0
160 177 0
160 176 0
162 179 0
169 188 0
171 187 0
164 182 0
169 189 0
166 184 0
167 185 0
162 179 0
169 190 0
170 188 0
168 189 0
168 191 0
170 191 0
165 185 0
169 188 0
165 185 0
168 188 0
165 188 0
166 187 0
172 194 0
174 196 0
170 192 0
168 189 0
172 196 0
173 193 0
175 196 0
174 196 0
171 190 0
172 194 0
172 194 0
172 195 0
171 194 0
173 195 0
174 197 0
165 186 0
174 196 0
171 191 0
171 193 0
174 195 0
172 192 0
171 194 0
172 193 0
171 194 0
173 196 0
171 193 0
171 193 0
169 191 0
172 195 0
174 197 0
172 195 0
169 192 0
172 193 0
174 196 0
170 195 0
174 196 0
171 194 0
172 194 0
172 195 0
175 198 0
173 196 0
175 198 0
172 192 0
175 196 0
171 193 0
174 197 0
173 196 0
169 192 0
173 196 0
173 196 0
171 196 0
169 192 0
175 198 0
172 194 0
171 196 0
172 196 0
174 197 0
172 195 0
172 194 0
173 196 0
174 198 0
175 197 0
172 196 0
174 197 0
173 197 0
171 195 0
174 197 0
169 192 0
173 197 0
173 197 0
174 198 0
174 197 0
172 195 0
176 198 0
174 197 0
173 197 0
174 196 0
172 195 0
175 198 0
176 198 0
175 197 0
175 198 0
175 197 0
173 196 0
175 197 0
172 197 0
169 193 0
176 199 0
174 198 0
174 198 0
173 197 0
175 198 0
173 197 0
174 198 0
172 196 0
174 197 0
175 198 0
171 196 0
175 198 0
174 198 0
173 197 0
172 197 0
173 197 0
175 198 0
175 198 0
175 198 0
177 199 0
172 196 0
170 196 0
174 197 0
175 197 0
171 194 0
172 197 0
172 196 0
171 194 0
173 197 0
173 196 0
170 193 0
175 198 0
173 197 0
173 197 0
174 197 0
173 196 0
174 198 0
171 194 0
173 197 0
174 197 0
175 198 0
172 196 0
172 196 0
177 199 0
172 196 0
172 196 0
173 196 0
171 195 0
174 197 0
171 195 0
176 199 0
171 194 0
170 193 0
171 194 0
174 197 0
173 196 0
172 195 0
173 196 0
174 198 0
172 196 0
172 196 0
171 194 0
172 196 0
175 197 0
170 194 0
171 195 0
171 195 0
172 196 0
174 198 0
169 194 0
172 196 0
170 193 0
172 196 0
170 194 0
170 195 0
173 196 0
171 195 0
172 195 0
179 200 114
178 201 95
179 201 88
182 204 102
177 200 72
185 206 108
218 232 240
221 235 250
220 234 253
218 233 253
214 231 248
213 230 250
212 230 253
200 219 204
197 215 194
202 220 201
177 200 102
175 198 62
177 200 80
174 198 80
173 197 72
175 198 72
173 197 62
175 199 88
177 200 88
174 196 62
173 198 102
172 196 72
171 195 62
171 193 51
170 193 80
167 191 80
172 196 72
175 197 72
174 198 95
177 200 108
170 195 62
174 197 80
169 194 80
171 195 72
167 190 36
171 195 72
172 197 88
170 193 72
172 196 80
172 196 62
172 196 62
168 191 80
165 188 72
168 192 95
172 195 62
169 193 80
172 195 88
169 192 72
165 189 80
169 192 62
170 193 88
166 188 72
102 130 153
101 128 172
90 121 167
98 126 163
92 122 167
103 129 160
73 106 171
103 131 169
90 119 160
94 123 165
89 118 155
98 127 163
102 128 166
96 124 154
81 112 171
86 117 177
79 111 182
74 106 165
85 115 179
89 117 167
79 110 167
62 99 173
61 98 163
61 97 164
62 98 153
62 98 161
70 102 153
61 97 151
60 94 149
61 97 157
61 96 158
61 96 149
62 98 159
62 98 159
60 95 139
62 98 157
61 97 157
61 97 151
61 98 159
59 94 153
62 98 155
61 97 153
62 98 153
62 98 157
63 98 157
61 96 147
63 99 161
62 98 153
61 97 155
60 96 147
60 95 144
61 96 157
61 96 137
61 97 151
61 97 155
62 97 155
62 98 153
62 98 165
61 96 151
61 96 144
62 96 149
62 98 155
61 96 151
60 95 135
62 97 153
62 98 157
61 96 142
62 97 153
59 94 135
60 95 137
61 96 147
60 95 151
60 96 151
61 97 144
60 95 130
61 96 140
59 93 140
61 96 142
60 95 140
59 93 137
57 91 128
60 94 128
59 93 125
58 92 114
58 92 120
59 93 117
57 89 108
86 108 81
112 120 0
110 119 0
119 126 0
119 124 0
111 123 0
125 136 0
126 133 0
128 142 0
119 125 0
118 124 0
131 140 0
114 119 0
117 123 0
108 112 0
109 115 0
126 131 0
111 116 0
128 133 0
112 119 0
109 115 0
127 134 0
109 115 0
128 132 0
120 125 0
120 125 0
122 128 0
126 129 0
120 121 0
136 145 0
115 120 0
138 143 0
132 139 0
140 146 0
129 133 0
132 134 0
145 152 0
137 142 0
147 157 0
136 139 0
140 148 0
145 156 0
147 156 0
154 163 0
159 170 0
153 162 0
146 154 0
154 165 0
148 162 0
160 174 0
144 153 0
162 177 0
154 162 0
156 169 0
150 163 0
162 173 0
154 169 0
156 172 0
158 172 0
152 167 0
169 186 0
160 176 0
160 179 0
151 166 0
166 184 0
164 182 0
163 180 0
166 182 0
156 176 0
164 186 0
163 183 0
166 183 0
169 188 0
164 184 0
164 183 0
167 188 0
168 187 0
165 186 0
166 186 0
166 184 0
167 185 0
163 184 0
164 184 0
170 191 0
168 187 0
169 188 0
173 194 0
173 194 0
166 186 0
172 193 0
169 187 0
167 188 0
168 191 0
172 195 0
169 189 0
170 190 0
172 194 0
173 193 0
173 195 0
170 192 0
168 190 0
170 190 0
170 191 0
174 196 0
172 195 0
169 189 0
167 189 0
172 193 0
173 196 0
170 193 0
175 197 0
168 189 0
170 191 0
173 194 0
171 193 0
171 193 0
173 196 0
173 196 0
172 196 0
167 189 0
173 196 0
169 192 0
171 193 0
173 196 0
174 197 0
171 195 0
172 193 0
171 194 0
169 192 0
172 194 0
172 196 0
172 194 0
172 195 0
176 197 0
174 196 0
172 195 0
174 197 0
173 195 0
172 196 0
172 197 0
176 198 0
173 197 0
168 191 0
172 195 0
171 194 0
170 193 0
172 195 0
175 198 0
174 197 0
172 195 0
175 198 0
173 196 0
174 196 0
171 195 0
174 198 0
173 196 0
175 198 0
175 198 0
170 193 0
177 199 0
172 194 0
175 198 0
171 194 0
175 197 0
172 196 0
175 198 0
173 196 0
174 196 0
175 198 0
172 196 0
173 197 0
173 195 0
174 197 0
172 195 0
171 195 0
175 198 0
173 197 0
174 197 0
173 196 0
173 197 0
173 197 0
175 198 0
173 196 0
172 196 0
172 196 0
172 197 0
175 198 0
174 197 0
172 196 0
173 196 0
174 197 0
175 198 0
175 198 0
172 195 0
176 199 0
172 196 0
176 199 0
172 196 0
172 196 0
169 194 0
173 197 0
174 197 0
173 196 0
170 193 0
177 199 0
176 199 0
171 195 0
170 194 0
174 197 0
175 198 0
172 197 0
173 196 0
174 197 0
175 198 0
174 197 0
173 196 0
174 198 0
174 197 0
173 197 0
170 194 0
175 198 0
172 196 0
174 198 0
171 195 0
172 196 0
175 198 0
174 198 0
173 196 0
172 195 0
176 198 0
171 195 0
173 197 0
172 196 0
172 195 0
173 197 0
173 195 0
174 197 0
174 198 0
171 194 0
170 194 0
166 190 0
173 197 0
172 195 0
170 195 0
171 195 0
171 195 0
170 193 0
172 197 0
173 197 0
171 195 0
169 193 0
171 195 0
163 189 0
174 197 0
173 196 62
179 200 88
181 203 88
177 200 72
178 201 88
180 202 80
217 232 240
221 235 253
217 232 245
217 233 250
213 230 245
212 230 248
214 231 255
203 220 223
200 218 188
191 210 161
175 198 62
173 196 62
177 200 62
173 197 51
173 196 51
172 196 62
174 199 88
167 190 62
172 196 95
170 194 72
175 198 72
177 200 62
174 199 95
171 194 72
172 196 51
171 196 80
173 196 36
170 195 88
172 196 80
172 195 51
175 199 102
176 200 102
172 195 51
175 200 114
170 193 51
174 199 88
172 196 95
165 190 51
174 199 95
170 194 62
168 192 51
173 196 88
163 186 72
165 189 51
166 190 62
171 195 95
165 188 51
171 193 62
175 198 88
176 200 102
170 193 88
171 195 62
168 192 51
130 155 125
91 121 169
104 132 163
84 115 165
98 126 151
93 122 171
94 124 165
91 119 164
94 123 179
100 129 182
103 130 150
88 118 159
94 123 165
79 111 163
86 117 161
93 122 163
72 105 177
93 121 175
79 110 173
81 112 181
85 115 169
62 98 169
62 98 163
61 96 153
61 97 159
61 96 152
60 95 150
67 101 167
66 100 156
65 99 143
62 97 156
59 94 141
60 95 149
61 96 150
61 97 149
61 97 157
60 95 142
60 95 144
62 97 147
61 96 142
61 97 153
60 95 147
62 98 159
61 96 151
62 97 157
62 97 153
58 92 135
59 94 142
61 95 149
60 95 142
60 95 142
62 97 155
62 98 155
63 99 163
62 97 155
61 96 144
62 97 150
61 96 149
61 96 144
63 98 155
62 98 151
59 93 130
61 97 151
60 95 142
60 95 135
61 97 147
60 94 140
60 95 133
60 95 135
60 95 140
61 96 140
62 97 142
60 95 135
60 95 144
60 94 133
61 95 142
60 94 135
61 96 142
60 94 140
59 94 140
59 93 122
60 94 130
61 95 142
59 92 130
57 90 120
56 89 105
57 90 112
106 120 51
120 131 0
119 123 0
119 129 0
107 119 0
112 120 0
115 125 0
128 139 0
130 141 0
108 116 0
121 132 0
117 126 0
123 132 0
121 130 0
118 126 0
131 141 0
108 114 0
125 130 0
128 139 0
127 130 0
125 135 0
118 129 0
114 119 0
130 137 0
137 144 0
133 141 0
124 128 0
140 147 0
128 130 0
142 151 0
134 141 0
128 133 0
137 143 0
131 134 0
125 133 0
149 157 0
144 147 0
142 151 0
140 150 0
147 155 0
140 148 0
141 148 0
145 154 0
143 154 0
144 155 0
148 158 0
157 168 0
155 169 0
158 171 0
143 153 0
152 163 0
148 161 0
159 172 0
154 163 0
151 160 0
144 156 0
156 166 0
157 172 0
158 168 0
156 170 0
155 168 0
162 179 0
161 178 0
160 177 0
163 182 0
163 183 0
160 173 0
165 183 0
165 183 0
162 180 0
163 180 0
162 180 0
161 178 0
170 189 0
160 179 0
167 186 0
165 185 0
166 186 0
167 184 0
168 189 0
165 183 0
170 192 0
172 194 0
168 188 0
167 187 0
169 191 0
169 190 0
170 193 0
171 192 0
170 190 0
172 194 0
169 191 0
172 193 0
170 193 0
171 190 0
166 188 0
166 186 0
170 192 0
173 196 0
171 193 0
168 191 0
162 181 0
171 193 0
171 193 0
171 193 0
171 193 0
168 190 0
168 190 0
172 195 0
173 196 0
171 195 0
168 191 0
173 196 0
171 194 0
170 192 0
173 195 0
173 197 0
172 195 0
173 196 0
164 186 0
170 192 0
169 190 0
171 193 0
170 191 0
170 195 0
172 195 0
170 193 0
172 195 0
172 195 0
173 196 0
175 198 0
171 195 0
170 193 0
172 196 0
173 196 0
173 197 0
171 193 0
171 195 0
171 195 0
174 197 0
174 196 0
175 198 0
175 195 0
173 197 0
174 198 0
173 196 0
174 196 0
172 195 0
171 195 0
173 196 0
174 197 0
171 194 0
173 196 0
172 196 0
173 196 0
173 197 0
172 196 0
171 195 0
174 197 0
172 195 0
171 193 0
172 196 0
174 198 0
174 195 0
174 196 0
174 197 0
176 198 0
176 198 0
173 196 0
174 197 0
172 196 0
174 198 0
172 196 0
171 194 0
175 198 0
172 196 0
173 196 0
171 195 0
176 198 0
173 197 0
169 193 0
174 198 0
173 197 0
174 198 0
174 197 0
175 198 0
175 198 0
173 197 0
172 197 0
175 198 0
173 197 0
171 195 0
173 197 0
172 195 0
175 198 0
175 198 0
171 195 0
175 198 0
171 195 0
173 196 0
175 198 0
172 196 0
173 197 0
173 197 0
172 196 0
174 198 0
172 196 0
171 194 0
171 194 0
173 197 0
175 198 0
170 193 0
174 198 0
171 195 0
176 198 0
173 197 0
170 194 0
172 196 0
171 194 0
171 195 0
170 194 0
174 197 0
174 198 0
172 195 0
173 197 0
170 194 0
170 195 0
173 197 0
172 196 0
173 196 0
173 197 0
173 197 0
174 198 0
172 196 0
170 194 0
173 196 0
174 196 0
174 198 0
168 192 0
172 195 0
169 194 0
173 196 0
175 198 0
171 195 0
174 197 0
173 195 0
174 197 0
172 195 0
170 194 0
171 194 0
171 193 0
169 192 0
173 196 0
174 197 36
183 205 108
183 204 102
180 201 80
181 202 108
179 201 80
211 227 217
222 235 253
220 235 253
216 232 248
217 233 255
212 229 245
210 229 248
199 218 198
193 210 181
179 200 102
174 198 80
176 199 51
174 197 72
175 199 95
176 199 80
176 200 95
175 199 72
173 196 102
175 199 88
172 197 62
171 195 51
168 192 95
171 194 80
172 196 62
173 198 80
169 194 88
172 196 62
172 196 62
173 197 51
170 193 72
174 197 72
169 194 95
169 191 51
171 195 80
164 188 51
171 195 102
162 187 88
167 192 88
170 194 51
169 193 51
168 193 72
172 196 51
169 193 62
175 198 95
167 192 72
170 194 62
165 188 36
169 194 114
163 186 36
166 190 62
165 188 62
162 186 62
171 194 62
165 187 72
170 193 80
83 114 153
106 133 166
100 129 175
94 123 165
81 111 156
104 132 161
101 129 173
106 133 165
93 121 167
102 128 162
104 130 156
95 124 167
123 147 165
117 142 155
89 119 160
83 114 179
89 118 177
75 107 167
85 115 177
79 109 167
75 106 167
62 98 159
60 95 149
61 98 167
61 97 154
60 95 155
66 101 159
62 98 159
59 94 148
62 98 157
62 98 161
61 96 154
62 97 155
62 98 163
61 97 153
61 97 158
62 98 159
61 97 161
60 96 151
62 98 163
63 99 167
59 94 142
60 95 144
60 95 140
60 95 142
61 97 151
60 94 130
60 96 142
63 98 159
61 96 147
62 98 155
59 95 137
61 97 147
60 95 142
61 97 151
61 96 153
62 97 147
61 96 142
60 95 135
62 98 157
62 97 151
62 97 151
62 97 142
61 96 147
61 96 140
59 93 125
62 97 147
60 96 135
61 96 144
60 95 137
62 97 144
62 97 149
60 95 142
60 94 128
60 95 133
60 94 144
60 94 128
62 97 149
59 93 130
58 92 137
60 95 137
60 95 144
58 91 130
60 93 130
54 86 106
73 101 92
113 122 0
113 122 0
111 123 0
128 142 0
100 106 0
117 126 0
126 134 0
108 115 0
104 115 0
113 123 0
102 111 0
119 126 0
114 124 0
127 135 0
114 123 0
130 139 0
123 135 0
127 138 0
115 125 0
120 129 0
129 138 0
124 131 0
128 134 0
121 127 0
120 123 0
130 137 0
129 137 0
130 136 0
123 128 0
135 143 0
129 130 0
136 146 0
148 158 0
134 143 0
140 151 0
146 158 0
131 141 0
146 157 0
144 150 0
141 146 0
145 153 0
144 153 0
149 161 0
151 164 0
149 161 0
145 155 0
145 154 0
162 176 0
155 168 0
155 162 0
153 162 0
161 175 0
145 154 0
157 172 0
158 172 0
158 174 0
156 170 0
155 170 0
161 175 0
165 180 0
154 171 0
155 168 0
160 174 0
159 175 0
163 181 0
172 191 0
161 178 0
164 181 0
160 175 0
159 179 0
165 184 0
160 177 0
165 182 0
159 178 0
165 183 0
163 180 0
172 188 0
165 183 0
163 182 0
168 186 0
168 190 0
166 186 0
169 187 0
171 191 0
167 185 0
172 191 0
167 190 0
171 193 0
170 190 0
167 187 0
170 190 0
168 189 0
169 191 0
168 191 0
169 189 0
171 193 0
164 186 0
170 193 0
173 195 0
168 189 0
172 194 0
175 198 0
169 193 0
169 192 0
173 196 0
167 191 0
170 190 0
167 187 0
170 191 0
167 189 0
170 192 0
172 194 0
167 189 0
172 193 0
175 198 0
173 196 0
171 194 0
169 191 0
174 196 0
172 195 0
171 193 0
170 194 0
170 193 0
172 195 0
172 193 0
172 195 0
173 197 0
173 196 0
175 198 0
170 193 0
170 193 0
173 197 0
169 193 0
174 196 0
173 195 0
171 194 0
170 193 0
170 194 0
172 194 0
171 195 0
171 194 0
170 193 0
174 196 0
175 195 0
172 195 0
174 197 0
171 195 0
173 195 0
175 198 0
172 195 0
174 196 0
174 197 0
175 198 0
174 197 0
173 196 0
174 197 0
174 196 0
177 199 0
174 197 0
176 198 0
174 197 0
172 195 0
174 197 0
171 195 0
173 197 0
174 197 0
173 197 0
174 196 0
175 198 0
171 194 0
176 198 0
176 198 0
174 198 0
175 198 0
173 196 0
172 197 0
175 198 0
176 198 0
174 197 0
174 197 0
175 198 0
173 197 0
168 193 0
176 199 0
173 197 0
171 194 0
173 197 0
175 197 0
177 199 0
176 199 0
173 197 0
172 196 0
174 197 0
173 196 0
176 199 0
173 197 0
174 198 0
172 196 0
171 195 0
172 195 0
172 196 0
174 197 0
176 199 0
171 194 0
172 195 0
174 198 0
175 198 0
175 198 0
169 194 0
174 197 0
173 196 0
173 197 0
171 195 0
175 198 0
171 194 0
176 199 0
172 195 0
170 194 0
170 194 0
173 197 0
174 198 0
174 197 0
172 196 0
174 197 0
173 196 0
172 196 0
173 196 0
167 192 0
170 194 0
172 196 0
174 196 0
174 198 0
166 189 0
173 196 0
171 194 0
171 195 0
170 194 0
172 196 0
168 192 0
171 194 0
171 195 0
174 198 0
172 196 0
174 198 0
173 196 0
169 191 0
172 196 0
168 192 0
168 192 0
175 197 0
168 192 0
167 190 0
175 198 0
185 206 108
185 206 120
179 201 72
179 202 80
180 202 72
192 212 149
222 236 253
221 235 255
217 232 248
217 233 253
216 232 253
210 228 240
201 219 201
203 220 194
179 201 102
176 199 36
174 197 62
178 201 72
176 199 80
175 200 80
174 197 51
174 199 72
168 191 62
175 199 62
170 194 36
172 196 80
168 191 62
168 191 51
170 194 80
170 194 72
171 195 72
174 198 72
172 196 108
174 199 108
170 194 51
173 197 88
169 193 88
172 197 80
173 197 80
174 198 62
172 196 80
170 194 72
170 194 62
172 197 80
171 196 72
167 192 88
175 199 80
171 196 120
167 190 80
170 195 95
167 191 95
168 192 51
167 191 80
166 190 88
168 193 95
168 190 88
165 188 72
161 184 51
173 197 80
165 189 62
162 186 51
142 165 84
88 117 154
93 123 159
92 122 171
86 116 163
86 117 177
96 124 174
99 126 165
103 130 161
98 126 166
98 125 159
84 113 167
96 123 159
93 121 155
98 126 175
81 112 148
100 127 174
73 105 169
84 114 175
103 129 184
84 114 181
73 102 151
61 96 151
64 100 167
63 99 165
60 95 147
61 96 156
63 97 143
62 98 149
61 96 157
66 101 156
62 97 153
60 96 151
61 97 155
63 99 163
61 96 142
60 95 140
61 96 144
62 97 151
62 97 155
61 96 147
61 96 159
61 96 140
61 96 142
62 97 149
61 96 144
62 98 155
61 97 149
60 95 135
60 95 149
59 94 144
61 96 149
61 97 147
59 93 128
58 92 130
62 97 144
61 97 147
61 96 149
62 97 147
61 95 135
59 93 125
62 97 149
62 98 149
62 97 149
61 96 140
62 97 142
61 96 144
62 97 144
61 96 140
62 97 144
60 95 128
60 95 135
60 95 133
60 95 137
60 95 133
59 93 130
60 94 135
60 94 149
61 96 140
60 94 122
60 95 128
60 94 125
58 91 117
58 91 120
57 89 109
118 133 25
119 132 0
109 122 0
120 134 0
127 140 0
113 121 0
124 132 0
135 147 0
131 142 0
124 135 0
138 149 0
118 131 0
124 134 0
132 143 0
109 121 0
129 138 0
135 146 0
123 132 0
126 133 0
137 144 0
120 128 0
125 132 0
134 144 0
133 137 0
124 131 0
125 134 0
146 155 0
119 127 0
138 145 0
140 148 0
136 145 0
140 148 0
141 153 0
143 147 0
147 158 0
133 138 0
152 164 0
148 157 0
131 138 0
152 160 0
140 145 0
144 151 0
142 148 0
142 155 0
151 156 0
147 156 0
153 163 0
158 169 0
161 174 0
154 167 0
153 163 0
155 169 0
153 165 0
159 175 0
154 167 0
156 173 0
159 174 0
167 184 0
153 168 0
165 178 0
159 176 0
158 173 0
163 178 0
162 176 0
164 181 0
162 179 0
165 182 0
164 182 0
168 187 0
167 188 0
157 175 0
162 180 0
160 178 0
169 189 0
171 191 0
167 187 0
165 187 0
165 182 0
165 185 0
166 188 0
170 191 0
166 187 0
169 189 0
165 185 0
163 184 0
169 190 0
168 188 0
168 187 0
171 192 0
167 189 0
165 188 0
169 190 0
168 188 0
172 193 0
172 196 0
170 192 0
170 192 0
167 189 0
174 195 0
172 194 0
171 195 0
173 194 0
167 189 0
169 192 0
168 191 0
175 198 0
174 194 0
174 195 0
173 196 0
170 193 0
169 192 0
173 196 0
169 194 0
173 195 0
170 192 0
174 197 0
172 195 0
172 194 0
171 194 0
174 196 0
173 196 0
171 194 0
173 194 0
172 196 0
172 196 0
176 198 0
173 195 0
174 195 0
174 194 0
172 195 0
173 196 0
174 196 0
174 196 0
173 195 0
170 193 0
171 194 0
176 197 0
175 198 0
173 197 0
176 198 0
175 198 0
174 198 0
171 195 0
172 195 0
173 195 0
171 195 0
173 196 0
174 196 0
172 193 0
175 198 0
175 197 0
177 199 0
172 196 0
172 196 0
173 196 0
171 194 0
172 196 0
172 195 0
176 198 0
175 198 0
171 194 0
174 195 0
173 196 0
173 196 0
174 197 0
172 194 0
173 197 0
173 196 0
171 194 0
173 197 0
173 196 0
175 198 0
173 197 0
174 197 0
173 196 0
174 198 0
177 199 0
175 198 0
174 198 0
175 198 0
175 198 0
174 197 0
174 198 0
171 194 0
171 195 0
174 197 0
173 196 0
173 197 0
174 197 0
173 197 0
173 197 0
171 195 0
173 196 0
173 197 0
174 197 0
172 196 0
175 198 0
172 195 0
172 196 0
173 197 0
172 196 0
173 196 0
171 195 0
173 196 0
170 194 0
172 196 0
173 197 0
172 196 0
176 199 0
170 194 0
173 196 0
172 196 0
174 198 0
171 194 0
174 197 0
175 198 0
174 198 0
170 193 0
174 197 0
174 198 0
175 198 0
173 197 0
173 196 0
171 195 0
170 194 0
171 194 0
172 195 0
173 196 0
174 198 0
174 198 0
173 196 0
169 193 0
175 198 0
166 190 0
173 197 0
173 197 0
173 196 0
170 194 0
173 197 0
168 192 0
173 196 0
170 193 0
172 196 0
170 193 0
175 197 0
171 195 0
175 198 0
171 193 0
173 196 0
172 195 0
173 196 0
170 194 0
171 194 0
179 201 80
181 203 102
179 202 80
178 201 88
178 201 80
190 210 140
220 234 245
221 235 253
219 234 253
218 233 253
216 232 253
213 230 250
207 224 214
200 218 181
181 203 102
176 199 88
173 197 80
175 198 62
172 195 62
173 197 51
168 192 88
176 200 72
169 193 62
177 201 95
175 199 95
176 199 80
174 197 51
169 193 72
174 196 36
175 199 88
171 195 0
173 196 51
172 194 72
170 195 80
176 198 108
173 198 88
172 196 88
172 195 62
171 195 62
173 198 95
167 191 88
166 190 80
169 193 80
168 191 72
166 189 51
168 192 88
171 194 88
169 195 62
166 191 80
170 195 108
165 189 80
170 194 102
164 189 88
166 190 62
163 188 80
162 186 72
165 189 88
162 187 72
166 189 51
165 188 72
164 186 72
162 185 72
166 189 80
97 124 136
91 120 144
108 135 163
74 105 151
90 119 155
92 120 158
76 107 167
91 119 159
86 114 157
99 126 161
91 119 149
97 125 158
90 117 152
103 130 157
101 127 167
97 125 161
84 115 175
99 126 184
99 126 184
74 107 173
73 104 166
71 102 154
62 98 161
60 96 159
59 94 136
63 98 155
61 96 159
66 101 153
67 101 153
61 96 149
59 94 135
61 97 150
59 92 135
62 97 157
61 97 151
62 98 153
61 96 151
60 95 142
60 95 142
60 96 147
62 98 157
62 98 159
63 99 155
61 95 144
63 98 153
60 95 151
62 98 155
62 97 147
60 95 135
61 96 153
61 97 149
62 98 153
61 96 153
60 95 140
61 97 147
62 97 142
61 96 144
60 95 137
61 96 147
61 96 137
60 95 140
61 96 142
60 96 140
61 96 144
60 95 137
61 96 151
61 95 149
61 96 144
59 93 133
60 94 147
61 96 149
61 95 140
59 93 130
62 96 137
60 94 122
61 95 140
59 93 125
60 95 140
59 92 131
59 93 130
59 93 114
58 91 117
58 92 117
98 118 93
133 147 0
116 128 0
124 138 0
112 126 0
118 128 0
114 124 0
133 146 0
132 146 0
122 134 0
125 135 0
128 142 0
120 130 0
122 131 0
118 133 0
123 133 0
114 122 0
140 150 0
136 145 0
119 127 0
137 151 0
135 145 0
136 144 0
142 153 0
136 143 0
135 144 0
139 149 0
114 122 0
124 134 0
127 136 0
140 151 0
133 143 0
129 138 0
146 156 0
145 153 0
135 144 0
148 161 0
150 162 0
145 156 0
149 158 0
142 151 0
153 166 0
140 150 0
150 161 0
157 167 0
146 159 0
152 163 0
149 162 0
160 173 0
156 169 0
153 162 0
157 171 0
150 161 0
164 178 0
156 167 0
155 168 0
162 175 0
157 172 0
157 170 0
161 176 0
158 173 0
164 180 0
157 171 0
152 167 0
159 174 0
163 180 0
165 182 0
161 177 0
162 179 0
165 185 0
160 176 0
164 179 0
159 178 0
167 187 0
162 181 0
163 180 0
162 178 0
163 181 0
165 183 0
164 183 0
172 192 0
172 192 0
168 186 0
168 189 0
168 188 0
166 186 0
170 190 0
171 192 0
169 190 0
167 189 0
169 189 0
168 192 0
169 191 0
170 192 0
172 194 0
171 191 0
173 194 0
168 188 0
169 194 0
171 195 0
165 186 0
168 187 0
169 190 0
167 189 0
170 192 0
169 190 0
169 193 0
173 194 0
170 192 0
171 195 0
169 193 0
169 192 0
172 195 0
173 195 0
170 191 0
172 195 0
168 191 0
171 194 0
171 193 0
170 192 0
172 195 0
171 194 0
173 195 0
171 195 0
170 192 0
170 194 0
171 195 0
172 193 0
174 197 0
169 192 0
170 193 0
175 197 0
167 190 0
173 196 0
174 197 0
173 196 0
174 197 0
172 195 0
172 194 0
172 195 0
173 194 0
172 195 0
173 195 0
173 195 0
171 195 0
173 195 0
173 195 0
173 196 0
173 196 0
175 197 0
171 194 0
170 194 0
172 196 0
174 197 0
174 197 0
174 198 0
174 197 0
172 195 0
174 197 0
173 196 0
173 195 0
172 197 0
172 195 0
175 198 0
175 198 0
174 197 0
168 191 0
174 197 0
169 192 0
174 198 0
171 194 0
173 197 0
174 198 0
172 196 0
174 197 0
174 197 0
172 196 0
173 197 0
171 195 0
174 198 0
174 197 0
177 198 0
174 198 0
171 194 0
172 197 0
172 195 0
176 198 0
172 195 0
175 198 0
175 198 0
175 198 0
174 197 0
173 197 0
176 199 0
176 198 0
173 197 0
175 198 0
173 197 0
175 198 0
172 196 0
174 198 0
173 196 0
171 195 0
175 198 0
170 194 0
176 199 0
173 196 0
171 195 0
174 197 0
171 195 0
174 197 0
174 198 0
173 196 0
174 198 0
171 196 0
174 197 0
173 197 0
172 195 0
172 195 0
172 196 0
170 195 0
171 195 0
176 198 0
172 196 0
174 197 0
171 195 0
169 193 0
173 196 0
174 197 0
172 196 0
173 196 0
175 198 0
173 196 0
173 197 0
166 190 0
171 196 0
168 191 0
170 193 0
171 195 0
174 197 0
170 194 0
167 191 0
174 197 0
170 195 0
174 198 0
173 197 0
174 197 0
177 199 0
172 195 0
175 197 0
170 194 0
173 196 0
172 196 0
174 198 0
186 205 135
185 206 114
183 204 114
182 204 108
178 200 62
211 226 214
222 235 253
219 234 250
218 233 253
215 232 250
214 231 253
200 218 198
194 213 157
174 198 62
175 198 62
177 200 72
176 200 80
176 200 102
175 197 72
173 196 36
171 193 62
173 196 36
175 198 72
175 198 62
176 199 62
171 195 88
172 196 72
172 196 72
172 197 95
170 195 72
173 197 114
173 195 36
170 194 72
169 193 108
173 197 72
171 196 72
170 194 88
172 198 88
172 195 62
171 194 80
168 192 72
173 197 95
167 190 62
171 195 62
171 194 51
170 194 72
162 187 72
170 194 62
171 195 72
174 198 95
166 189 62
166 189 36
163 188 0
163 186 51
163 187 80
164 187 36
165 189 80
165 190 114
162 184 72
153 175 51
165 188 62
165 187 62
167 189 62
143 168 105
95 123 125
81 109 125
75 107 150
104 133 173
88 118 164
76 108 160
97 124 154
95 123 171
96 124 171
93 122 159
91 120 160
106 132 163
105 132 167
101 128 166
88 117 155
77 108 163
68 103 177
73 105 161
79 110 169
61 97 163
64 97 152
67 101 162
62 97 163
63 99 165
67 101 159
60 96 149
62 98 164
65 100 151
64 98 151
64 99 153
61 95 144
59 93 147
62 98 151
60 95 147
61 96 152
62 97 142
60 95 147
61 96 142
60 95 140
61 96 140
62 97 154
62 98 147
62 97 142
60 95 144
63 99 161
60 95 140
60 94 140
61 95 140
60 96 149
60 95 147
62 97 144
60 95 135
61 96 142
60 95 144
63 98 149
62 98 149
60 95 142
62 97 144
62 97 149
59 94 144
60 94 135
61 96 144
60 95 135
58 93 137
61 96 140
59 93 133
61 95 128
62 97 140
58 92 114
58 93 130
60 95 130
57 90 111
58 92 120
61 96 140
58 92 125
60 94 133
59 93 125
61 94 135
59 93 130
60 94 135
59 92 117
76 103 120
111 124 25
129 140 0
107 119 0
129 142 0
132 145 0
106 119 0
122 133 0
127 137 0
132 145 0
127 142 0
122 136 0
132 147 0
121 134 0
136 147 0
127 139 0
121 130 0
130 140 0
137 150 0
134 145 0
138 150 0
139 148 0
133 144 0
141 152 0
126 136 0
128 141 0
135 148 0
140 150 0
137 147 0
138 149 0
142 153 0
135 145 0
138 146 0
133 143 0
143 154 0
141 149 0
147 161 0
152 164 0
137 145 0
144 153 0
150 157 0
147 157 0
142 150 0
148 158 0
158 170 0
147 158 0
151 162 0
152 164 0
152 167 0
145 159 0
148 161 0
154 168 0
154 167 0
160 171 0
160 174 0
164 178 0
158 174 0
158 174 0
169 187 0
152 167 0
160 176 0
159 174 0
158 171 0
154 172 0
150 166 0
168 186 0
163 180 0
157 172 0
161 180 0
162 181 0
165 184 0
167 185 0
166 187 0
166 186 0
168 188 0
171 191 0
167 187 0
164 183 0
170 189 0
166 187 0
166 188 0
164 181 0
168 186 0
166 185 0
169 189 0
171 191 0
166 187 0
171 191 0
168 188 0
170 190 0
171 192 0
170 190 0
169 191 0
171 193 0
170 191 0
173 195 0
169 192 0
172 195 0
171 194 0
175 197 0
170 193 0
172 193 0
171 193 0
173 195 0
169 191 0
168 189 0
160 182 0
170 191 0
167 190 0
172 193 0
171 192 0
169 190 0
171 192 0
172 196 0
171 191 0
173 197 0
169 193 0
171 192 0
170 193 0
173 194 0
171 193 0
168 193 0
171 195 0
174 197 0
172 194 0
172 194 0
175 196 0
175 198 0
168 191 0
175 197 0
170 193 0
172 194 0
171 193 0
173 196 0
172 196 0
175 198 0
171 193 0
174 196 0
174 195 0
173 194 0
170 193 0
170 193 0
174 197 0
175 198 0
173 197 0
172 196 0
176 199 0
170 193 0
172 194 0
175 198 0
171 194 0
169 193 0
173 197 0
173 197 0
173 197 0
171 194 0
172 197 0
171 195 0
173 196 0
174 197 0
173 196 0
175 197 0
175 198 0
176 198 0
173 197 0
174 197 0
171 195 0
176 198 0
172 196 0
173 197 0
172 196 0
172 196 0
175 197 0
172 195 0
175 197 0
176 199 0
171 195 0
171 196 0
174 196 0
174 198 0
175 198 0
172 196 0
172 196 0
174 198 0
173 197 0
176 199 0
170 193 0
176 198 0
172 197 0
172 197 0
175 198 0
173 197 0
171 194 0
175 198 0
174 198 0
171 195 0
174 198 0
174 198 0
174 198 0
177 199 0
171 194 0
177 199 0
176 199 0
173 196 0
175 197 0
171 195 0
173 196 0
173 196 0
172 196 0
170 194 0
172 196 0
171 195 0
169 193 0
174 198 0
171 194 0
172 196 0
174 198 0
171 195 0
175 198 0
172 196 0
175 198 0
175 198 0
173 196 0
171 195 0
173 196 0
175 198 0
173 196 0
168 191 0
171 195 0
174 197 0
174 198 0
169 192 0
172 196 0
172 195 0
171 195 0
174 198 0
173 196 0
168 192 0
172 193 0
173 196 0
176 199 0
174 198 0
174 198 0
170 192 0
173 197 0
170 194 0
171 195 0
173 196 0
172 196 0
173 196 0
173 196 0
171 196 0
170 194 0
171 194 0
180 202 88
184 205 108
180 202 88
179 201 80
180 203 95
190 210 140
223 236 253
219 234 248
219 234 253
215 231 245
213 230 248
199 218 211
198 217 177
173 196 62
175 199 62
174 198 51
175 198 62
171 195 36
173 197 72
174 198 51
173 197 62
173 197 88
170 194 72
171 194 62
170 193 51
174 199 72
172 196 88
174 198 108
173 196 51
174 198 72
173 194 36
175 199 72
169 191 36
166 191 80
167 191 51
171 196 80
172 195 72
171 194 72
167 192 88
172 196 51
161 186 72
172 195 62
173 198 51
170 194 80
165 188 62
174 198 72
163 186 36
170 194 80
159 182 51
167 191 80
165 188 51
164 188 62
167 189 36
165 189 0
164 188 51
170 194 88
158 181 72
170 193 88
160 184 72
165 190 95
157 181 62
158 181 80
163 186 62
171 195 130
162 185 62
118 142 117
93 120 137
102 129 149
83 112 137
78 108 152
79 109 144
96 124 163
96 125 169
98 125 157
96 125 169
98 126 164
93 121 156
81 112 147
109 134 154
93 121 153
74 105 149
90 118 157
73 107 171
80 111 177
95 123 175
70 101 153
68 99 148
62 98 163
58 93 148
61 96 149
61 97 158
60 95 140
62 98 161
60 94 141
63 95 128
60 95 147
60 94 134
60 95 140
62 97 147
59 94 142
60 94 136
61 96 151
60 96 144
62 98 157
61 97 151
61 97 149
61 97 153
62 97 147
63 99 155
62 97 149
62 96 144
62 98 155
58 93 140
61 96 140
62 97 154
61 97 149
59 94 147
59 94 143
62 97 153
60 94 130
61 95 128
61 96 140
61 95 130
58 93 125
61 96 135
61 96 147
60 94 130
60 95 130
61 96 137
62 97 147
61 96 137
60 95 140
58 93 122
59 93 130
59 94 128
58 93 122
58 91 133
59 93 117
59 94 128
59 92 122
61 95 135
58 92 105
59 93 122
58 93 108
59 93 130
60 91 95
103 115 44
123 137 0
114 127 0
109 121 0
119 131 0
105 117 0
119 133 0
120 135 0
123 135 0
125 134 0
121 133 0
124 141 0
135 149 0
120 131 0
136 148 0
107 121 0
118 128 0
126 138 0
133 144 0
125 138 0
138 150 0
126 138 0
142 151 0
131 141 0
145 157 0
132 146 0
128 140 0
138 149 0
136 145 0
146 158 0
140 149 0
145 155 0
141 150 0
129 137 0
130 139 0
142 153 0
138 146 0
143 152 0
146 162 0
145 157 0
143 152 0
156 168 0
150 159 0
150 163 0
157 171 0
149 162 0
154 167 0
158 168 0
159 175 0
145 158 0
154 168 0
152 164 0
156 172 0
159 174 0
151 168 0
158 173 0
159 176 0
156 172 0
155 169 0
162 177 0
150 164 0
161 180 0
167 182 0
169 189 0
166 182 0
155 172 0
162 178 0
163 177 0
168 187 0
169 190 0
161 178 0
162 180 0
166 188 0
164 180 0
162 181 0
157 176 0
167 188 0
169 187 0
167 188 0
168 188 0
169 188 0
169 189 0
164 183 0
166 187 0
165 186 0
166 188 0
167 187 0
168 189 0
169 188 0
169 192 0
167 188 0
167 188 0
167 188 0
169 192 0
173 194 0
172 197 0
169 190 0
168 191 0
168 188 0
170 190 0
166 189 0
169 188 0
168 191 0
169 190 0
169 190 0
164 186 0
167 187 0
165 186 0
173 194 0
174 197 0
171 194 0
174 197 0
173 196 0
173 194 0
168 190 0
168 189 0
171 193 0
175 196 0
171 195 0
173 197 0
169 192 0
175 198 0
174 197 0
170 191 0
172 196 0
172 195 0
169 192 0
167 189 0
174 197 0
173 196 0
170 191 0
172 194 0
174 197 0
175 198 0
173 196 0
173 196 0
174 197 0
171 194 0
172 195 0
173 196 0
173 196 0
173 197 0
173 197 0
174 196 0
174 197 0
174 197 0
173 196 0
170 193 0
170 193 0
174 197 0
173 194 0
174 198 0
175 196 0
173 194 0
170 193 0
172 195 0
176 198 0
172 195 0
171 195 0
174 197 0
175 196 0
175 197 0
175 197 0
175 197 0
174 196 0
169 193 0
170 194 0
170 195 0
175 197 0
174 197 0
172 196 0
176 198 0
173 196 0
176 199 0
172 195 0
171 195 0
175 198 0
174 197 0
172 195 0
176 199 0
174 198 0
175 197 0
174 198 0
175 198 0
173 197 0
174 198 0
173 197 0
171 195 0
172 195 0
175 198 0
174 197 0
174 197 0
173 197 0
173 196 0
173 196 0
172 196 0
176 198 0
172 196 0
173 197 0
175 198 0
171 195 0
171 195 0
176 199 0
172 196 0
174 198 0
176 199 0
170 195 0
171 194 0
173 197 0
173 196 0
172 195 0
176 199 0
171 196 0
174 197 0
172 196 0
171 195 0
170 195 0
174 197 0
173 196 0
171 194 0
175 198 0
171 194 0
169 193 0
171 196 0
174 197 0
169 193 0
172 196 0
172 195 0
175 198 0
174 197 0
167 191 0
174 197 0
173 197 0
173 196 0
166 190 0
172 196 0
175 197 0
167 192 0
172 196 0
173 196 0
173 196 0
173 196 0
174 198 0
175 197 0
167 192 0
173 197 0
170 194 0
172 195 0
167 191 0
171 194 0
174 197 0
167 191 0
172 195 0
172 195 0
179 202 80
188 208 130
180 202 88
178 201 72
179 201 72
218 232 237
220 234 248
218 233 250
218 234 255
216 232 253
212 229 240
203 220 201
175 197 72
175 198 51
175 197 62
171 194 36
173 196 36
177 201 88
169 194 72
175 200 80
164 188 80
174 197 95
172 195 80
170 193 72
175 199 80
172 195 62
170 195 80
173 196 51
173 197 36
172 195 51
175 199 95
176 199 72
171 196 62
172 196 80
172 197 88
172 196 62
165 190 80
167 190 36
170 195 80
171 195 72
167 192 72
166 189 72
168 192 72
169 193 62
172 196 80
166 190 62
172 196 51
165 190 72
168 191 72
159 183 51
170 195 95
163 188 72
170 194 72
162 185 95
168 191 72
167 191 62
165 188 102
158 181 72
167 191 95
162 185 51
163 186 88
164 187 95
162 186 80
165 187 88
148 170 36
159 182 80
85 114 125
96 123 133
100 126 145
104 131 151
91 120 153
91 120 173
83 110 157
109 134 150
96 123 147
97 125 158
92 120 134
109 135 164
92 120 161
98 125 147
94 120 153
96 123 161
79 109 142
80 111 169
68 102 163
74 105 161
74 104 156
80 106 149
69 102 156
61 97 153
61 96 153
61 97 158
68 102 145
62 97 154
69 101 133
67 101 157
59 94 153
61 96 148
61 96 149
61 96 147
59 95 147
57 91 137
60 95 137
63 98 159
61 97 144
59 94 143
60 95 144
61 95 140
61 96 148
60 95 135
60 95 135
61 96 144
60 95 137
61 96 147
58 93 117
60 95 135
61 96 144
60 95 142
61 97 137
60 95 135
61 95 147
60 94 130
61 96 140
59 94 142
60 95 122
59 94 133
61 96 140
60 94 125
59 93 135
61 96 142
59 93 130
59 93 128
61 96 137
61 96 142
61 95 140
59 92 130
60 94 133
59 94 130
58 92 122
59 93 130
58 91 117
57 90 125
57 90 105
56 89 102
54 86 108
112 130 36
113 127 0
103 112 0
121 135 0
122 135 0
119 133 0
116 130 0
104 116 0
127 140 0
130 142 0
121 133 0
102 114 0
120 133 0
128 139 0
148 162 0
125 134 0
127 139 0
147 160 0
135 148 0
118 128 0
129 143 0
137 152 0
129 142 0
127 140 0
139 152 0
125 136 0
121 130 0
143 155 0
135 143 0
133 144 0
147 162 0
131 142 0
142 155 0
141 151 0
128 137 0
144 153 0
143 156 0
130 140 0
135 147 0
152 169 0
151 166 0
149 165 0
140 152 0
151 164 0
155 171 0
157 171 0
153 167 0
154 171 0
162 178 0
148 162 0
154 169 0
155 169 0
153 167 0
157 172 0
156 169 0
160 174 0
155 167 0
156 169 0
166 184 0
155 171 0
164 179 0
162 181 0
164 182 0
166 182 0
156 176 0
158 177 0
161 179 0
169 188 0
167 188 0
165 184 0
163 180 0
162 183 0
167 185 0
166 185 0
158 174 0
158 176 0
163 181 0
162 182 0
166 187 0
169 188 0
165 185 0
165 182 0
164 182 0
164 185 0
169 189 0
167 190 0
168 187 0
164 186 0
168 190 0
164 184 0
169 190 0
165 187 0
170 190 0
169 190 0
167 190 0
172 194 0
168 190 0
168 191 0
169 190 0
172 193 0
171 192 0
164 187 0
170 188 0
169 192 0
167 188 0
168 190 0
168 190 0
170 192 0
171 194 0
170 191 0
172 195 0
175 195 0
171 192 0
174 196 0
168 192 0
172 193 0
171 193 0
175 197 0
171 194 0
170 193 0
168 191 0
168 190 0
174 196 0
173 196 0
171 193 0
172 194 0
173 196 0
175 198 0
168 190 0
171 194 0
171 194 0
169 190 0
171 192 0
173 197 0
170 192 0
170 192 0
173 194 0
171 195 0
172 196 0
172 195 0
174 197 0
176 198 0
174 197 0
170 193 0
175 198 0
171 193 0
172 194 0
172 193 0
174 197 0
171 194 0
174 197 0
171 192 0
172 195 0
171 193 0
172 196 0
173 197 0
167 190 0
172 196 0
174 197 0
174 197 0
173 196 0
173 196 0
171 194 0
171 195 0
173 197 0
174 198 0
173 196 0
174 198 0
170 193 0
175 198 0
175 198 0
175 198 0
173 196 0
174 197 0
170 194 0
173 196 0
172 195 0
175 198 0
174 196 0
172 195 0
174 198 0
174 197 0
172 196 0
174 198 0
172 196 0
174 198 0
174 197 0
172 196 0
173 196 0
173 197 0
174 198 0
177 199 0
174 198 0
173 196 0
175 197 0
174 198 0
173 196 0
174 198 0
172 197 0
177 199 0
174 198 0
174 197 0
175 198 0
174 198 0
174 197 0
173 196 0
174 197 0
173 197 0
172 196 0
170 194 0
171 194 0
173 197 0
175 198 0
172 195 0
174 197 0
173 196 0
171 194 0
173 197 0
173 196 0
169 193 0
174 196 0
174 196 0
168 193 0
174 198 0
173 197 0
170 194 0
174 197 0
174 198 0
175 198 0
176 199 0
167 191 0
171 195 0
172 196 0
174 197 0
170 194 0
167 192 0
174 197 0
172 196 0
169 193 0
173 197 0
168 192 0
174 198 0
172 195 0
174 197 0
176 199 0
172 195 0
174 197 0
170 194 0
174 198 0
169 193 0
169 193 0
176 199 0
176 198 0
173 196 0
179 201 62
183 204 108
181 203 88
177 200 72
178 201 62
190 210 135
222 235 250
219 234 250
214 230 240
218 234 255
211 228 237
196 215 173
175 198 72
179 202 95
177 200 72
175 199 80
177 200 72
175 199 80
175 198 72
175 199 102
171 196 72
173 196 62
174 200 95
170 194 62
175 198 80
176 200 80
169 192 62
172 195 72
171 194 51
173 198 88
172 197 108
169 191 72
171 196 51
174 198 80
168 193 88
170 194 95
171 195 72
170 194 62
168 192 62
169 192 72
169 194 72
170 194 0
172 197 62
170 195 80
167 192 72
169 193 72
162 187 72
171 196 88
168 192 72
170 193 88
175 199 80
157 181 88
160 184 51
156 179 0
160 184 72
167 191 95
157 181 72
160 184 72
165 189 62
159 181 36
159 182 80
157 180 62
165 189 95
167 191 80
158 180 62
164 187 62
162 185 80
129 152 111
90 118 135
96 123 142
100 126 139
88 115 141
97 124 136
87 114 156
83 112 155
99 127 166
93 119 149
86 115 144
95 123 171
95 122 144
108 134 157
115 140 146
101 128 153
118 143 169
92 120 175
90 119 177
74 106 151
66 98 147
70 101 153
72 101 149
61 98 159
60 95 159
62 97 154
61 96 155
58 92 145
59 94 137
66 100 149
60 95 133
63 98 153
60 94 137
59 93 145
63 99 157
59 93 137
62 97 149
63 99 159
60 94 133
61 95 144
60 95 149
61 96 142
61 95 135
62 97 149
59 93 122
62 97 144
60 96 149
62 97 147
62 96 135
59 94 130
61 95 135
59 94 125
60 95 137
60 94 130
62 97 147
60 94 133
60 94 135
61 96 142
61 95 153
60 94 130
61 95 137
60 94 130
62 97 147
58 92 135
59 93 133
60 94 125
59 93 120
58 91 122
59 94 122
59 94 133
55 87 108
60 94 144
57 91 117
55 88 95
59 93 128
58 92 120
56 89 105
57 89 105
60 84 95
115 128 0
117 131 0
118 132 0
120 133 0
134 147 0
132 147 0
112 126 0
116 127 0
129 139 0
132 144 0
113 125 0
136 151 0
117 129 0
129 142 0
121 132 0
135 149 0
128 139 0
123 139 0
128 142 0
137 149 0
140 153 0
133 144 0
136 147 0
128 142 0
141 154 0
141 153 0
139 153 0
135 145 0
144 156 0
144 155 0
141 152 0
143 156 0
159 175 0
144 160 0
149 160 0
143 160 0
144 158 0
145 157 0
157 170 0
149 161 0
152 163 0
142 151 0
145 154 0
152 166 0
147 160 0
160 177 0
157 172 0
150 163 0
155 170 0
154 168 0
148 160 0
155 167 0
151 164 0
152 165 0
166 180 0
165 183 0
160 174 0
156 176 0
149 161 0
157 173 0
162 179 0
159 175 0
162 180 0
165 185 0
162 179 0
164 184 0
163 181 0
160 179 0
156 171 0
165 181 0
165 185 0
163 179 0
170 193 0
157 175 0
164 184 0
168 187 0
165 184 0
162 181 0
165 185 0
163 181 0
171 192 0
170 190 0
161 179 0
159 178 0
166 184 0
164 185 0
171 193 0
167 189 0
167 188 0
165 184 0
165 186 0
169 188 0
172 192 0
169 190 0
170 191 0
168 187 0
163 185 0
171 194 0
164 185 0
170 192 0
171 194 0
166 186 0
167 191 0
169 191 0
171 194 0
171 192 0
168 189 0
169 192 0
175 198 0
169 188 0
169 192 0
170 192 0
171 194 0
170 193 0
165 187 0
170 193 0
171 193 0
168 192 0
171 190 0
170 193 0
169 192 0
174 197 0
169 192 0
172 193 0
173 196 0
175 197 0
172 195 0
170 195 0
176 197 0
169 192 0
173 196 0
175 198 0
167 188 0
170 194 0
172 196 0
170 193 0
171 195 0
169 192 0
172 195 0
175 197 0
173 196 0
169 194 0
176 198 0
172 195 0
172 196 0
170 193 0
171 194 0
173 197 0
171 195 0
174 197 0
174 197 0
172 196 0
174 197 0
173 197 0
173 196 0
174 197 0
173 195 0
173 195 0
174 197 0
172 195 0
172 196 0
174 197 0
171 195 0
175 198 0
170 193 0
174 197 0
174 197 0
172 197 0
170 192 0
176 198 0
170 192 0
172 196 0
173 197 0
174 197 0
175 198 0
172 195 0
175 197 0
175 198 0
174 198 0
172 195 0
174 198 0
173 196 0
174 197 0
173 197 0
172 196 0
173 197 0
173 196 0
173 196 0
173 196 0
173 197 0
172 197 0
171 195 0
172 196 0
175 198 0
175 198 0
172 196 0
173 197 0
174 198 0
171 196 0
173 196 0
173 197 0
172 195 0
172 196 0
174 197 0
172 196 0
173 197 0
176 198 0
170 193 0
176 198 0
173 196 0
172 196 0
172 196 0
173 197 0
174 198 0
173 196 0
172 195 0
174 197 0
174 197 0
174 197 0
171 195 0
172 197 0
174 198 0
171 194 0
172 196 0
175 198 0
172 193 0
172 196 0
174 196 0
174 198 0
176 198 0
171 195 0
171 195 0
175 197 0
172 195 0
166 191 0
174 197 0
167 191 0
170 194 0
173 197 0
170 194 0
172 196 0
173 197 0
175 198 0
168 191 0
174 198 0
173 196 0
168 192 0
174 198 0
174 197 0
169 193 0
169 193 0
172 196 0
170 195 0
171 193 36
185 206 114
181 202 80
181 203 80
178 201 72
178 200 51
219 233 240
220 234 248
219 234 250
217 233 250
215 232 253
198 216 198
183 205 135
175 198 72
178 201 80
176 199 51
176 200 80
175 199 72
173 196 95
177 200 72
174 198 88
177 201 102
171 194 51
168 192 51
175 199 62
172 195 80
175 199 80
171 195 80
169 193 62
173 196 80
171 193 62
171 195 62
171 196 80
173 197 72
170 193 62
170 194 80
168 193 62
170 195 95
165 189 51
170 194 51
169 193 51
169 193 88
171 195 62
169 194 80
167 190 51
172 195 95
166 191 72
169 195 102
160 184 62
172 197 95
161 186 88
163 187 62
171 194 88
172 196 80
161 185 62
170 194 88
166 191 72
158 182 72
159 183 80
160 185 108
170 195 88
167 189 95
155 178 72
157 179 51
156 179 51
166 189 72
162 185 95
152 175 108
162 185 84
88 115 99
94 120 125
86 115 133
94 121 147
103 129 129
90 117 142
84 111 136
93 121 143
100 127 161
91 119 158
100 127 160
96 123 152
90 119 136
96 122 151
105 128 139
95 122 154
83 113 163
80 110 165
69 103 161
79 108 151
65 97 143
83 107 139
62 98 159
62 98 151
61 96 144
62 98 157
62 97 155
64 97 120
66 100 142
62 97 140
60 93 130
59 93 117
62 97 151
60 95 133
59 94 140
61 95 125
62 96 148
60 94 135
61 96 149
59 94 134
60 95 128
61 97 144
60 94 133
62 97 149
60 94 131
61 96 135
61 96 147
61 95 140
61 97 149
60 95 144
62 97 144
60 95 142
59 94 135
60 94 142
60 94 133
62 96 142
61 96 144
60 95 137
60 95 128
60 94 128
60 95 135
60 95 135
59 94 117
57 91 128
60 95 130
60 95 133
59 94 122
58 93 125
58 91 108
56 88 114
62 97 147
56 88 111
60 94 125
56 89 105
59 92 125
58 92 111
74 99 92
96 110 25
100 112 0
118 132 0
121 135 0
121 135 0
107 123 0
129 144 0
144 157 0
118 136 0
120 132 0
114 129 0
129 143 0
128 139 0
127 139 0
134 147 0
124 134 0
117 130 0
123 134 0
143 154 0
130 143 0
136 151 0
123 135 0
147 162 0
132 148 0
142 153 0
132 144 0
125 134 0
139 153 0
141 153 0
133 146 0
139 154 0
145 156 0
138 151 0
144 154 0
156 170 0
139 151 0
143 158 0
141 155 0
134 147 0
157 168 0
154 172 0
151 163 0
151 166 0
157 172 0
148 160 0
140 156 0
149 162 0
154 169 0
154 167 0
153 165 0
159 175 0
139 150 0
152 170 0
157 171 0
153 169 0
152 170 0
159 173 0
164 179 0
155 172 0
154 166 0
159 177 0
151 166 0
154 171 0
160 176 0
161 181 0
169 187 0
158 177 0
168 190 0
157 174 0
165 183 0
166 186 0
169 188 0
163 183 0
166 187 0
167 188 0
167 186 0
164 185 0
168 189 0
163 184 0
157 178 0
157 175 0
167 187 0
165 187 0
166 186 0
159 179 0
165 185 0
167 187 0
172 193 0
166 188 0
167 190 0
168 191 0
171 193 0
168 189 0
164 185 0
166 188 0
170 192 0
170 191 0
167 187 0
170 193 0
172 194 0
170 190 0
167 190 0
168 188 0
169 190 0
169 193 0
172 195 0
171 192 0
167 189 0
170 193 0
171 193 0
173 195 0
174 197 0
172 194 0
170 192 0
174 195 0
172 194 0
170 194 0
174 195 0
174 197 0
169 190 0
170 192 0
168 188 0
172 195 0
174 197 0
174 197 0
171 194 0
170 189 0
170 193 0
173 195 0
173 195 0
174 196 0
169 192 0
169 192 0
172 195 0
172 195 0
172 195 0
170 193 0
174 197 0
174 197 0
172 195 0
173 195 0
174 197 0
173 197 0
172 195 0
174 196 0
173 197 0
172 195 0
174 197 0
171 193 0
172 195 0
169 192 0
170 193 0
173 196 0
173 195 0
174 197 0
175 197 0
173 196 0
172 196 0
171 194 0
175 198 0
174 198 0
173 197 0
174 197 0
170 193 0
173 197 0
170 194 0
172 197 0
173 197 0
172 196 0
172 196 0
174 197 0
174 198 0
172 195 0
171 195 0
173 197 0
173 197 0
171 194 0
176 197 0
173 197 0
173 197 0
174 197 0
176 198 0
174 197 0
175 198 0
173 196 0
173 197 0
175 198 0
172 197 0
174 197 0
171 195 0
171 194 0
174 197 0
173 196 0
174 198 0
174 198 0
174 197 0
174 197 0
170 194 0
172 197 0
174 197 0
173 197 0
170 194 0
174 198 0
173 196 0
173 197 0
175 198 0
171 195 0
173 196 0
174 197 0
171 195 0
174 197 0
171 195 0
169 193 0
166 189 0
172 196 0
170 194 0
174 198 0
174 198 0
175 198 0
171 193 0
173 197 0
169 194 0
175 198 0
170 194 0
173 196 0
172 196 0
170 194 0
173 195 0
169 192 0
175 198 0
172 197 0
173 196 0
172 195 0
170 194 0
172 196 0
164 187 0
173 196 0
170 194 0
172 195 0
173 196 0
171 195 0
170 194 0
173 197 0
166 190 0
170 194 0
171 195 0
172 196 0
169 192 0
169 193 0
172 195 0
173 196 0
169 192 0
174 198 0
171 195 0
181 203 95
182 204 95
181 202 95
179 201 72
177 200 80
188 208 130
221 235 253
222 236 255
219 234 253
217 233 253
207 225 223
185 206 149
171 194 62
170 193 51
172 195 72
177 198 62
175 198 51
172 198 88
175 198 80
170 193 72
173 197 72
176 200 108
164 189 80
173 198 51
172 195 80
175 198 80
172 195 80
168 193 88
168 192 51
172 197 62
169 194 88
171 194 80
174 198 80
172 195 36
173 197 72
171 195 62
171 196 72
172 196 62
168 191 51
164 189 72
164 190 102
166 191 72
170 194 88
168 192 51
165 189 51
163 187 80
168 192 80
166 190 62
171 195 62
166 191 80
167 191 88
172 197 88
164 188 88
161 186 51
156 180 95
168 191 36
163 189 80
167 191 88
167 191 72
162 186 72
154 178 72
174 198 88
158 180 36
157 180 72
162 185 88
160 183 36
160 182 80
146 169 88
157 180 62
154 176 76
90 116 114
79 108 107
73 104 130
95 121 143
97 124 136
93 120 114
97 124 140
74 103 145
96 123 153
84 112 153
81 110 143
93 121 161
93 120 137
95 121 144
102 128 138
94 122 151
93 120 133
75 107 169
75 107 165
74 104 156
80 107 150
67 100 154
60 95 137
62 97 149
61 96 149
64 100 163
69 101 139
65 97 135
63 95 115
59 93 130
57 90 114
59 94 122
61 95 140
61 96 135
60 94 137
59 94 140
61 96 142
62 97 142
61 96 137
61 96 149
62 97 147
61 95 144
62 97 155
61 96 140
61 97 147
60 95 140
61 96 142
61 96 147
59 93 137
60 95 135
61 96 137
59 93 128
59 94 135
62 96 149
58 93 120
60 94 140
57 90 124
60 95 135
60 95 133
59 93 130
60 94 133
60 95 120
58 92 128
57 90 111
59 93 120
61 96 135
57 91 114
58 92 130
60 95 137
55 88 102
58 91 105
58 91 120
59 93 122
56 88 88
68 97 111
106 120 44
109 126 0
115 131 0
119 130 0
119 132 0
115 127 0
129 144 0
131 147 0
129 144 0
121 134 0
134 148 0
135 148 0
133 147 0
124 140 0
114 129 0
127 143 0
131 147 0
140 156 0
143 160 0
127 138 0
137 151 0
142 158 0
134 149 0
132 145 0
122 134 0
139 151 0
143 156 0
140 156 0
134 147 0
145 162 0
150 166 0
154 171 0
133 146 0
137 149 0
146 161 0
150 162 0
141 156 0
147 160 0
142 159 0
154 169 0
151 163 0
148 164 0
147 162 0
142 156 0
150 164 0
154 167 0
151 166 0
156 172 0
157 174 0
159 176 0
149 163 0
155 174 0
157 172 0
152 169 0
159 175 0
158 176 0
164 182 0
159 177 0
154 168 0
159 176 0
161 178 0
164 183 0
157 175 0
164 180 0
161 179 0
162 178 0
162 178 0
165 183 0
160 178 0
158 177 0
165 183 0
161 180 0
156 176 0
166 186 0
163 182 0
170 192 0
167 189 0
164 182 0
157 174 0
169 191 0
169 189 0
175 194 0
165 185 0
164 183 0
165 187 0
159 179 0
170 192 0
170 190 0
167 189 0
163 185 0
169 192 0
168 189 0
168 190 0
171 193 0
171 192 0
164 186 0
172 193 0
162 182 0
169 188 0
169 192 0
168 190 0
167 188 0
164 185 0
170 193 0
166 187 0
164 186 0
170 193 0
172 194 0
172 192 0
172 195 0
172 195 0
171 192 0
173 195 0
170 192 0
172 195 0
169 194 0
170 191 0
170 192 0
171 194 0
169 191 0
170 192 0
171 194 0
171 193 0
173 195 0
172 195 0
173 197 0
171 194 0
169 192 0
174 197 0
171 194 0
171 193 0
171 194 0
169 192 0
172 195 0
174 198 0
172 195 0
174 196 0
173 197 0
172 196 0
173 196 0
173 197 0
173 196 0
172 194 0
172 194 0
172 196 0
173 197 0
174 197 0
173 196 0
175 197 0
173 196 0
169 192 0
174 197 0
172 197 0
175 198 0
175 198 0
175 198 0
171 194 0
173 197 0
173 197 0
172 196 0
173 197 0
173 197 0
175 198 0
173 196 0
173 196 0
172 196 0
175 196 0
174 196 0
172 194 0
174 197 0
173 197 0
173 197 0
175 197 0
167 190 0
173 196 0
171 195 0
174 196 0
175 198 0
173 197 0
175 197 0
174 198 0
173 197 0
175 197 0
174 197 0
173 197 0
173 196 0
174 198 0
174 198 0
175 198 0
174 198 0
172 196 0
176 198 0
175 198 0
173 196 0
173 196 0
172 196 0
168 192 0
171 194 0
171 195 0
172 196 0
172 196 0
173 197 0
178 200 0
173 197 0
172 196 0
173 197 0
174 197 0
173 196 0
175 198 0
172 196 0
173 197 0
174 198 0
173 196 0
174 197 0
172 195 0
174 198 0
175 198 0
170 193 0
172 196 0
172 196 0
172 197 0
172 196 0
175 198 0
169 194 0
168 191 0
174 198 0
168 192 0
170 194 0
173 196 0
172 196 0
170 193 0
174 198 0
173 196 0
174 198 0
172 195 0
172 196 0
170 193 0
171 195 0
172 196 0
170 193 0
173 196 0
172 196 0
173 197 0
173 196 0
171 195 0
171 194 0
173 195 0
167 191 0
174 197 0
168 191 0
173 196 0
169 193 0
169 192 0
171 195 0
170 194 0
178 200 62
180 202 80
179 201 80
179 201 80
176 199 72
214 229 226
222 236 253
219 233 248
219 234 255
216 232 248
192 212 161
178 201 88
178 201 88
174 198 80
177 200 88
175 198 62
176 199 72
172 196 72
173 197 72
177 200 88
177 200 102
176 200 88
171 196 62
166 190 62
174 197 62
172 196 51
175 199 72
169 194 88
172 196 62
170 194 88
173 197 80
172 196 72
168 193 88
168 192 36
173 197 95
171 196 80
171 196 72
171 196 95
168 193 72
172 196 88
168 191 88
169 192 51
168 193 62
173 197 62
166 190 72
169 193 72
162 186 51
170 194 72
170 192 36
170 194 72
168 193 80
165 188 51
163 187 62
156 181 80
163 187 62
157 180 88
168 192 95
155 177 51
159 185 114
168 191 51
156 180 80
164 187 51
150 173 88
159 180 36
156 179 51
150 172 80
159 182 72
148 170 88
140 162 62
151 172 80
137 158 105
77 105 117
83 112 122
101 126 135
98 124 142
81 111 149
91 118 148
104 130 147
85 114 142
76 105 135
91 120 152
104 130 154
120 143 157
85 113 137
108 132 137
98 125 137
100 126 147
83 113 163
81 112 173
95 122 171
74 105 158
75 102 138
67 99 147
61 96 144
60 95 147
60 95 137
66 99 133
66 98 125
77 107 124
67 99 125
61 96 140
58 92 117
59 93 114
59 94 128
60 95 135
61 96 135
62 97 151
60 95 133
60 95 140
61 96 142
60 95 133
61 95 141
61 96 142
60 94 128
60 95 137
58 92 120
61 95 142
60 95 133
60 95 133
58 92 130
60 95 130
62 97 140
60 94 122
59 93 130
60 94 140
60 94 133
59 93 114
60 94 133
60 95 128
60 94 130
57 91 120
57 91 117
57 91 122
59 93 128
58 92 122
57 90 117
59 93 130
57 90 111
59 93 125
58 91 120
58 91 114
53 85 92
57 90 122
58 86 88
89 105 44
133 147 0
105 120 0
110 126 0
139 155 0
117 129 0
124 139 0
124 140 0
124 140 0
110 125 0
124 137 0
131 145 0
121 138 0
114 127 0
142 157 0
134 147 0
141 157 0
130 147 0
134 148 0
140 158 0
136 152 0
130 143 0
148 166 0
132 146 0
130 147 0
128 143 0
132 147 0
143 159 0
139 153 0
148 163 0
134 147 0
138 155 0
149 167 0
150 169 0
139 154 0
144 156 0
145 156 0
144 159 0
139 154 0
152 167 0
147 160 0
150 166 0
145 157 0
152 168 0
154 170 0
147 163 0
156 171 0
156 165 0
154 170 0
149 163 0
165 182 0
153 165 0
151 171 0
157 173 0
153 170 0
153 169 0
143 158 0
154 168 0
155 171 0
159 179 0
158 176 0
160 175 0
161 177 0
160 176 0
160 177 0
158 176 0
158 177 0
164 185 0
164 182 0
160 179 0
161 178 0
158 179 0
163 184 0
162 180 0
171 191 0
168 187 0
170 190 0
159 176 0
170 191 0
160 180 0
163 181 0
169 189 0
162 182 0
166 186 0
173 195 0
166 187 0
169 188 0
165 185 0
168 190 0
170 188 0
167 188 0
167 186 0
169 189 0
164 184 0
167 185 0
170 191 0
169 190 0
167 186 0
169 190 0
169 191 0
172 194 0
171 193 0
171 194 0
169 191 0
165 187 0
165 187 0
169 190 0
168 191 0
165 188 0
169 192 0
168 190 0
171 193 0
172 193 0
170 191 0
172 194 0
173 195 0
172 194 0
171 193 0
171 194 0
170 193 0
170 193 0
173 195 0
174 196 0
170 194 0
174 197 0
173 196 0
169 191 0
166 189 0
172 194 0
173 196 0
175 197 0
170 192 0
169 192 0
170 192 0
172 194 0
169 191 0
173 195 0
174 197 0
172 196 0
175 197 0
173 196 0
172 196 0
171 195 0
171 193 0
174 196 0
172 197 0
173 195 0
172 196 0
174 196 0
176 198 0
172 195 0
172 196 0
175 198 0
170 193 0
174 197 0
175 198 0
175 198 0
175 197 0
171 195 0
173 196 0
172 196 0
174 196 0
174 197 0
173 197 0
175 197 0
172 196 0
175 198 0
173 195 0
174 197 0
171 194 0
173 196 0
173 195 0
172 194 0
169 193 0
173 195 0
174 196 0
171 193 0
172 197 0
171 195 0
172 197 0
171 195 0
172 196 0
174 198 0
173 197 0
175 198 0
172 196 0
172 196 0
174 198 0
176 199 0
175 198 0
174 197 0
171 194 0
174 198 0
173 196 0
173 197 0
175 198 0
173 196 0
172 196 0
175 198 0
171 195 0
173 197 0
175 198 0
172 195 0
174 198 0
173 197 0
177 199 0
174 197 0
174 197 0
176 199 0
173 197 0
176 198 0
172 196 0
170 194 0
171 195 0
169 193 0
175 198 0
173 197 0
170 194 0
170 195 0
175 198 0
173 197 0
169 193 0
171 195 0
170 194 0
169 194 0
173 196 0
171 195 0
173 194 0
171 196 0
172 196 0
172 196 0
174 198 0
169 193 0
173 197 0
172 195 0
171 193 0
168 191 0
172 196 0
176 199 0
173 196 0
171 194 0
171 195 0
171 195 0
170 193 0
170 195 0
172 197 0
172 195 0
171 195 0
171 195 0
176 199 0
161 186 0
173 196 0
174 197 0
171 195 0
172 195 0
173 194 0
178 200 88
182 203 88
183 203 80
178 201 72
177 200 62
221 235 248
221 235 253
219 234 253
216 232 245
209 225 217
174 197 62
175 199 51
174 198 95
173 197 88
168 191 62
176 199 88
173 197 62
175 198 80
178 201 72
174 196 95
171 194 88
174 199 88
169 193 62
170 194 95
168 192 72
172 197 95
175 200 120
170 194 51
173 197 88
174 198 72
171 194 62
168 192 72
171 196 80
166 191 72
167 191 36
165 191 114
174 198 108
167 191 62
175 199 62
167 191 72
174 198 62
167 190 51
172 196 95
162 187 72
162 186 95
159 184 62
162 188 102
167 190 95
170 196 80
170 194 80
168 191 62
167 192 51
169 192 0
160 183 80
166 190 51
166 189 62
165 189 72
164 187 62
166 189 72
161 185 51
169 192 72
166 189 80
164 187 88
163 186 88
164 186 51
156 179 51
155 179 62
153 177 95
154 176 62
157 179 51
137 160 80
113 137 77
98 125 128
98 125 120
95 121 120
89 116 120
82 110 129
80 109 137
88 114 133
105 130 136
96 122 143
84 113 141
91 119 130
92 120 142
115 137 156
88 115 122
80 108 135
84 113 148
68 102 161
92 120 175
78 109 161
77 105 147
64 97 141
60 95 147
60 95 141
60 94 144
61 95 133
70 102 130
64 97 117
84 112 102
57 91 108
58 92 125
58 92 117
58 93 122
59 93 122
57 91 120
60 95 135
59 93 133
60 95 141
57 90 108
58 92 120
60 94 130
59 94 122
61 96 147
59 93 133
58 92 111
58 92 120
59 93 125
59 93 122
59 92 122
61 96 135
60 95 133
58 92 117
58 92 120
59 93 122
60 95 128
60 95 135
55 88 111
58 91 102
60 94 140
58 92 120
57 91 120
59 93 125
61 95 133
58 91 120
56 89 122
58 92 111
59 93 117
59 92 108
53 84 88
59 93 122
58 91 111
54 85 95
91 107 37
117 132 0
119 135 0
117 133 0
129 142 0
127 143 0
121 137 0
137 154 0
135 150 0
113 128 0
129 145 0
121 136 0
134 148 0
124 141 0
133 148 0
127 145 0
120 135 0
147 165 0
142 159 0
141 156 0
127 143 0
128 144 0
140 156 0
127 142 0
134 152 0
143 157 0
140 157 0
144 158 0
142 158 0
135 147 0
141 155 0
146 160 0
144 157 0
147 164 0
139 153 0
152 170 0
150 161 0
151 167 0
143 157 0
134 151 0
146 165 0
147 165 0
159 176 0
139 154 0
144 159 0
149 166 0
151 168 0
151 165 0
161 174 0
155 174 0
149 162 0
149 166 0
155 167 0
158 172 0
158 175 0
157 173 0
159 177 0
160 176 0
162 177 0
158 175 0
157 175 0
161 180 0
158 176 0
160 175 0
163 183 0
169 183 0
162 180 0
160 176 0
164 185 0
164 182 0
162 180 0
167 185 0
160 175 0
160 175 0
164 183 0
172 195 0
166 187 0
152 169 0
156 174 0
162 180 0
164 183 0
161 180 0
167 187 0
158 176 0
170 191 0
167 189 0
172 193 0
171 193 0
166 185 0
169 190 0
163 185 0
170 193 0
164 184 0
167 188 0
170 191 0
172 193 0
162 183 0
166 185 0
166 188 0
170 193 0
166 188 0
168 189 0
174 195 0
168 190 0
169 191 0
170 192 0
169 191 0
171 194 0
175 196 0
168 189 0
168 190 0
164 187 0
169 190 0
172 195 0
170 191 0
170 192 0
169 190 0
171 193 0
174 196 0
173 196 0
172 193 0
171 194 0
174 196 0
170 193 0
168 190 0
171 195 0
170 193 0
171 195 0
169 191 0
169 189 0
171 193 0
171 194 0
173 196 0
171 196 0
175 198 0
170 192 0
173 196 0
173 196 0
174 194 0
172 195 0
176 199 0
174 197 0
171 195 0
173 195 0
171 194 0
175 198 0
172 195 0
172 197 0
175 198 0
172 197 0
174 197 0
173 197 0
172 196 0
174 196 0
172 195 0
176 198 0
173 196 0
171 194 0
176 198 0
173 197 0
173 196 0
171 195 0
172 196 0
173 197 0
173 195 0
173 196 0
175 198 0
174 198 0
174 196 0
174 197 0
174 197 0
175 198 0
175 198 0
173 197 0
172 195 0
175 198 0
176 199 0
175 198 0
174 195 0
174 197 0
173 195 0
176 198 0
175 198 0
174 198 0
176 199 0
174 197 0
174 198 0
170 195 0
173 197 0
173 196 0
174 197 0
171 195 0
172 195 0
173 197 0
169 193 0
173 196 0
173 197 0
173 197 0
174 198 0
175 198 0
172 196 0
173 197 0
170 193 0
169 194 0
175 198 0
173 197 0
171 195 0
171 195 0
172 195 0
174 197 0
173 197 0
172 196 0
173 197 0
172 196 0
174 196 0
172 196 0
174 198 0
170 194 0
172 196 0
173 197 0
172 195 0
172 197 0
172 197 0
173 196 0
169 194 0
174 198 0
174 198 0
172 195 0
173 197 0
171 195 0
173 196 0
175 198 0
172 195 0
171 194 0
174 197 0
170 194 0
166 189 0
173 196 0
169 192 0
173 196 0
172 196 0
171 193 0
175 197 0
173 196 0
170 193 0
172 196 0
168 192 0
168 193 0
170 194 0
173 197 0
173 196 0
170 194 0
169 193 0
171 194 0
172 196 0
173 197 0
175 197 62
182 204 88
179 201 51
181 203 88
176 199 62
192 211 140
222 236 250
219 234 253
217 233 248
207 224 223
182 203 108
175 198 72
175 198 72
181 204 102
174 197 62
177 199 72
175 199 80
177 200 102
175 199 51
172 195 51
173 197 51
172 195 62
170 194 51
168 191 36
172 196 0
166 190 51
172 196 62
167 191 72
171 195 62
167 190 88
169 193 62
170 194 36
170 195 62
168 194 88
171 196 72
171 195 80
167 191 0
169 194 72
163 188 36
162 186 62
163 188 95
166 192 80
165 189 80
164 190 80
165 188 80
169 193 72
167 194 95
159 184 51
165 189 72
160 185 51
163 188 88
174 198 62
161 186 62
161 184 51
162 186 0
159 182 62
162 185 72
159 182 72
163 186 72
163 186 51
161 186 95
155 178 51
164 187 88
160 183 95
161 183 36
155 179 72
155 178 80
145 167 51
150 173 72
145 166 62
144 166 80
151 173 95
164 185 72
106 131 108
85 113 120
84 111 124
83 112 117
98 124 150
91 117 130
79 105 122
103 128 151
94 119 142
79 108 128
85 113 152
115 138 148
104 129 166
102 128 155
106 130 145
101 127 129
62 98 157
75 106 153
69 103 165
80 109 153
65 98 142
71 100 151
61 95 137
59 93 128
59 93 122
69 102 140
73 104 139
84 111 102
59 93 111
60 95 133
57 90 121
59 93 125
59 93 113
57 91 117
59 94 117
60 95 142
58 92 117
56 89 114
59 94 125
58 92 125
58 93 125
57 91 122
60 95 125
62 96 133
58 91 108
59 94 120
58 92 117
60 94 122
58 93 114
58 92 120
57 91 117
61 95 125
57 90 114
61 95 125
58 92 122
59 94 128
58 92 108
57 91 105
57 91 114
59 92 125
55 87 111
59 92 111
58 91 105
59 93 117
59 92 120
56 89 111
56 89 102
56 88 105
54 86 88
76 100 92
99 116 36
128 146 0
105 119 0
122 139 0
121 136 0
127 144 0
126 143 0
120 133 0
132 148 0
115 128 0
133 146 0
120 135 0
123 138 0
130 145 0
140 157 0
135 149 0
124 140 0
111 125 0
144 159 0
148 168 0
136 152 0
139 154 0
142 157 0
141 158 0
145 161 0
148 163 0
144 163 0
137 151 0
140 158 0
141 156 0
132 147 0
139 155 0
142 158 0
144 161 0
153 169 0
145 162 0
133 146 0
139 154 0
141 154 0
136 152 0
143 158 0
149 164 0
142 158 0
158 178 0
158 176 0
156 174 0
159 179 0
149 165 0
166 182 0
155 171 0
154 169 0
155 175 0
153 171 0
162 179 0
151 168 0
160 178 0
162 179 0
153 171 0
156 174 0
157 174 0
162 181 0
169 189 0
156 172 0
161 179 0
165 184 0
158 172 0
161 181 0
160 177 0
161 180 0
161 180 0
164 183 0
169 186 0
160 180 0
162 180 0
167 189 0
168 188 0
161 179 0
166 183 0
169 183 0
166 189 0
166 187 0
159 177 0
165 187 0
164 183 0
169 190 0
167 188 0
173 194 0
169 187 0
166 188 0
163 185 0
164 185 0
169 187 0
168 189 0
167 189 0
169 188 0
171 193 0
165 185 0
170 192 0
172 193 0
164 187 0
168 189 0
170 192 0
168 189 0
170 192 0
171 191 0
165 187 0
169 188 0
167 189 0
171 194 0
172 195 0
170 190 0
169 191 0
166 186 0
168 191 0
171 194 0
170 194 0
170 190 0
167 186 0
172 193 0
169 190 0
170 193 0
171 192 0
172 194 0
172 194 0
165 187 0
168 188 0
170 192 0
171 195 0
170 194 0
170 191 0
172 194 0
174 195 0
170 193 0
175 196 0
170 193 0
171 194 0
174 197 0
169 193 0
173 195 0
171 194 0
169 192 0
176 198 0
173 196 0
173 196 0
173 193 0
172 195 0
173 195 0
173 196 0
174 197 0
174 197 0
170 194 0
175 197 0
175 198 0
174 196 0
174 198 0
174 195 0
170 192 0
172 196 0
169 192 0
173 196 0
172 196 0
174 196 0
173 196 0
172 196 0
173 197 0
174 198 0
173 195 0
172 196 0
173 197 0
174 196 0
175 198 0
173 196 0
171 194 0
173 197 0
169 192 0
172 196 0
175 197 0
171 195 0
173 197 0
176 199 0
171 196 0
172 197 0
173 196 0
171 195 0
176 199 0
173 197 0
173 196 0
175 198 0
175 198 0
173 197 0
174 198 0
176 199 0
174 198 0
172 196 0
176 199 0
174 198 0
173 196 0
178 200 0
177 199 0
176 198 0
175 198 0
174 197 0
173 197 0
174 198 0
173 196 0
175 198 0
174 197 0
174 197 0
172 196 0
175 198 0
173 196 0
172 196 0
175 198 0
173 197 0
171 195 0
172 196 0
171 195 0
173 196 0
173 197 0
170 194 0
173 196 0
174 198 0
170 194 0
173 197 0
172 196 0
171 194 0
173 197 0
175 198 0
174 197 0
169 193 0
169 193 0
172 195 0
172 195 0
173 197 0
172 195 0
173 195 0
174 197 0
171 195 0
172 196 0
175 198 0
173 196 0
172 195 0
173 197 0
168 192 0
170 193 0
173 196 0
169 194 0
174 196 0
170 194 0
169 193 0
165 187 0
166 189 0
172 196 0
169 192 0
169 192 0
171 195 0
171 195 0
176 199 51
176 198 62
183 204 95
183 205 102
178 201 72
213 229 226
222 236 253
217 232 242
218 233 250
189 209 140
176 198 80
179 202 102
171 193 80
174 198 51
174 197 80
169 193 62
174 197 36
176 199 80
174 197 51
175 199 36
177 201 88
170 194 36
170 194 80
164 186 51
172 195 80
169 194 80
170 195 102
175 198 72
169 193 62
172 194 51
173 199 108
176 198 51
166 190 88
165 190 72
169 193 62
164 189 51
166 191 80
169 193 51
170 194 62
162 187 51
170 193 72
169 192 62
166 191 114
168 193 72
164 188 62
173 197 80
166 189 72
169 192 80
168 193 72
163 187 108
163 187 72
157 180 72
157 182 80
162 186 51
158 182 80
165 189 62
161 185 62
161 185 102
164 188 80
158 182 72
159 182 80
159 182 51
157 180 36
152 176 62
155 177 102
166 190 80
161 185 72
150 173 51
154 178 88
146 168 80
154 177 88
155 176 95
136 158 80
137 159 72
98 124 120
99 125 125
84 110 99
89 116 129
90 117 128
114 138 151
90 117 135
88 115 153
76 105 128
83 110 131
96 122 153
94 120 142
124 146 159
96 120 124
113 137 142
108 134 165
85 113 153
91 117 153
67 100 151
69 98 130
86 108 136
73 101 142
62 96 140
61 96 149
63 96 115
56 89 92
75 105 111
66 97 117
58 92 120
58 92 125
60 95 135
58 92 108
58 92 126
58 91 122
60 94 125
58 92 120
60 95 135
60 94 128
59 93 114
56 90 95
60 95 135
60 94 125
59 93 122
59 94 122
58 92 122
58 92 117
60 95 122
60 94 130
60 95 142
61 95 130
59 92 117
58 93 117
55 88 114
57 91 111
56 89 99
59 93 117
60 94 122
60 94 133
58 91 108
55 87 102
59 93 125
60 95 125
59 93 114
55 87 114
55 87 88
57 91 105
53 84 84
71 98 92
104 122 25
95 108 0
106 121 0
115 128 0
117 133 0
127 141 0
116 130 0
114 130 0
124 140 0
127 144 0
127 144 0
125 143 0
123 140 0
115 130 0
133 152 0
126 144 0
129 144 0
129 143 0
128 143 0
131 148 0
132 149 0
140 158 0
135 153 0
133 150 0
139 154 0
140 158 0
144 161 0
127 139 0
138 154 0
143 159 0
158 174 0
144 162 0
140 160 0
143 158 0
143 162 0
136 151 0
149 164 0
151 168 0
154 170 0
147 161 0
157 176 0
149 163 0
147 163 0
153 171 0
153 171 0
144 158 0
154 170 0
159 177 0
156 174 0
155 171 0
152 168 0
162 180 0
155 170 0
156 171 0
162 181 0
150 166 0
155 171 0
163 181 0
155 170 0
158 177 0
165 184 0
155 172 0
159 175 0
155 174 0
172 189 0
151 170 0
164 182 0
156 174 0
160 177 0
159 176 0
159 172 0
164 184 0
162 182 0
157 173 0
164 184 0
161 179 0
163 182 0
158 176 0
161 181 0
164 183 0
168 189 0
163 181 0
166 185 0
160 178 0
173 193 0
170 191 0
166 184 0
169 190 0
169 190 0
168 188 0
161 181 0
162 183 0
168 189 0
167 187 0
166 188 0
171 192 0
162 181 0
160 182 0
168 191 0
165 186 0
167 190 0
168 189 0
171 192 0
167 191 0
171 194 0
170 191 0
168 192 0
167 189 0
162 183 0
171 191 0
162 181 0
168 191 0
168 187 0
170 193 0
173 196 0
173 194 0
171 192 0
170 193 0
173 196 0
167 190 0
165 187 0
167 190 0
168 190 0
172 195 0
173 195 0
169 191 0
173 195 0
171 190 0
170 193 0
174 197 0
173 195 0
173 196 0
170 193 0
173 194 0
169 192 0
169 192 0
173 196 0
169 191 0
172 197 0
176 198 0
173 196 0
173 195 0
173 195 0
173 196 0
173 195 0
171 193 0
173 195 0
169 190 0
173 196 0
169 193 0
174 197 0
173 195 0
171 194 0
173 196 0
174 196 0
173 196 0
174 197 0
171 194 0
174 197 0
172 196 0
173 196 0
169 193 0
172 196 0
174 198 0
171 194 0
173 196 0
173 197 0
175 196 0
174 197 0
174 197 0
173 196 0
172 196 0
173 196 0
173 196 0
174 197 0
171 195 0
173 195 0
174 197 0
171 195 0
173 197 0
171 195 0
174 196 0
175 198 0
174 198 0
175 198 0
174 197 0
178 200 0
174 198 0
174 197 0
174 197 0
174 198 0
174 197 0
174 198 0
172 196 0
173 196 0
171 195 0
174 197 0
173 197 0
170 194 0
175 198 0
174 197 0
174 197 0
173 196 0
172 196 0
168 193 0
172 196 0
171 194 0
172 195 0
174 198 0
175 197 0
173 196 0
172 196 0
173 197 0
174 198 0
172 196 0
169 194 0
173 197 0
171 195 0
173 197 0
174 197 0
173 196 0
171 195 0
169 192 0
173 197 0
176 198 0
174 198 0
173 196 0
172 196 0
174 197 0
174 197 0
172 196 0
172 196 0
173 196 0
172 196 0
172 196 0
174 196 0
174 196 0
170 195 0
169 192 0
174 198 0
170 195 0
174 197 0
169 192 0
174 197 0
170 193 0
174 197 0
175 198 0
171 195 0
170 194 0
174 197 0
169 193 0
171 194 0
168 191 0
172 195 0
167 191 0
173 196 0
172 196 0
175 197 62
180 202 88
177 200 62
173 196 0
176 200 62
184 205 102
219 233 240
220 234 248
220 234 253
210 227 226
181 203 95
173 196 72
175 197 88
173 196 51
174 197 80
175 198 88
174 197 51
176 199 51
176 198 62
171 194 72
177 200 88
172 195 51
174 197 62
172 195 36
170 193 80
172 196 51
171 196 88
172 196 36
169 193 80
173 196 95
170 195 51
173 197 88
172 197 88
164 187 62
172 197 102
174 198 72
168 192 80
172 196 72
168 193 88
169 194 80
172 198 88
168 193 72
169 193 72
163 187 72
166 191 62
157 182 88
167 191 72
165 188 80
154 178 51
164 189 80
164 187 62
166 189 80
170 192 102
161 184 72
169 191 102
169 193 95
162 187 88
159 182 102
161 184 72
164 186 62
167 190 72
157 180 36
167 189 80
163 186 95
164 188 51
153 175 88
152 175 95
156 179 72
150 173 108
156 178 95
137 159 62
156 179 102
158 179 95
143 164 72
139 161 95
127 149 80
97 121 108
93 119 114
103 127 114
98 123 137
106 129 134
93 118 114
93 119 128
84 110 137
89 115 133
104 127 137
105 129 140
109 133 149
86 113 134
79 107 109
92 118 147
84 112 147
70 103 161
79 108 140
81 110 154
77 104 140
80 103 121
61 96 147
62 97 144
66 97 120
55 89 95
61 92 111
56 90 99
58 92 118
56 89 97
58 91 108
57 91 99
58 92 129
58 91 122
54 86 88
59 93 136
58 92 111
56 90 122
55 88 117
60 94 128
59 94 122
59 93 130
60 94 120
58 92 114
60 94 122
60 95 130
61 96 140
58 93 122
56 89 105
56 89 108
60 94 133
58 92 117
56 89 108
59 93 130
59 92 122
56 89 120
59 93 114
57 91 102
56 89 99
55 88 105
57 91 111
57 89 102
56 88 105
54 86 95
55 88 80
55 86 92
86 107 68
96 109 0
109 124 0
125 138 0
100 114 0
105 120 0
113 128 0
111 129 0
126 139 0
122 137 0
112 130 0
114 130 0
130 145 0
110 125 0
127 144 0
131 146 0
126 144 0
137 156 0
133 151 0
131 147 0
129 146 0
123 141 0
139 155 0
140 158 0
137 151 0
126 141 0
149 165 0
147 164 0
142 159 0
142 159 0
133 151 0
137 154 0
151 169 0
144 163 0
152 171 0
140 155 0
148 166 0
148 165 0
145 161 0
143 161 0
135 153 0
152 167 0
148 166 0
148 166 0
138 153 0
151 168 0
154 169 0
152 171 0
154 170 0
146 163 0
144 158 0
163 181 0
157 173 0
153 170 0
158 179 0
154 174 0
151 169 0
160 177 0
152 171 0
152 167 0
154 170 0
157 175 0
159 176 0
155 174 0
160 179 0
152 170 0
158 175 0
156 175 0
159 180 0
159 176 0
169 190 0
162 181 0
152 171 0
166 184 0
171 188 0
168 185 0
160 180 0
162 181 0
167 186 0
166 187 0
158 179 0
168 188 0
162 182 0
168 188 0
170 191 0
161 181 0
171 194 0
163 183 0
166 184 0
168 188 0
166 188 0
167 185 0
170 193 0
171 192 0
165 186 0
166 188 0
168 190 0
167 186 0
168 192 0
169 191 0
167 188 0
167 188 0
171 193 0
168 190 0
169 191 0
170 194 0
173 194 0
173 194 0
169 190 0
160 182 0
173 195 0
167 190 0
174 195 0
167 190 0
165 188 0
170 191 0
168 191 0
169 192 0
171 194 0
168 192 0
172 193 0
172 195 0
171 194 0
171 194 0
168 189 0
173 194 0
168 190 0
168 191 0
170 191 0
168 191 0
173 195 0
174 196 0
173 195 0
170 193 0
173 196 0
169 190 0
174 196 0
174 197 0
176 197 0
174 197 0
175 197 0
170 195 0
170 192 0
175 197 0
173 196 0
170 192 0
171 193 0
169 191 0
169 191 0
174 198 0
173 196 0
173 196 0
169 192 0
173 196 0
175 197 0
172 195 0
175 198 0
173 195 0
173 195 0
174 196 0
175 198 0
173 197 0
173 197 0
170 194 0
171 194 0
174 197 0
170 194 0
174 196 0
174 197 0
171 195 0
171 193 0
172 195 0
175 198 0
170 193 0
174 197 0
173 196 0
174 197 0
174 197 0
171 196 0
173 196 0
176 198 0
174 198 0
176 199 0
175 197 0
170 194 0
173 196 0
175 198 0
175 198 0
174 198 0
173 197 0
173 196 0
175 198 0
171 195 0
173 197 0
171 194 0
173 197 0
175 198 0
170 194 0
174 197 0
173 197 0
174 198 0
171 195 0
173 197 0
175 198 0
174 197 0
174 198 0
173 197 0
172 197 0
174 198 0
175 198 0
176 199 0
171 194 0
174 198 0
173 197 0
171 195 0
175 198 0
170 194 0
174 197 0
175 198 0
171 195 0
173 196 0
173 196 0
169 192 0
167 191 0
174 197 0
175 198 0
174 198 0
169 193 0
170 194 0
174 197 0
173 196 0
174 197 0
169 193 0
170 195 0
171 196 0
170 194 0
172 196 0
170 193 0
173 197 0
175 198 0
168 191 0
173 196 0
166 190 0
172 195 0
172 196 0
168 192 0
168 191 0
172 197 0
164 188 0
174 197 0
165 189 0
168 192 0
166 190 0
173 195 0
170 194 0
173 196 0
171 195 0
173 196 0
175 198 0
182 204 95
185 206 108
176 199 51
180 202 88
179 202 88
189 209 130
220 233 248
221 235 253
219 234 253
191 211 153
178 199 80
174 196 72
178 200 80
177 198 51
173 196 72
177 200 80
173 197 62
175 198 72
170 194 51
172 195 62
171 194 80
171 193 62
176 199 88
163 186 51
175 199 62
167 191 62
174 198 72
173 197 88
168 193 88
170 194 51
166 191 62
173 197 95
169 193 72
168 190 0
172 197 88
170 195 72
167 192 80
165 189 72
169 193 62
163 187 51
168 192 88
166 190 62
166 191 72
169 192 72
172 195 72
174 197 72
167 191 72
166 190 95
156 181 72
165 187 80
170 193 125
160 183 80
169 193 80
169 191 95
168 192 102
161 184 102
165 189 95
160 183 108
164 186 95
158 181 80
158 182 72
165 187 95
159 181 95
157 180 80
151 174 62
156 179 102
162 185 88
147 171 80
150 173 80
149 171 51
147 167 51
146 167 51
143 165 62
156 178 102
140 160 80
140 161 80
128 149 84
88 113 117
101 125 131
85 112 122
91 118 129
96 122 130
89 116 120
113 137 122
104 129 159
106 130 148
107 130 137
92 120 125
92 119 130
106 131 135
77 107 125
113 135 145
75 105 153
69 103 163
81 110 153
73 103 147
63 94 130
69 98 117
59 93 137
63 95 117
68 100 120
67 99 122
81 108 88
58 92 125
59 94 117
58 91 120
56 89 99
57 91 121
59 94 122
59 93 111
60 94 133
57 91 120
55 87 105
59 93 114
56 89 111
58 93 125
58 91 113
58 92 122
56 88 108
56 90 111
58 91 117
59 93 130
57 91 115
57 91 108
58 92 120
58 92 111
58 91 114
58 92 117
59 93 122
57 91 108
54 87 92
59 93 125
57 90 108
58 92 105
53 85 95
57 90 120
55 88 105
55 87 88
56 88 105
54 85 102
93 110 57
120 135 0
100 115 0
112 127 0
117 131 0
116 129 0
123 136 0
123 138 0
120 136 0
119 134 0
117 134 0
128 145 0
125 140 0
133 151 0
126 142 0
141 159 0
121 139 0
131 148 0
128 146 0
136 150 0
125 141 0
145 161 0
130 146 0
138 153 0
148 166 0
141 158 0
137 153 0
149 165 0
136 150 0
140 156 0
145 161 0
140 158 0
149 165 0
138 154 0
146 162 0
146 161 0
145 162 0
143 161 0
158 177 0
152 168 0
146 164 0
146 167 0
152 168 0
152 170 0
151 168 0
141 156 0
150 168 0
149 166 0
158 177 0
158 177 0
156 174 0
157 174 0
153 172 0
164 182 0
157 176 0
148 165 0
152 170 0
161 178 0
162 182 0
156 173 0
160 176 0
154 173 0
163 183 0
160 178 0
153 171 0
158 178 0
158 177 0
162 181 0
158 178 0
162 180 0
160 180 0
164 183 0
170 190 0
160 179 0
159 180 0
168 188 0
160 181 0
160 181 0
167 186 0
162 184 0
163 182 0
167 187 0
171 192 0
164 185 0
166 184 0
169 190 0
168 189 0
168 189 0
170 190 0
169 189 0
159 178 0
170 191 0
166 188 0
170 192 0
162 184 0
169 190 0
165 186 0
170 192 0
167 188 0
166 189 0
170 193 0
173 194 0
169 191 0
171 192 0
169 191 0
174 194 0
170 191 0
171 194 0
164 187 0
171 193 0
170 193 0
164 183 0
167 188 0
168 189 0
172 193 0
174 196 0
175 198 0
171 193 0
168 191 0
171 194 0
173 197 0
167 188 0
172 195 0
163 185 0
170 193 0
171 193 0
168 191 0
174 195 0
171 193 0
173 195 0
169 190 0
173 197 0
167 190 0
170 193 0
175 197 0
171 194 0
173 196 0
172 193 0
170 194 0
173 197 0
168 190 0
173 194 0
174 198 0
174 194 0
168 191 0
173 197 0
171 194 0
173 196 0
171 194 0
173 195 0
172 196 0
174 196 0
172 195 0
173 196 0
170 194 0
173 196 0
173 196 0
172 193 0
174 197 0
171 194 0
170 192 0
173 197 0
175 197 0
174 198 0
172 194 0
172 196 0
172 195 0
170 192 0
172 195 0
173 196 0
174 196 0
171 194 0
172 196 0
173 196 0
173 196 0
175 198 0
170 195 0
174 197 0
175 196 0
176 199 0
173 195 0
173 196 0
171 196 0
173 196 0
173 196 0
176 198 0
172 196 0
172 196 0
174 198 0
173 196 0
172 196 0
174 198 0
173 197 0
172 196 0
171 195 0
176 199 0
173 197 0
174 197 0
174 197 0
175 198 0
176 198 0
171 195 0
170 193 0
174 197 0
174 197 0
174 198 0
172 196 0
172 196 0
175 198 0
173 197 0
174 198 0
173 197 0
168 192 0
172 196 0
173 197 0
176 199 0
170 193 0
174 198 0
171 195 0
174 197 0
174 197 0
175 198 0
170 194 0
175 198 0
173 197 0
174 196 0
171 195 0
171 195 0
170 194 0
172 196 0
171 194 0
172 196 0
171 195 0
168 192 0
173 195 0
174 198 0
174 197 0
171 194 0
175 198 0
168 191 0
168 192 0
172 196 0
175 198 0
172 195 0
170 193 0
172 195 0
174 198 0
169 193 0
167 191 0
169 193 0
174 197 0
175 198 0
172 196 0
171 194 0
172 195 0
174 196 0
170 194 0
177 198 0
174 197 0
171 196 0
174 197 51
176 199 80
181 203 80
177 200 62
177 200 72
200 217 177
223 236 253
219 234 248
212 228 231
178 201 95
176 199 72
175 198 80
180 202 88
177 201 80
176 199 72
177 200 88
169 192 62
170 193 72
173 198 36
173 196 51
173 197 80
173 196 80
175 198 88
169 193 95
168 193 72
171 194 62
176 200 88
169 193 88
167 191 36
172 195 72
171 194 80
171 195 72
169 193 80
166 190 51
171 197 80
170 195 108
168 193 88
170 194 62
163 187 80
168 191 51
166 190 72
167 192 108
170 193 80
164 189 72
172 196 88
169 192 51
161 183 88
174 197 72
164 187 72
168 190 62
161 185 88
169 192 95
164 188 95
172 195 114
165 190 80
168 193 114
158 179 88
163 185 102
170 193 102
170 193 88
161 184 88
158 181 88
168 190 88
164 186 108
161 184 80
165 189 80
164 186 88
145 168 72
162 185 80
164 185 108
151 171 108
149 169 72
149 171 72
142 164 62
152 173 72
141 162 80
132 150 72
132 153 80
95 119 122
89 115 108
84 110 126
97 121 125
88 114 129
95 120 107
104 129 142
98 122 139
113 135 134
105 130 142
86 114 126
101 126 126
93 118 122
80 105 120
93 113 137
67 99 130
78 108 144
74 105 128
64 97 128
66 98 133
65 93 117
61 96 135
70 102 108
73 103 113
67 97 102
58 91 111
57 91 111
59 93 108
59 92 114
55 88 80
56 89 120
58 91 108
57 89 108
56 90 107
56 89 102
58 91 114
58 92 117
59 92 120
59 93 130
59 93 114
57 90 122
57 91 120
58 91 114
58 92 114
58 92 108
58 92 111
59 93 120
59 93 117
58 91 120
55 87 102
58 92 114
55 88 111
55 87 92
54 85 99
59 92 122
61 95 135
57 90 92
54 86 108
56 88 117
55 87 105
73 100 88
110 125 0
99 116 0
112 127 0
117 131 0
110 125 0
121 137 0
112 127 0
100 116 0
113 129 0
106 117 0
120 135 0
110 126 0
112 129 0
134 150 0
112 126 0
119 138 0
119 134 0
115 132 0
134 152 0
135 155 0
144 164 0
150 165 0
141 157 0
142 158 0
147 164 0
141 158 0
148 168 0
130 145 0
138 156 0
146 161 0
149 168 0
150 168 0
147 161 0
156 175 0
149 169 0
138 157 0
141 159 0
146 163 0
146 167 0
142 159 0
142 163 0
144 162 0
134 151 0
149 169 0
144 163 0
150 168 0
153 167 0
142 159 0
154 170 0
156 171 0
153 171 0
159 175 0
152 168 0
156 174 0
147 166 0
154 173 0
144 161 0
161 175 0
162 183 0
153 168 0
159 179 0
156 173 0
149 169 0
165 184 0
158 181 0
154 171 0
164 184 0
159 178 0
164 185 0
162 181 0
160 181 0
162 182 0
158 173 0
163 180 0
161 182 0
155 174 0
165 185 0
164 184 0
165 185 0
168 190 0
157 178 0
155 175 0
165 185 0
170 190 0
164 183 0
165 185 0
167 187 0
169 188 0
167 188 0
170 191 0
169 189 0
170 192 0
166 188 0
166 186 0
161 181 0
170 190 0
170 190 0
171 192 0
166 186 0
172 193 0
160 178 0
168 190 0
163 184 0
167 186 0
171 192 0
165 184 0
172 194 0
165 185 0
167 189 0
166 188 0
172 194 0
166 187 0
170 192 0
173 195 0
172 192 0
169 191 0
168 192 0
165 185 0
174 194 0
172 193 0
167 190 0
170 190 0
170 194 0
174 196 0
170 192 0
172 194 0
172 195 0
168 190 0
170 193 0
171 193 0
172 195 0
172 194 0
173 197 0
167 189 0
169 192 0
172 195 0
169 192 0
172 195 0
173 195 0
170 192 0
174 198 0
172 195 0
172 196 0
172 196 0
176 198 0
171 195 0
171 194 0
174 196 0
172 195 0
170 194 0
174 196 0
173 196 0
168 191 0
172 194 0
173 195 0
174 197 0
174 198 0
174 196 0
173 196 0
165 187 0
173 196 0
171 193 0
173 196 0
176 197 0
174 197 0
171 193 0
173 196 0
172 196 0
173 196 0
165 188 0
174 196 0
172 195 0
171 195 0
171 194 0
176 199 0
174 197 0
173 197 0
173 197 0
171 195 0
174 197 0
172 197 0
174 198 0
173 197 0
174 197 0
174 197 0
174 197 0
177 198 0
171 195 0
172 196 0
170 194 0
170 194 0
173 196 0
172 196 0
176 198 0
176 199 0
176 199 0
172 195 0
171 194 0
173 197 0
172 197 0
174 198 0
177 199 0
171 195 0
174 197 0
172 196 0
170 195 0
172 196 0
168 193 0
170 194 0
174 198 0
174 197 0
171 194 0
173 195 0
172 195 0
173 196 0
175 198 0
174 196 0
174 197 0
171 195 0
172 196 0
172 196 0
172 196 0
174 197 0
171 195 0
173 197 0
172 196 0
172 196 0
168 193 0
172 196 0
173 196 0
174 197 0
169 193 0
171 195 0
173 196 0
172 196 0
171 195 0
171 195 0
172 195 0
170 193 0
171 195 0
171 194 0
171 195 0
173 197 0
173 196 0
171 196 0
174 197 0
170 194 0
172 196 0
174 197 0
170 195 0
171 193 0
174 197 0
169 191 0
173 197 0
173 196 0
169 193 0
173 197 0
170 194 0
171 196 0
172 196 0
171 195 0
180 201 62
176 198 62
179 201 72
179 201 62
178 201 62
201 219 188
220 234 248
220 234 253
199 217 184
172 196 51
172 195 0
170 193 62
177 199 62
173 197 72
170 194 51
177 200 88
170 193 36
172 196 72
168 191 72
171 195 51
172 196 51
173 195 36
170 195 51
174 198 72
167 191 80
173 197 72
172 196 88
173 196 72
173 197 80
169 194 62
171 195 72
170 194 72
171 195 80
171 193 51
161 185 88
173 197 72
166 190 62
167 190 36
164 188 88
164 188 72
173 196 88
167 190 88
170 194 88
164 188 62
172 194 88
167 191 72
179 200 114
170 195 125
176 199 95
175 198 130
171 194 108
167 191 88
161 186 95
170 193 95
167 191 88
163 187 102
165 188 88
168 192 114
146 169 36
163 187 95
156 180 95
164 186 102
159 182 114
161 182 125
157 179 102
162 184 95
165 187 72
154 173 88
167 188 102
148 170 95
163 186 102
156 177 88
144 166 80
149 170 88
152 173 62
138 158 80
146 167 72
148 168 80
103 124 72
92 117 99
86 113 105
102 125 128
84 109 105
78 104 88
101 125 111
82 110 114
94 120 111
86 113 130
107 132 157
113 136 140
97 122 114
102 123 132
118 123 76
87 110 152
75 106 135
58 93 120
77 108 135
75 103 99
84 106 118
63 95 130
65 98 125
63 95 108
87 114 99
81 110 102
59 93 114
57 90 111
57 90 102
58 92 105
57 90 102
57 90 99
56 89 111
55 88 99
57 91 102
59 93 130
57 91 108
60 94 122
57 91 105
57 90 114
55 88 88
58 92 120
60 94 125
57 90 102
58 92 105
57 90 111
57 91 121
57 90 108
52 84 88
55 86 105
55 87 99
59 93 114
59 92 125
57 91 108
57 90 102
55 87 72
53 85 88
51 82 84
58 86 76
78 97 57
104 117 0
104 121 0
114 130 0
102 116 0
117 132 0
110 128 0
116 134 0
126 143 0
119 137 0
114 130 0
120 134 0
127 144 0
128 146 0
116 129 0
133 150 0
135 151 0
119 138 0
127 144 0
119 138 0
134 152 0
129 147 0
135 152 0
135 154 0
142 160 0
127 143 0
141 162 0
138 156 0
144 163 0
133 151 0
140 159 0
141 160 0
147 164 0
155 173 0
146 162 0
149 169 0
156 176 0
141 158 0
146 162 0
140 159 0
141 158 0
144 160 0
151 169 0
141 151 0
151 167 0
153 172 0
146 164 0
144 158 0
152 170 0
163 182 0
152 169 0
148 163 0
153 167 0
153 173 0
148 167 0
153 170 0
153 173 0
156 172 0
152 170 0
156 169 0
150 168 0
153 169 0
159 179 0
153 173 0
158 177 0
163 179 0
148 165 0
156 174 0
155 169 0
164 183 0
161 182 0
160 180 0
164 184 0
157 173 0
159 177 0
165 185 0
161 181 0
162 184 0
165 183 0
160 177 0
161 182 0
164 183 0
165 187 0
160 180 0
175 196 0
174 195 0
166 183 0
168 188 0
167 187 0
159 179 0
169 188 0
167 187 0
167 187 0
163 183 0
167 189 0
167 188 0
164 185 0
162 181 0
164 186 0
169 192 0
166 187 0
167 189 0
169 193 0
169 192 0
169 190 0
170 192 0
167 188 0
170 191 0
168 188 0
169 191 0
170 192 0
167 190 0
169 193 0
173 195 0
167 188 0
169 190 0
168 191 0
171 194 0
171 194 0
167 187 0
170 191 0
170 191 0
171 192 0
173 193 0
175 198 0
173 195 0
171 193 0
174 195 0
172 194 0
171 194 0
170 193 0
172 195 0
169 192 0
175 196 0
173 197 0
172 194 0
173 196 0
169 192 0
169 191 0
175 197 0
175 197 0
173 196 0
168 190 0
171 194 0
174 196 0
173 195 0
172 195 0
171 195 0
169 191 0
174 197 0
174 196 0
173 194 0
173 196 0
172 195 0
170 192 0
175 197 0
173 195 0
171 196 0
174 197 0
171 193 0
169 192 0
173 194 0
173 197 0
169 193 0
171 194 0
170 193 0
172 195 0
171 195 0
173 195 0
174 196 0
171 195 0
175 197 0
176 199 0
174 197 0
172 196 0
173 197 0
172 195 0
173 196 0
173 196 0
171 194 0
173 195 0
176 197 0
173 197 0
175 197 0
174 196 0
174 197 0
173 196 0
170 195 0
171 193 0
175 198 0
170 194 0
175 198 0
174 197 0
175 198 0
174 198 0
171 195 0
173 197 0
172 195 0
174 197 0
175 198 0
173 197 0
176 199 0
170 194 0
175 198 0
174 197 0
173 197 0
173 196 0
174 198 0
171 194 0
175 198 0
175 197 0
169 192 0
172 196 0
175 198 0
174 197 0
172 195 0
175 197 0
173 197 0
170 194 0
174 196 0
173 197 0
176 198 0
172 196 0
172 195 0
169 193 0
173 195 0
172 196 0
173 196 0
175 198 0
171 195 0
170 195 0
174 197 0
171 194 0
173 197 0
172 196 0
173 197 0
168 191 0
171 194 0
172 196 0
174 198 0
167 191 0
165 189 0
171 194 0
171 195 0
170 192 0
167 191 0
171 195 0
173 197 0
169 192 0
174 198 0
170 195 0
170 194 0
171 194 0
174 197 0
168 192 0
169 193 0
174 197 0
173 196 0
170 194 0
170 193 0
169 193 0
167 192 0
174 198 0
179 201 88
174 198 72
178 201 80
179 201 62
179 201 72
215 230 228
221 235 250
218 233 245
179 201 95
178 200 80
170 193 36
176 198 88
177 200 88
175 198 95
179 201 80
174 196 62
177 200 95
175 199 80
171 194 72
171 195 0
171 195 51
165 189 88
167 190 62
171 195 62
171 196 72
172 195 51
170 195 36
164 188 51
173 197 80
169 194 72
175 198 72
175 198 95
167 191 62
170 195 80
171 194 62
172 197 88
168 191 36
166 190 95
168 192 72
168 193 88
175 198 72
166 189 51
171 195 114
173 198 120
175 200 125
173 198 102
163 186 72
160 184 80
172 194 80
166 189 72
162 186 72
165 188 102
170 194 95
163 187 88
163 187 88
166 190 88
162 183 80
165 189 120
162 184 62
170 192 102
159 181 95
168 191 95
168 190 95
164 185 108
161 183 120
157 179 62
149 170 88
151 173 62
157 178 108
153 175 88
162 182 120
144 165 88
138 159 72
146 168 62
144 164 108
145 164 36
154 174 108
127 146 51
134 154 72
111 129 67
76 102 95
93 118 128
86 112 105
108 131 122
83 110 114
101 125 133
102 126 130
96 121 128
114 138 135
99 123 125
87 112 99
111 134 133
108 117 78
133 135 101
63 96 122
73 105 137
73 103 122
77 107 117
77 106 117
64 95 114
59 93 125
66 97 117
82 108 95
87 113 84
57 91 105
56 89 111
54 86 92
57 91 105
57 90 108
56 89 102
58 92 108
56 90 111
57 90 99
58 92 114
55 87 108
54 87 88
55 88 92
57 90 117
58 91 125
57 90 117
58 92 120
57 91 105
55 87 88
56 89 95
54 85 99
57 91 95
58 91 114
58 91 108
55 88 105
56 88 105
55 88 105
55 87 105
55 87 95
54 86 95
56 88 99
75 99 72
93 108 0
99 113 0
102 120 0
116 132 0
112 127 0
108 125 0
95 106 0
106 124 0
113 129 0
117 132 0
122 139 0
133 151 0
125 142 0
109 122 0
128 145 0
125 143 0
131 148 0
133 152 0
121 139 0
130 145 0
142 159 0
138 156 0
133 148 0
135 152 0
142 158 0
136 155 0
132 150 0
130 146 0
138 155 0
136 155 0
142 157 0
139 157 0
148 166 0
158 177 0
145 162 0
147 164 0
147 165 0
146 166 0
135 153 0
148 164 0
142 161 0
146 161 0
156 175 0
157 177 0
154 173 0
150 172 0
162 182 0
155 173 0
155 172 0
161 180 0
156 173 0
158 176 0
158 177 0
156 177 0
153 171 0
162 179 0
159 178 0
161 181 0
151 171 0
159 175 0
154 173 0
161 179 0
160 181 0
153 171 0
160 179 0
159 175 0
157 174 0
160 182 0
163 184 0
158 175 0
165 183 0
151 168 0
162 182 0
168 188 0
157 177 0
165 184 0
160 179 0
162 181 0
160 180 0
166 186 0
163 186 0
165 187 0
167 189 0
165 183 0
166 186 0
164 185 0
164 186 0
167 190 0
157 177 0
165 186 0
166 186 0
164 184 0
165 184 0
169 191 0
160 179 0
170 192 0
168 189 0
172 192 0
170 192 0
167 189 0
164 186 0
168 191 0
163 184 0
165 186 0
164 185 0
168 192 0
166 189 0
172 192 0
168 187 0
170 191 0
165 185 0
169 190 0
173 195 0
170 192 0
168 189 0
169 192 0
164 186 0
171 194 0
173 196 0
170 193 0
174 196 0
173 195 0
169 191 0
169 192 0
169 192 0
172 195 0
164 184 0
172 196 0
167 188 0
172 197 0
171 193 0
172 195 0
171 195 0
173 196 0
170 192 0
171 193 0
172 196 0
170 194 0
168 192 0
173 196 0
168 190 0
168 191 0
172 195 0
175 197 0
173 197 0
173 196 0
171 194 0
175 196 0
171 194 0
172 195 0
171 194 0
174 197 0
170 193 0
176 198 0
169 191 0
171 195 0
172 195 0
171 194 0
171 194 0
175 197 0
173 196 0
170 194 0
172 196 0
170 191 0
172 194 0
172 195 0
170 193 0
171 195 0
175 198 0
172 196 0
175 197 0
174 198 0
176 199 0
174 196 0
174 196 0
171 195 0
171 195 0
174 196 0
175 198 0
174 195 0
171 195 0
173 195 0
172 194 0
174 196 0
173 196 0
172 196 0
173 196 0
173 196 0
170 194 0
174 197 0
174 196 0
175 198 0
171 195 0
173 195 0
171 195 0
175 198 0
174 198 0
174 197 0
173 195 0
174 198 0
173 196 0
171 195 0
175 198 0
174 197 0
174 198 0
172 195 0
173 196 0
174 198 0
173 197 0
173 196 0
174 198 0
174 198 0
175 198 0
173 197 0
175 198 0
173 197 0
169 193 0
173 196 0
176 199 0
175 198 0
169 194 0
171 195 0
169 193 0
172 196 0
170 193 0
175 198 0
172 196 0
171 195 0
171 195 0
172 195 0
172 196 0
173 197 0
174 197 0
169 193 0
173 197 0
172 195 0
168 191 0
170 194 0
171 196 0
173 196 0
173 196 0
173 196 0
172 197 0
173 197 0
169 193 0
174 197 0
175 198 0
171 195 0
172 196 0
171 195 0
176 199 0
169 192 0
171 195 0
170 194 0
171 195 0
172 196 0
168 192 0
168 192 0
174 197 0
169 193 0
170 194 0
173 197 0
168 192 0
176 198 51
179 201 72
176 199 62
178 201 72
179 202 88
177 199 36
211 227 220
222 236 253
204 221 198
175 199 80
176 199 80
174 197 51
176 199 88
175 199 72
174 197 36
171 194 62
176 199 88
172 195 114
178 200 88
168 190 62
178 201 102
171 195 62
166 189 36
173 196 88
167 191 62
167 191 51
174 197 88
172 196 51
170 192 51
172 196 88
170 195 95
170 194 72
166 191 80
170 195 88
175 199 108
162 186 72
173 196 95
169 191 88
169 193 72
173 196 88
173 197 120
172 196 80
173 196 72
172 195 102
165 187 72
166 190 80
173 197 102
163 186 80
167 189 102
173 197 114
156 179 62
173 195 80
166 189 80
167 190 72
167 190 125
159 184 80
170 195 102
160 183 102
161 183 72
164 187 95
161 185 108
165 188 80
162 185 95
158 181 36
164 186 80
154 176 88
155 177 80
166 187 125
150 172 80
150 171 95
157 177 95
143 165 88
148 168 102
149 169 102
140 160 95
149 170 72
147 168 88
146 165 102
131 148 80
123 143 62
130 148 88
96 113 76
80 105 92
101 125 135
87 113 92
88 115 122
104 128 135
105 130 108
92 118 130
86 113 128
91 117 117
65 96 99
105 128 108
88 110 109
143 149 80
110 123 76
68 101 117
83 113 122
76 107 122
75 104 125
75 103 122
68 97 99
55 87 88
64 94 99
91 115 88
57 90 88
56 89 99
55 87 102
57 90 99
54 86 84
57 90 108
56 89 95
56 89 111
58 92 105
54 86 88
55 88 99
56 89 114
58 92 117
56 89 102
55 88 92
54 86 95
56 89 114
58 91 111
56 89 95
57 90 114
54 86 88
58 91 105
56 89 102
58 92 111
56 89 102
51 82 72
56 89 92
53 84 99
53 85 92
76 101 84
88 102 25
103 119 0
88 103 0
100 116 0
101 117 0
102 120 0
117 134 0
131 145 0
92 108 0
102 118 0
108 126 0
107 121 0
122 139 0
133 150 0
128 146 0
128 145 0
137 155 0
124 140 0
117 131 0
135 152 0
127 146 0
125 144 0
143 162 0
134 151 0
153 173 0
140 158 0
133 150 0
134 151 0
145 164 0
133 153 0
145 164 0
138 159 0
145 162 0
145 164 0
141 160 0
145 162 0
145 163 0
151 169 0
140 156 0
153 171 0
154 172 0
140 159 0
141 156 0
149 170 0
148 163 0
149 164 0
152 170 0
144 161 0
146 165 0
148 167 0
152 170 0
152 171 0
162 180 0
150 170 0
161 183 0
160 179 0
164 182 0
163 182 0
150 169 0
161 181 0
157 175 0
154 174 0
160 180 0
157 175 0
151 170 0
147 165 0
165 185 0
163 181 0
155 173 0
155 171 0
152 172 0
162 184 0
152 171 0
157 176 0
160 181 0
159 178 0
154 173 0
164 185 0
158 177 0
158 175 0
170 190 0
167 188 0
164 186 0
165 187 0
163 184 0
163 184 0
160 179 0
160 180 0
162 183 0
162 181 0
167 187 0
157 177 0
164 185 0
166 185 0
167 186 0
159 180 0
169 186 0
165 186 0
165 186 0
163 183 0
172 192 0
171 192 0
169 190 0
170 192 0
173 196 0
168 189 0
170 192 0
171 192 0
167 189 0
169 191 0
168 189 0
170 191 0
167 189 0
166 188 0
166 188 0
169 192 0
172 192 0
170 193 0
164 185 0
168 190 0
175 197 0
166 187 0
166 188 0
170 194 0
168 191 0
173 195 0
171 191 0
172 195 0
173 193 0
167 189 0
170 192 0
172 194 0
170 191 0
170 193 0
167 190 0
165 189 0
170 194 0
173 196 0
168 191 0
168 191 0
170 193 0
169 193 0
172 195 0
173 196 0
169 190 0
170 193 0
168 190 0
174 197 0
173 196 0
172 197 0
169 192 0
168 190 0
170 194 0
176 197 0
171 193 0
169 193 0
172 196 0
172 194 0
167 192 0
175 197 0
169 191 0
174 195 0
177 199 0
173 196 0
168 190 0
173 194 0
172 195 0
171 194 0
171 194 0
173 196 0
170 191 0
173 196 0
172 194 0
176 199 0
173 197 0
174 198 0
174 198 0
174 197 0
173 196 0
169 194 0
173 196 0
173 197 0
169 192 0
173 196 0
173 197 0
174 197 0
176 199 0
172 195 0
176 198 0
174 197 0
174 198 0
173 197 0
171 195 0
173 197 0
172 196 0
175 198 0
173 197 0
171 195 0
173 197 0
174 198 0
172 196 0
173 197 0
173 197 0
171 195 0
173 196 0
174 198 0
175 198 0
172 196 0
174 198 0
174 197 0
173 195 0
174 198 0
173 196 0
173 196 0
174 198 0
173 197 0
174 197 0
174 198 0
175 198 0
168 192 0
173 197 0
166 191 0
175 198 0
176 198 0
172 195 0
173 196 0
175 198 0
170 195 0
173 197 0
173 197 0
168 192 0
172 195 0
175 198 0
172 196 0
171 195 0
173 197 0
173 197 0
170 193 0
174 197 0
174 196 0
170 194 0
168 192 0
174 198 0
170 195 0
170 193 0
169 192 0
173 197 0
170 194 0
171 194 0
169 194 0
168 192 0
173 197 0
176 199 0
172 195 0
172 196 0
170 193 0
171 194 0
167 191 0
169 193 0
170 194 0
172 196 0
171 194 0
169 192 0
173 197 0
169 194 0
177 200 51
185 206 125
181 202 80
176 199 51
176 200 62
177 200 62
221 234 245
221 235 250
191 211 144
171 195 51
178 200 95
176 199 72
173 196 51
173 197 72
170 193 62
173 196 72
175 198 95
174 196 80
173 197 62
174 197 88
167 191 80
168 191 51
171 194 95
171 195 95
177 201 102
173 197 108
173 197 51
171 194 95
171 195 72
167 191 62
174 198 88
169 193 51
167 191 72
166 191 36
175 199 102
170 193 102
172 195 120
168 193 88
176 199 102
177 201 130
167 190 72
173 195 108
158 182 88
175 198 108
169 194 95
172 196 102
162 184 95
171 194 95
165 189 102
151 174 51
175 198 108
163 185 88
178 201 102
163 185 80
176 198 114
168 192 102
161 184 102
156 180 102
167 189 108
170 191 114
163 186 135
163 186 76
157 180 108
157 179 76
150 173 80
152 173 88
155 178 102
159 181 88
151 174 88
163 184 95
157 179 108
157 178 95
148 169 102
165 184 88
150 168 114
150 169 102
144 163 114
157 177 95
147 166 88
132 150 72
131 150 62
123 142 51
103 121 76
79 105 95
85 111 105
78 105 94
85 111 120
122 143 137
92 117 111
94 118 133
110 131 114
100 126 90
97 121 111
91 117 128
149 165 62
141 148 0
93 115 95
77 107 111
79 106 105
69 99 99
77 105 111
75 98 88
61 93 88
60 90 84
88 113 76
56 88 92
55 88 95
55 88 102
51 81 70
55 87 80
56 89 95
55 87 99
53 85 102
56 88 105
56 89 111
57 89 111
55 88 95
57 90 111
55 88 80
54 86 90
56 89 108
55 87 102
57 89 105
56 89 95
56 89 102
55 87 88
55 87 102
51 82 84
56 89 117
54 85 108
52 83 88
62 88 88
95 114 76
102 118 25
108 123 0
102 117 0
122 137 0
121 135 0
108 125 0
120 138 0
109 124 0
123 141 0
103 121 0
120 137 0
107 121 0
123 142 0
124 143 0
124 140 0
126 145 0
112 128 0
124 143 0
121 138 0
125 143 0
131 148 0
131 150 0
124 140 0
131 146 0
142 160 0
128 142 0
123 140 0
133 150 0
142 163 0
131 149 0
140 157 0
139 158 0
132 153 0
142 161 0
145 163 0
148 169 0
145 162 0
143 160 0
145 164 0
146 163 0
152 173 0
147 164 0
137 157 0
148 167 0
136 150 0
147 165 0
147 166 0
158 177 0
154 174 0
164 185 0
150 172 0
160 180 0
164 185 0
148 164 0
155 176 0
161 180 0
156 174 0
163 183 0
160 179 0
155 174 0
154 172 0
159 180 0
158 176 0
163 183 0
164 186 0
162 180 0
158 179 0
163 184 0
163 183 0
162 183 0
159 177 0
159 179 0
156 174 0
162 181 0
164 182 0
159 177 0
163 183 0
157 177 0
164 185 0
160 180 0
166 185 0
167 187 0
161 183 0
168 189 0
156 175 0
167 185 0
166 186 0
165 186 0
167 189 0
162 185 0
163 184 0
162 183 0
164 183 0
168 187 0
163 180 0
171 190 0
166 187 0
169 192 0
166 187 0
167 189 0
160 182 0
167 187 0
161 182 0
169 189 0
170 190 0
167 190 0
171 193 0
164 186 0
168 191 0
170 192 0
173 196 0
168 191 0
167 186 0
172 194 0
172 195 0
165 187 0
170 192 0
169 192 0
173 196 0
171 193 0
169 191 0
173 193 0
170 192 0
170 192 0
170 190 0
168 192 0
173 196 0
167 190 0
170 193 0
171 193 0
171 194 0
173 196 0
172 193 0
173 196 0
173 195 0
169 191 0
174 197 0
167 191 0
170 193 0
170 193 0
169 191 0
169 193 0
174 197 0
172 195 0
171 194 0
169 193 0
174 197 0
174 195 0
170 191 0
173 195 0
172 194 0
171 194 0
171 194 0
174 198 0
170 191 0
170 193 0
172 195 0
172 195 0
174 196 0
172 195 0
175 198 0
171 194 0
169 191 0
169 193 0
176 198 0
171 193 0
169 193 0
172 195 0
171 193 0
173 195 0
171 195 0
174 197 0
172 195 0
172 194 0
173 197 0
173 196 0
172 196 0
172 195 0
173 197 0
173 196 0
169 192 0
172 196 0
173 197 0
174 198 0
174 196 0
171 194 0
175 197 0
176 198 0
172 197 0
171 195 0
173 196 0
173 195 0
173 196 0
171 195 0
171 193 0
173 196 0
169 194 0
173 197 0
171 195 0
177 199 0
173 195 0
172 196 0
174 198 0
173 196 0
173 196 0
174 197 0
173 196 0
171 194 0
175 198 0
173 197 0
175 198 0
171 195 0
173 197 0
175 198 0
173 197 0
166 191 0
172 197 0
173 197 0
173 197 0
175 197 0
175 198 0
173 196 0
172 196 0
174 197 0
175 198 0
175 197 0
171 194 0
175 198 0
172 196 0
168 193 0
172 197 0
168 191 0
172 195 0
169 193 0
171 195 0
172 196 0
174 197 0
172 196 0
175 198 0
174 197 0
171 195 0
173 195 0
173 197 0
171 194 0
170 195 0
176 198 0
171 196 0
173 196 0
169 194 0
172 196 0
170 194 0
169 193 0
170 194 0
169 192 0
169 194 0
171 195 0
171 194 0
170 194 0
165 189 0
171 194 0
171 195 0
167 190 0
169 192 0
169 194 0
170 193 0
173 196 0
175 198 0
172 196 0
180 202 62
181 202 95
178 201 72
181 203 95
172 197 51
224 237 253
219 233 242
181 203 88
173 196 51
176 200 80
174 198 62
170 194 36
174 198 62
171 193 72
176 199 102
173 198 72
175 199 51
166 190 36
172 195 62
171 194 80
176 200 88
171 195 95
167 191 72
169 192 72
174 198 95
166 190 36
167 192 62
170 194 102
168 193 62
176 200 88
170 194 51
172 196 62
165 188 80
170 192 88
175 198 102
167 192 88
179 202 102
174 197 108
172 196 88
175 198 120
163 187 72
176 199 95
173 197 80
172 195 114
170 192 80
167 190 108
171 195 102
171 193 88
171 194 80
167 190 120
172 196 108
160 183 88
167 188 95
156 179 80
164 186 102
171 195 135
163 186 105
154 177 62
153 177 80
153 175 62
166 189 88
165 189 88
154 176 111
163 185 95
159 181 88
166 187 135
152 175 114
157 179 80
162 184 95
159 180 114
156 177 140
154 175 95
151 171 95
154 174 72
167 186 114
156 174 125
136 154 80
148 167 95
132 151 72
146 165 80
134 150 95
130 148 88
129 147 80
87 111 88
84 107 92
84 110 97
103 126 122
82 109 108
107 131 142
83 110 95
97 122 117
84 111 99
118 141 105
142 158 72
154 164 0
123 135 57
77 104 95
61 93 102
70 98 122
68 95 107
68 92 88
68 98 105
58 87 88
114 135 57
58 87 84
55 88 80
52 83 102
56 88 99
57 90 105
56 89 92
50 81 88
53 86 92
54 85 95
54 86 108
56 89 84
52 83 80
56 89 114
56 89 88
56 89 95
56 89 108
54 85 99
53 85 102
53 85 102
51 82 76
55 88 72
53 84 102
55 87 102
52 83 84
66 88 62
93 111 36
114 129 0
81 97 0
101 116 0
100 115 0
89 106 0
96 114 0
118 134 0
101 118 0
100 117 0
120 136 0
111 127 0
105 122 0
98 115 0
116 132 0
118 134 0
138 156 0
117 135 0
113 132 0
119 136 0
116 133 0
132 149 0
133 151 0
136 154 0
132 148 0
136 154 0
124 143 0
145 164 0
121 139 0
138 154 0
148 169 0
140 162 0
141 162 0
146 165 0
125 146 0
143 158 0
138 157 0
153 173 0
140 156 0
139 157 0
143 163 0
147 168 0
142 160 0
146 163 0
133 154 0
141 159 0
155 174 0
154 174 0
149 167 0
151 169 0
147 166 0
156 173 0
155 173 0
140 156 0
161 181 0
157 176 0
149 170 0
160 178 0
155 174 0
158 179 0
159 177 0
163 182 0
158 177 0
164 183 0
155 176 0
164 183 0
159 178 0
161 178 0
160 180 0
156 174 0
158 179 0
156 175 0
160 181 0
160 180 0
164 185 0
158 177 0
164 183 0
155 174 0
163 184 0
164 186 0
159 178 0
163 182 0
162 183 0
158 180 0
163 184 0
165 185 0
167 187 0
159 181 0
166 187 0
155 175 0
169 192 0
166 188 0
165 185 0
158 178 0
168 187 0
169 189 0
169 190 0
165 187 0
171 190 0
161 184 0
166 188 0
163 182 0
166 189 0
165 188 0
168 191 0
166 188 0
166 186 0
169 191 0
164 184 0
165 187 0
168 190 0
165 188 0
161 184 0
169 192 0
173 194 0
169 190 0
169 191 0
171 193 0
166 187 0
173 195 0
171 193 0
169 192 0
172 194 0
169 191 0
163 185 0
169 190 0
167 190 0
163 184 0
170 193 0
169 189 0
169 191 0
163 185 0
170 194 0
170 194 0
171 193 0
173 197 0
172 195 0
171 192 0
171 195 0
169 193 0
169 193 0
169 191 0
174 197 0
174 197 0
171 195 0
168 189 0
173 196 0
169 191 0
173 195 0
170 192 0
169 191 0
170 196 0
172 192 0
175 198 0
170 193 0
168 191 0
170 193 0
173 196 0
170 193 0
174 198 0
173 196 0
170 194 0
174 197 0
172 197 0
173 196 0
170 193 0
171 195 0
175 197 0
172 195 0
175 198 0
172 194 0
171 193 0
174 197 0
170 194 0
174 198 0
171 194 0
177 199 0
174 197 0
174 197 0
175 197 0
175 197 0
172 195 0
172 196 0
174 198 0
173 195 0
171 195 0
174 196 0
171 194 0
172 196 0
176 199 0
173 196 0
175 198 0
175 198 0
174 197 0
175 197 0
173 197 0
173 196 0
169 193 0
170 194 0
176 199 0
173 197 0
174 197 0
175 198 0
175 198 0
173 197 0
173 196 0
175 198 0
171 195 0
171 195 0
172 196 0
174 198 0
174 197 0
175 198 0
175 198 0
174 197 0
175 198 0
169 193 0
173 197 0
171 195 0
175 198 0
173 197 0
174 197 0
173 197 0
174 197 0
174 197 0
172 197 0
175 198 0
177 199 0
170 194 0
172 196 0
174 197 0
172 195 0
172 195 0
172 196 0
171 195 0
173 195 0
175 198 0
174 196 0
172 196 0
168 192 0
172 196 0
172 197 0
167 191 0
172 196 0
173 197 0
173 197 0
174 197 0
174 197 0
173 196 0
172 195 0
172 195 0
172 196 0
164 188 0
173 196 0
172 195 0
171 194 0
171 195 0
175 198 0
176 198 0
174 197 0
169 194 0
168 192 0
171 194 0
173 197 0
171 195 0
172 195 0
170 194 0
170 194 0
172 196 0
171 195 0
176 199 36
177 200 62
181 203 88
178 200 62
178 201 72
178 201 72
223 236 250
214 229 226
174 197 72
178 201 72
176 199 62
174 198 62
171 194 51
176 198 102
172 195 80
165 189 62
170 193 62
173 197 72
167 190 80
171 194 51
175 199 102
174 197 88
176 200 80
170 193 80
177 200 80
167 191 51
171 194 72
172 195 51
171 195 62
173 197 72
174 197 88
178 201 108
172 195 108
174 197 80
174 197 108
160 185 36
173 195 108
177 200 95
165 189 102
176 199 125
167 191 80
164 187 72
170 194 95
174 197 102
170 193 95
165 189 102
171 193 80
174 197 102
165 190 108
173 197 95
166 190 95
168 191 108
160 183 80
155 178 95
169 192 108
174 196 102
163 185 99
168 192 130
166 188 125
161 185 80
163 186 114
149 172 80
158 181 76
158 181 80
161 185 88
162 185 95
163 186 88
141 162 62
154 175 102
147 169 80
151 173 108
160 183 114
147 167 120
147 168 102
155 175 108
136 155 102
150 170 95
143 164 72
145 165 95
131 151 88
141 160 80
137 154 72
126 144 88
122 139 62
107 122 62
97 118 95
110 131 122
96 119 103
111 132 111
96 120 108
98 123 122
90 115 105
91 118 92
117 139 114
141 158 88
145 155 25
148 159 0
116 133 44
84 110 95
67 99 114
73 102 102
86 110 76
73 100 76
87 112 95
107 127 67
83 107 67
52 83 76
54 85 95
53 85 88
55 87 80
52 84 62
50 82 51
55 86 84
52 82 92
53 85 76
53 84 88
52 83 72
53 85 92
50 81 67
56 88 95
54 85 92
55 87 92
54 86 95
55 88 108
53 85 76
53 84 92
67 88 67
81 96 0
82 96 0
87 103 0
93 105 0
87 103 0
95 114 0
87 102 0
118 135 0
123 139 0
112 126 0
108 125 0
121 137 0
105 123 0
110 127 0
113 129 0
118 135 0
104 122 0
136 152 0
119 137 0
125 144 0
132 151 0
117 135 0
120 138 0
129 149 0
130 149 0
142 160 0
135 154 0
122 143 0
144 164 0
144 163 0
137 155 0
129 148 0
144 164 0
139 158 0
138 156 0
144 161 0
145 162 0
134 155 0
128 145 0
144 162 0
136 157 0
144 164 0
144 161 0
140 158 0
148 170 0
141 158 0
150 167 0
153 171 0
150 169 0
156 174 0
156 174 0
156 178 0
151 171 0
163 181 0
150 170 0
152 167 0
148 169 0
151 171 0
160 181 0
160 181 0
154 173 0
152 172 0
156 178 0
156 177 0
154 174 0
157 177 0
153 173 0
158 179 0
153 171 0
160 179 0
160 181 0
152 169 0
157 176 0
169 189 0
151 170 0
159 179 0
163 183 0
158 178 0
162 183 0
158 179 0
161 180 0
158 176 0
163 181 0
163 185 0
159 180 0
169 191 0
166 187 0
156 172 0
165 184 0
162 183 0
170 192 0
168 189 0
162 185 0
164 184 0
163 186 0
165 187 0
162 184 0
158 178 0
165 185 0
162 182 0
168 190 0
163 184 0
169 191 0
167 188 0
166 186 0
169 189 0
167 190 0
165 187 0
167 189 0
166 186 0
163 186 0
169 190 0
164 183 0
164 186 0
162 183 0
170 192 0
169 190 0
164 185 0
170 191 0
172 194 0
170 192 0
171 192 0
171 195 0
172 194 0
167 186 0
166 189 0
173 195 0
168 190 0
170 190 0
165 187 0
169 192 0
168 189 0
173 195 0
171 193 0
170 193 0
169 192 0
171 192 0
171 194 0
172 195 0
168 192 0
171 194 0
169 191 0
167 189 0
172 194 0
171 194 0
173 197 0
175 197 0
170 193 0
167 190 0
171 194 0
172 196 0
167 190 0
169 192 0
173 197 0
169 192 0
174 197 0
166 189 0
172 196 0
171 193 0
170 193 0
175 198 0
173 196 0
171 195 0
171 195 0
171 194 0
171 194 0
173 196 0
170 195 0
169 192 0
172 194 0
174 196 0
171 194 0
173 197 0
167 189 0
170 194 0
175 198 0
170 195 0
176 199 0
171 194 0
169 192 0
173 197 0
173 197 0
172 195 0
172 196 0
171 194 0
168 191 0
174 197 0
175 198 0
172 195 0
171 194 0
173 197 0
173 196 0
172 196 0
174 198 0
173 197 0
176 199 0
172 196 0
172 195 0
171 194 0
171 194 0
173 197 0
173 196 0
174 197 0
173 197 0
170 195 0
173 196 0
171 195 0
171 195 0
171 194 0
175 197 0
175 198 0
171 195 0
171 195 0
173 196 0
173 197 0
172 195 0
174 198 0
174 197 0
172 197 0
172 197 0
175 198 0
173 197 0
170 194 0
175 198 0
174 197 0
173 196 0
171 195 0
174 198 0
174 198 0
171 194 0
174 198 0
174 198 0
173 196 0
171 195 0
176 199 0
173 195 0
172 196 0
170 194 0
173 195 0
172 196 0
172 195 0
173 196 0
174 197 0
167 191 0
172 196 0
170 194 0
171 195 0
172 195 0
174 197 0
174 197 0
166 191 0
168 192 0
173 197 0
171 193 0
175 198 0
170 194 0
175 198 0
173 197 0
173 197 0
172 196 0
172 194 0
171 195 0
173 196 0
173 197 0
173 196 0
171 193 0
168 192 0
172 195 0
169 193 0
171 195 0
177 199 0
170 193 0
172 196 0
177 200 51
180 202 80
175 199 36
176 199 51
177 200 51
174 198 36
223 236 250
194 213 169
181 202 102
179 201 88
178 200 88
172 195 36
170 192 51
173 197 80
175 197 36
175 198 72
177 200 72
173 196 88
172 195 62
170 194 62
166 190 72
173 196 51
165 188 51
165 188 72
172 195 88
168 192 51
174 198 80
166 191 95
169 194 0
176 200 102
169 193 72
173 197 102
175 200 95
173 196 114
173 197 108
176 199 108
166 190 95
171 193 114
170 194 88
167 190 102
173 197 80
168 192 88
167 189 80
171 195 102
169 193 95
175 199 125
161 186 88
182 205 140
169 192 140
163 187 95
161 185 95
172 195 95
171 194 102
169 193 95
156 179 102
163 186 80
164 188 95
163 186 105
160 183 108
165 189 88
169 193 108
159 181 111
155 178 57
161 184 133
159 183 114
162 184 62
149 171 51
151 174 62
149 170 95
161 181 125
141 162 88
150 171 102
152 172 120
145 167 80
150 169 102
151 171 88
138 158 72
136 156 88
147 167 80
130 149 80
153 171 95
126 145 80
121 138 80
99 114 80
127 145 36
104 118 67
103 123 76
84 107 92
104 125 105
110 132 105
102 125 110
61 93 95
104 130 105
95 121 92
114 135 62
151 165 25
141 158 0
140 156 0
112 130 62
84 111 111
76 102 99
73 99 88
72 97 51
83 103 51
97 118 67
107 126 25
81 95 0
89 105 0
81 98 36
74 94 51
81 101 57
60 86 76
63 87 51
49 79 44
49 79 80
57 85 72
63 90 76
66 91 76
73 98 67
48 77 76
49 73 62
72 91 67
69 87 44
65 83 44
59 72 0
75 90 0
86 101 0
97 112 0
103 119 0
106 121 0
93 107 0
93 110 0
100 115 0
109 125 0
113 131 0
109 127 0
114 131 0
105 120 0
123 139 0
110 126 0
116 131 0
111 130 0
109 128 0
124 142 0
124 141 0
129 146 0
122 140 0
118 136 0
124 142 0
123 145 0
121 139 0
129 146 0
138 157 0
130 146 0
129 149 0
134 154 0
136 156 0
128 146 0
127 144 0
142 160 0
126 144 0
144 162 0
124 142 0
146 166 0
144 164 0
143 164 0
139 156 0
129 148 0
147 168 0
140 160 0
138 156 0
141 158 0
153 173 0
154 174 0
150 169 0
155 175 0
149 169 0
156 175 0
149 168 0
157 177 0
161 180 0
145 165 0
144 164 0
155 176 0
154 173 0
159 181 0
144 161 0
153 173 0
165 186 0
156 177 0
163 181 0
164 185 0
149 167 0
163 185 0
154 173 0
161 180 0
159 176 0
162 179 0
163 183 0
161 180 0
157 178 0
152 171 0
162 184 0
163 185 0
169 187 0
157 176 0
165 186 0
171 193 0
150 168 0
170 192 0
160 177 0
163 185 0
164 183 0
159 178 0
163 184 0
160 181 0
152 170 0
162 181 0
165 185 0
169 191 0
161 181 0
167 189 0
162 183 0
168 189 0
165 186 0
167 188 0
165 187 0
170 191 0
164 184 0
165 186 0
170 192 0
169 192 0
167 186 0
162 184 0
166 189 0
170 192 0
168 190 0
169 190 0
171 193 0
168 188 0
165 186 0
165 186 0
170 190 0
167 186 0
165 186 0
171 192 0
173 195 0
168 189 0
169 191 0
166 187 0
172 193 0
173 194 0
169 192 0
163 184 0
174 195 0
169 189 0
172 194 0
170 193 0
169 192 0
172 195 0
168 191 0
166 188 0
171 192 0
172 193 0
170 192 0
166 191 0
171 193 0
163 186 0
175 198 0
169 192 0
170 193 0
162 186 0
174 195 0
174 197 0
171 193 0
171 195 0
169 190 0
173 196 0
174 197 0
170 193 0
169 189 0
166 189 0
174 194 0
175 198 0
175 198 0
171 194 0
175 197 0
170 192 0
174 197 0
169 192 0
171 193 0
173 196 0
172 194 0
173 197 0
171 194 0
169 193 0
174 196 0
174 197 0
172 197 0
175 197 0
173 197 0
168 191 0
173 196 0
174 198 0
173 196 0
170 193 0
173 197 0
173 197 0
173 196 0
170 194 0
170 194 0
170 193 0
170 193 0
172 195 0
173 196 0
173 196 0
174 198 0
171 196 0
172 196 0
175 197 0
173 197 0
173 195 0
170 194 0
171 195 0
173 196 0
170 193 0
174 197 0
174 198 0
174 198 0
174 197 0
172 196 0
175 198 0
174 198 0
175 198 0
170 195 0
175 198 0
175 198 0
173 197 0
175 198 0
174 197 0
172 195 0
172 196 0
173 196 0
173 197 0
176 199 0
172 197 0
173 197 0
173 195 0
173 197 0
173 196 0
175 198 0
173 197 0
175 198 0
174 198 0
174 198 0
175 198 0
172 196 0
175 198 0
172 196 0
174 197 0
175 198 0
173 197 0
175 198 0
169 194 0
175 198 0
171 195 0
174 197 0
168 190 0
172 197 0
173 196 0
171 195 0
175 197 0
175 198 0
174 198 0
173 197 0
174 197 0
173 196 0
173 196 0
167 191 0
172 197 0
172 196 0
175 198 0
173 196 0
176 199 0
169 194 0
171 195 0
170 194 0
168 192 0
168 192 0
174 198 0
170 193 0
172 196 0
172 196 0
172 195 0
174 198 0
167 192 0
173 196 0
173 197 0
173 197 0
173 197 0
170 194 0
180 202 80
179 202 80
181 203 88
179 201 72
175 198 0
225 238 255
189 209 130
176 198 72
174 198 62
173 196 36
173 196 62
171 194 36
169 193 51
178 200 62
171 195 51
168 191 51
171 195 80
176 199 80
172 196 72
174 197 62
170 194 36
171 194 72
172 196 72
168 192 62
168 192 62
170 194 72
166 190 0
170 194 72
172 197 88
172 196 95
175 198 80
171 193 80
173 196 80
173 197 80
172 196 108
175 198 125
170 193 72
170 193 95
175 198 125
166 189 80
172 196 80
171 195 120
162 186 108
173 196 95
167 190 72
173 197 114
167 191 102
166 190 88
160 184 88
164 187 95
168 191 95
167 190 108
161 184 80
162 186 80
164 188 76
161 185 95
160 183 105
162 185 80
163 187 95
165 187 88
168 190 95
164 187 80
169 192 95
145 170 57
155 178 62
159 180 80
162 186 88
158 180 108
157 179 95
160 182 102
162 184 120
145 164 95
152 171 114
155 177 95
158 179 102
137 157 62
126 147 51
133 153 102
141 160 95
120 137 72
152 171 102
130 147 72
127 144 72
127 144 72
112 130 51
106 120 72
117 133 95
108 129 120
78 105 102
86 110 80
101 125 84
100 124 80
109 131 108
119 140 62
150 164 25
146 162 0
136 151 0
137 156 0
116 135 57
70 99 99
73 99 84
87 106 67
92 108 36
101 120 72
101 117 25
121 137 0
100 115 0
94 108 0
89 104 0
70 85 0
96 110 0
88 101 0
81 93 0
101 115 0
78 92 0
83 98 0
89 103 0
100 114 0
90 105 0
83 97 0
76 91 0
102 118 0
84 98 0
111 126 0
92 105 0
79 93 0
104 120 0
113 129 0
110 125 0
93 110 0
90 107 0
124 139 0
123 139 0
112 128 0
117 134 0
121 140 0
87 104 0
84 101 0
119 137 0
114 131 0
114 128 0
103 122 0
129 147 0
119 136 0
120 138 0
115 133 0
134 154 0
143 162 0
120 138 0
118 136 0
134 154 0
133 150 0
135 154 0
139 158 0
136 156 0
130 150 0
138 156 0
131 145 0
137 156 0
145 164 0
144 163 0
138 158 0
145 164 0
147 165 0
139 157 0
125 144 0
133 149 0
150 170 0
141 161 0
141 160 0
147 165 0
148 169 0
149 169 0
145 165 0
146 165 0
148 167 0
161 178 0
151 171 0
142 159 0
155 176 0
149 171 0
154 178 0
146 165 0
159 181 0
158 182 0
152 172 0
153 174 0
149 170 0
157 178 0
153 173 0
162 182 0
147 165 0
163 184 0
150 171 0
162 183 0
155 177 0
157 176 0
156 175 0
162 177 0
161 182 0
160 180 0
162 182 0
162 185 0
164 184 0
159 178 0
156 175 0
157 178 0
166 190 0
165 187 0
169 187 0
164 183 0
162 184 0
161 182 0
161 181 0
163 183 0
161 182 0
159 179 0
165 184 0
157 177 0
162 180 0
169 191 0
163 184 0
167 187 0
160 181 0
162 182 0
166 188 0
160 182 0
167 187 0
165 187 0
165 185 0
167 189 0
170 192 0
171 192 0
163 184 0
167 191 0
166 190 0
165 186 0
171 193 0
170 191 0
168 190 0
172 192 0
169 191 0
168 190 0
165 189 0
170 193 0
165 187 0
170 192 0
168 191 0
171 193 0
168 189 0
173 195 0
170 194 0
166 188 0
169 192 0
170 193 0
174 196 0
166 189 0
169 192 0
169 189 0
173 195 0
171 194 0
169 191 0
172 193 0
171 192 0
171 195 0
172 194 0
171 193 0
168 191 0
170 193 0
175 197 0
174 196 0
174 198 0
172 195 0
171 193 0
171 193 0
166 188 0
173 194 0
167 188 0
170 193 0
173 196 0
173 196 0
169 192 0
170 193 0
169 193 0
170 192 0
171 195 0
170 192 0
174 197 0
172 196 0
173 196 0
174 197 0
172 195 0
171 195 0
173 196 0
175 198 0
175 196 0
174 197 0
173 196 0
171 194 0
172 195 0
170 196 0
174 196 0
175 198 0
173 197 0
172 197 0
173 197 0
175 198 0
175 197 0
170 193 0
173 196 0
174 197 0
174 198 0
173 197 0
175 198 0
170 194 0
174 198 0
176 198 0
173 195 0
173 195 0
173 195 0
169 192 0
173 197 0
175 198 0
173 197 0
171 195 0
173 196 0
174 197 0
173 196 0
173 197 0
171 194 0
176 199 0
172 196 0
171 194 0
172 196 0
174 198 0
175 198 0
174 198 0
173 197 0
174 198 0
172 195 0
174 198 0
173 197 0
174 198 0
174 198 0
173 197 0
171 194 0
174 198 0
171 195 0
171 194 0
170 194 0
171 195 0
171 195 0
175 198 0
169 194 0
171 195 0
172 196 0
172 196 0
173 197 0
171 195 0
171 195 0
168 192 0
171 194 0
171 195 0
173 196 0
173 197 0
170 194 0
177 199 0
174 197 0
172 196 0
173 197 0
174 198 0
170 195 0
176 198 0
173 196 0
173 196 0
167 192 0
172 195 0
171 194 0
169 192 0
172 196 0
171 194 0
172 195 0
166 190 0
164 188 0
167 191 0
174 198 0
171 195 0
175 198 0
172 197 0
173 196 0
168 192 0
173 195 0
171 193 0
173 196 0
171 194 0
175 198 0
173 196 0
174 197 0
173 197 0
174 197 62
178 201 62
181 202 72
179 201 72
178 201 62
176 199 62
221 235 248
181 204 108
174 197 51
169 192 72
172 196 51
172 195 72
172 194 36
178 201 80
171 194 62
171 195 88
171 195 88
175 197 80
171 195 62
180 203 108
174 196 80
168 191 72
175 199 102
173 197 62
173 198 80
174 198 80
174 196 62
173 197 88
169 193 36
172 196 95
178 201 114
165 188 62
177 200 125
174 198 80
164 187 102
172 194 88
171 195 88
169 192 88
172 196 102
177 200 95
176 199 140
178 202 130
167 192 95
173 197 108
163 187 62
173 196 95
174 197 114
168 190 102
163 186 95
174 198 102
163 186 72
167 190 88
160 183 72
155 179 80
162 186 120
169 192 88
169 192 88
164 188 80
165 188 114
165 188 95
161 183 88
161 184 108
159 182 95
160 182 95
164 186 102
156 179 120
163 185 72
163 184 80
153 174 95
161 182 95
158 180 102
147 168 95
154 175 88
157 178 120
165 185 95
145 166 72
142 162 88
154 174 102
145 164 95
153 172 108
152 169 120
146 164 108
140 158 80
134 150 108
144 161 95
123 137 88
138 155 80
114 130 51
113 128 72
94 114 62
77 101 84
88 112 76
80 103 80
93 117 117
104 124 44
159 175 25
163 181 0
129 143 25
135 150 0
131 148 0
116 133 0
87 106 51
76 98 62
97 112 0
119 138 0
123 140 25
117 134 0
116 130 0
96 112 0
93 108 0
74 90 0
106 121 0
85 100 0
75 90 0
98 113 0
87 102 0
91 105 0
107 122 0
95 110 0
88 105 0
97 113 0
94 109 0
98 114 0
98 115 0
103 120 0
109 126 0
88 104 0
97 112 0
112 127 0
103 118 0
115 134 0
91 106 0
109 126 0
111 129 0
108 127 0
117 135 0
107 124 0
124 142 0
129 148 0
108 125 0
107 124 0
124 143 0
131 151 0
130 149 0
140 160 0
124 140 0
134 151 0
137 157 0
126 146 0
131 151 0
128 145 0
137 158 0
133 153 0
133 151 0
135 152 0
140 155 0
133 152 0
148 168 0
148 168 0
148 166 0
153 174 0
139 159 0
144 164 0
137 157 0
136 157 0
141 161 0
135 156 0
141 161 0
147 167 0
141 160 0
146 165 0
139 157 0
144 165 0
147 166 0
147 167 0
141 161 0
144 165 0
142 160 0
155 174 0
147 166 0
158 179 0
165 186 0
160 179 0
160 181 0
144 164 0
162 182 0
145 166 0
159 182 0
157 178 0
144 164 0
150 170 0
156 177 0
152 173 0
157 177 0
154 177 0
162 183 0
154 174 0
162 184 0
157 176 0
159 177 0
167 188 0
164 184 0
160 183 0
162 185 0
164 184 0
156 177 0
169 190 0
165 185 0
167 188 0
161 183 0
165 186 0
165 186 0
167 187 0
162 183 0
161 179 0
167 187 0
164 186 0
166 187 0
164 184 0
166 188 0
159 179 0
165 187 0
164 185 0
170 190 0
168 187 0
161 183 0
155 176 0
164 185 0
168 189 0
169 191 0
163 182 0
163 185 0
172 195 0
164 185 0
167 189 0
170 190 0
167 190 0
167 187 0
162 184 0
167 189 0
166 188 0
174 193 0
172 193 0
167 190 0
167 189 0
165 186 0
169 191 0
166 188 0
171 194 0
168 191 0
172 194 0
165 188 0
169 192 0
170 190 0
170 193 0
174 195 0
172 196 0
164 187 0
167 190 0
171 193 0
172 193 0
167 189 0
173 196 0
171 194 0
168 191 0
175 198 0
174 197 0
173 196 0
166 188 0
173 195 0
171 194 0
168 192 0
168 191 0
168 191 0
171 195 0
167 188 0
172 194 0
171 194 0
172 195 0
175 198 0
172 195 0
170 194 0
172 195 0
173 196 0
174 197 0
172 195 0
172 193 0
173 196 0
174 198 0
173 196 0
173 196 0
174 196 0
172 196 0
173 196 0
170 194 0
174 196 0
171 195 0
174 197 0
175 197 0
175 196 0
171 195 0
170 193 0
173 197 0
173 196 0
174 196 0
174 196 0
172 195 0
173 197 0
172 194 0
172 196 0
174 198 0
173 197 0
175 197 0
173 195 0
173 197 0
172 195 0
171 195 0
176 198 0
172 196 0
173 197 0
176 199 0
172 195 0
174 195 0
172 196 0
174 197 0
174 197 0
168 193 0
173 197 0
177 199 0
174 197 0
174 198 0
174 197 0
173 197 0
173 197 0
173 197 0
175 198 0
173 196 0
171 196 0
172 196 0
171 194 0
173 197 0
171 194 0
173 197 0
172 196 0
173 195 0
173 197 0
172 197 0
177 199 0
173 196 0
173 196 0
168 192 0
174 197 0
174 197 0
174 198 0
174 198 0
176 199 0
171 195 0
171 195 0
173 196 0
173 196 0
172 196 0
172 196 0
174 197 0
172 196 0
172 196 0
173 196 0
172 196 0
174 198 0
170 195 0
167 191 0
171 195 0
171 195 0
169 193 0
173 196 0
173 196 0
174 196 0
171 195 0
173 197 0
173 197 0
175 198 0
170 194 0
171 194 0
171 194 0
170 195 0
171 195 0
178 200 0
174 197 0
165 189 0
170 194 0
167 190 0
172 195 0
169 192 0
170 194 0
173 197 0
167 189 0
171 194 0
168 192 0
175 198 0
169 193 0
174 198 0
172 195 36
179 201 51
178 201 80
175 198 36
179 201 72
179 201 72
207 223 204
168 191 0
173 195 62
173 196 51
175 198 51
168 191 51
175 197 72
175 198 62
171 195 62
177 200 95
171 194 72
177 201 108
174 198 88
172 193 80
176 199 108
167 191 62
173 197 62
168 190 72
166 190 72
173 197 51
170 193 62
173 197 80
174 198 72
174 197 108
176 199 102
177 200 114
173 195 72
167 190 95
177 200 108
169 193 88
174 198 95
169 192 102
168 192 95
176 199 125
168 192 51
168 191 95
169 193 108
169 191 80
170 194 108
167 191 108
173 196 114
174 197 95
164 189 88
169 192 88
167 191 72
169 193 108
165 187 95
161 184 88
155 178 72
168 191 80
168 192 102
159 181 88
167 190 99
165 187 88
168 192 102
160 183 102
163 185 88
151 174 88
163 186 117
152 174 102
164 186 102
163 185 95
150 171 102
157 179 72
155 177 95
166 188 72
154 176 72
152 172 51
153 174 80
140 160 51
152 172 72
142 163 102
160 179 95
155 174 88
147 166 102
152 171 102
132 150 88
117 135 36
118 136 36
122 138 36
118 135 72
134 149 102
113 127 62
116 132 62
90 104 51
99 119 57
108 126 84
95 114 51
121 140 36
154 173 0
148 169 0
137 157 0
134 153 0
124 141 0
107 123 0
114 130 0
124 139 0
102 120 0
106 123 0
108 124 0
99 116 0
95 111 0
81 96 0
118 134 0
104 120 0
90 106 0
102 117 0
101 118 0
86 103 0
103 120 0
109 125 0
103 119 0
78 95 0
92 109 0
108 124 0
100 115 0
95 111 0
100 116 0
97 114 0
91 108 0
91 106 0
103 119 0
129 146 0
104 122 0
117 136 0
107 125 0
109 124 0
113 131 0
116 134 0
116 134 0
109 129 0
118 134 0
120 137 0
118 136 0
113 133 0
124 142 0
123 143 0
119 136 0
124 141 0
129 147 0
120 137 0
125 145 0
136 155 0
133 153 0
125 144 0
128 147 0
129 147 0
143 164 0
136 154 0
136 154 0
135 155 0
138 156 0
143 164 0
143 161 0
137 157 0
150 170 0
150 172 0
147 167 0
143 162 0
158 178 0
142 162 0
155 177 0
152 174 0
150 168 0
154 174 0
135 156 0
148 170 0
155 174 0
143 165 0
149 169 0
153 173 0
148 170 0
152 171 0
155 174 0
155 177 0
156 177 0
154 173 0
150 171 0
153 174 0
158 179 0
159 178 0
158 180 0
157 178 0
162 184 0
163 183 0
155 175 0
170 193 0
162 185 0
164 185 0
163 183 0
164 184 0
160 183 0
164 183 0
163 184 0
163 184 0
156 178 0
167 189 0
162 182 0
162 183 0
161 182 0
163 183 0
153 173 0
150 171 0
159 179 0
164 184 0
164 185 0
161 183 0
163 184 0
168 190 0
162 183 0
166 187 0
164 187 0
160 180 0
160 180 0
161 184 0
158 178 0
166 188 0
172 193 0
170 190 0
167 188 0
164 186 0
169 190 0
170 192 0
169 191 0
171 190 0
171 194 0
169 192 0
170 193 0
170 191 0
167 189 0
166 189 0
165 188 0
167 189 0
170 194 0
170 193 0
173 196 0
171 195 0
168 189 0
166 188 0
163 186 0
163 186 0
170 192 0
166 187 0
168 192 0
168 190 0
171 194 0
171 194 0
172 194 0
165 188 0
170 193 0
171 193 0
168 191 0
169 191 0
171 194 0
168 191 0
169 191 0
172 194 0
169 189 0
171 193 0
167 187 0
169 190 0
172 195 0
170 194 0
167 189 0
171 194 0
168 191 0
171 193 0
173 194 0
170 195 0
171 194 0
174 197 0
172 192 0
173 196 0
171 192 0
175 197 0
173 197 0
170 193 0
173 195 0
173 196 0
171 194 0
174 196 0
172 195 0
173 196 0
169 192 0
174 195 0
174 198 0
174 197 0
172 195 0
171 194 0
168 192 0
171 195 0
173 196 0
172 195 0
174 198 0
172 194 0
174 197 0
169 194 0
172 196 0
174 197 0
174 197 0
174 197 0
174 197 0
170 195 0
174 197 0
173 197 0
170 193 0
171 194 0
174 195 0
175 197 0
173 196 0
171 193 0
174 198 0
173 197 0
172 194 0
172 195 0
174 198 0
173 197 0
173 196 0
174 197 0
171 194 0
173 196 0
171 195 0
174 197 0
175 198 0
171 194 0
170 193 0
171 195 0
173 197 0
173 196 0
174 198 0
172 196 0
174 198 0
171 194 0
172 197 0
175 198 0
169 194 0
174 197 0
173 196 0
173 197 0
174 197 0
173 196 0
173 196 0
173 196 0
173 196 0
175 198 0
174 198 0
172 196 0
172 195 0
172 196 0
168 192 0
174 197 0
173 196 0
175 198 0
173 196 0
172 196 0
172 196 0
171 195 0
168 192 0
171 194 0
170 194 0
173 197 0
169 194 0
172 195 0
173 197 0
174 198 0
174 197 0
173 197 0
171 195 0
170 194 0
176 198 0
169 193 0
167 191 0
173 197 0
172 195 0
173 196 0
168 192 0
175 198 0
171 195 0
173 196 0
169 191 0
171 196 0
168 191 0
173 196 0
174 197 0
173 196 0
173 197 0
174 196 0
171 194 0
169 192 0
171 194 0
172 197 0
170 194 0
173 197 0
173 196 0
176 199 51
172 195 36
176 199 62
179 201 88
177 200 72
177 200 51
189 209 135
170 194 62
179 201 72
176 197 88
176 198 72
172 195 62
176 198 72
178 200 88
172 196 51
174 198 72
176 198 80
169 193 36
171 194 72
172 196 62
176 200 80
173 197 80
170 194 51
174 197 72
178 201 102
171 194 62
175 197 72
174 198 102
169 191 80
168 192 88
168 191 88
173 196 102
174 198 102
175 199 108
173 197 102
173 196 88
178 200 108
171 194 95
162 186 51
168 191 88
169 192 114
170 194 95
165 188 95
165 189 108
167 190 95
166 191 80
169 193 95
162 186 95
162 186 72
163 187 62
159 181 72
168 191 108
164 187 102
167 190 102
166 190 125
158 182 72
160 182 80
157 181 62
163 187 72
151 175 72
158 179 80
149 171 80
161 183 108
156 178 88
156 178 80
165 188 114
162 184 95
158 181 88
136 158 62
156 178 95
168 190 125
161 182 102
158 179 95
156 177 80
151 174 72
149 170 102
143 163 72
139 158 88
148 168 102
145 166 80
127 145 72
134 154 80
146 165 88
128 147 80
133 149 88
121 137 62
133 147 102
130 148 62
128 146 62
104 121 51
120 135 51
117 134 62
105 121 36
119 137 36
143 164 0
152 170 0
156 176 0
150 169 0
148 165 0
110 129 0
114 133 0
112 128 0
111 127 0
121 137 0
117 133 0
105 123 0
112 128 0
94 111 0
112 129 0
116 134 0
105 121 0
100 117 0
87 105 0
93 108 0
115 131 0
105 121 0
75 89 0
108 124 0
106 121 0
80 97 0
87 104 0
88 103 0
91 106 0
118 135 0
100 117 0
114 132 0
110 128 0
94 111 0
111 129 0
112 128 0
124 142 0
107 123 0
86 105 0
114 133 0
114 133 0
117 136 0
110 129 0
122 141 0
103 123 0
108 127 0
126 144 0
124 144 0
129 147 0
136 155 0
136 155 0
134 153 0
127 148 0
138 160 0
127 146 0
137 156 0
135 154 0
140 162 0
133 151 0
138 160 0
139 159 0
146 165 0
145 166 0
147 167 0
154 172 0
147 166 0
140 159 0
147 169 0
146 166 0
149 169 0
136 155 0
146 167 0
148 168 0
138 157 0
153 174 0
145 165 0
150 170 0
151 172 0
158 180 0
153 171 0
156 178 0
155 174 0
146 167 0
148 166 0
150 172 0
163 185 0
146 165 0
153 175 0
152 171 0
161 182 0
161 180 0
155 174 0
164 185 0
150 169 0
159 181 0
150 168 0
160 182 0
158 179 0
152 171 0
162 184 0
156 176 0
159 180 0
166 188 0
156 177 0
163 183 0
167 185 0
158 180 0
162 185 0
164 184 0
163 184 0
158 180 0
165 183 0
155 174 0
165 187 0
164 187 0
158 179 0
153 172 0
164 185 0
155 175 0
165 186 0
158 180 0
165 185 0
168 190 0
169 189 0
163 186 0
165 187 0
164 185 0
160 182 0
165 187 0
164 185 0
166 187 0
162 183 0
163 183 0
164 186 0
170 192 0
165 187 0
166 187 0
169 190 0
167 189 0
169 192 0
166 188 0
165 188 0
168 189 0
166 189 0
170 194 0
169 192 0
166 189 0
165 185 0
166 189 0
160 182 0
170 191 0
165 189 0
166 189 0
165 186 0
166 188 0
171 193 0
170 192 0
165 188 0
172 195 0
169 192 0
166 189 0
168 191 0
167 190 0
167 189 0
167 187 0
174 196 0
170 192 0
173 196 0
174 197 0
172 194 0
172 195 0
170 192 0
171 193 0
172 194 0
172 196 0
167 189 0
175 198 0
172 194 0
174 197 0
172 195 0
174 196 0
175 197 0
169 192 0
174 196 0
171 195 0
170 192 0
170 192 0
172 195 0
172 194 0
171 194 0
167 191 0
172 195 0
171 196 0
172 197 0
171 195 0
170 193 0
172 196 0
173 197 0
171 195 0
174 196 0
173 196 0
174 196 0
172 195 0
175 198 0
166 189 0
172 196 0
171 194 0
171 196 0
173 196 0
172 195 0
170 194 0
173 197 0
170 194 0
174 196 0
173 197 0
173 197 0
171 194 0
171 194 0
173 195 0
172 196 0
171 195 0
172 196 0
173 196 0
173 196 0
177 199 0
175 197 0
173 197 0
175 197 0
174 198 0
174 197 0
170 194 0
174 198 0
174 197 0
174 198 0
174 197 0
175 198 0
174 197 0
173 196 0
174 197 0
173 197 0
177 199 0
176 198 0
169 194 0
174 198 0
170 193 0
171 195 0
174 198 0
176 198 0
167 191 0
170 195 0
173 197 0
172 196 0
172 196 0
174 196 0
170 193 0
174 198 0
172 196 0
172 196 0
174 197 0
173 197 0
173 196 0
178 200 0
174 197 0
175 198 0
173 197 0
172 196 0
170 194 0
173 196 0
173 196 0
171 194 0
174 197 0
172 195 0
172 195 0
173 196 0
174 197 0
175 198 0
174 197 0
169 193 0
172 195 0
173 197 0
173 197 0
171 194 0
173 197 0
168 191 0
175 198 0
173 196 0
168 192 0
172 195 0
167 190 0
169 194 0
175 198 0
172 196 0
173 197 0
172 196 0
169 194 0
171 194 0
172 197 0
171 196 0
172 195 0
169 194 0
172 196 0
169 193 0
171 195 0
174 198 0
175 198 0
174 198 0
173 197 0
179 201 72
177 200 51
174 197 36
177 199 36
180 202 80
178 199 102
180 202 95
178 200 62
173 195 62
174 197 62
175 198 36
174 196 80
175 198 36
174 198 62
165 188 62
173 196 88
163 186 62
178 200 95
172 195 62
176 198 88
171 195 62
172 195 72
172 195 51
174 196 80
175 198 62
170 194 80
170 194 62
174 197 80
172 194 80
171 194 80
170 192 102
177 201 102
170 194 72
173 196 62
174 198 95
174 196 88
170 193 88
168 192 108
170 193 120
173 197 120
170 194 108
174 198 108
170 194 102
169 193 102
166 191 95
169 193 102
163 188 95
159 182 72
161 185 72
165 190 88
174 199 114
162 186 72
170 194 130
164 187 102
163 188 114
167 189 114
163 186 88
164 187 108
163 186 80
164 187 108
163 186 88
165 186 80
167 191 102
162 185 80
170 193 120
159 182 95
148 170 72
159 181 120
152 173 95
156 178 95
161 183 102
156 177 108
141 163 72
156 177 80
148 169 95
166 187 108
150 170 88
133 152 88
146 165 102
138 158 72
148 167 108
145 163 108
133 151 51
126 144 51
137 154 72
140 157 102
114 133 62
132 149 80
108 125 36
119 137 51
107 122 62
125 141 0
137 155 51
120 140 0
148 166 0
142 162 0
152 174 0
140 161 0
124 143 0
109 126 0
108 125 0
109 126 0
111 126 0
120 138 0
113 131 0
79 97 0
98 115 0
105 123 0
91 108 0
95 112 0
121 138 0
110 127 0
114 132 0
106 122 0
99 117 0
108 123 0
114 131 0
102 119 0
114 130 0
113 129 0
103 120 0
105 124 0
98 118 0
106 124 0
106 124 0
99 116 0
106 124 0
110 128 0
112 129 0
113 129 0
126 144 0
124 143 0
121 137 0
113 130 0
126 143 0
143 163 0
126 146 0
118 137 0
123 141 0
141 160 0
134 153 0
137 158 0
135 154 0
134 152 0
127 146 0
123 140 0
133 152 0
126 144 0
133 154 0
148 165 0
148 168 0
135 155 0
146 164 0
134 155 0
140 159 0
140 159 0
141 161 0
153 172 0
144 166 0
139 158 0
152 173 0
150 170 0
134 154 0
146 167 0
138 157 0
146 166 0
148 167 0
154 175 0
160 179 0
153 175 0
154 173 0
159 181 0
149 168 0
143 163 0
140 160 0
155 177 0
154 175 0
157 178 0
145 164 0
156 176 0
156 177 0
155 176 0
160 178 0
152 173 0
154 177 0
159 181 0
162 185 0
164 186 0
161 184 0
156 178 0
163 183 0
165 186 0
160 183 0
159 179 0
155 176 0
164 184 0
149 171 0
158 178 0
172 195 0
160 180 0
166 187 0
164 185 0
159 182 0
163 185 0
168 190 0
166 186 0
154 172 0
172 193 0
161 181 0
166 188 0
166 188 0
164 183 0
168 191 0
163 183 0
154 174 0
162 185 0
160 184 0
166 188 0
170 192 0
166 187 0
159 182 0
168 189 0
165 186 0
166 187 0
168 190 0
171 191 0
168 191 0
171 192 0
166 188 0
163 183 0
167 189 0
166 188 0
170 191 0
166 187 0
170 192 0
164 187 0
167 189 0
167 189 0
167 189 0
168 189 0
170 194 0
167 189 0
167 189 0
167 189 0
174 196 0
164 186 0
168 189 0
170 192 0
167 190 0
168 190 0
169 190 0
173 195 0
169 190 0
170 192 0
169 191 0
169 191 0
170 192 0
171 193 0
169 191 0
170 193 0
166 188 0
170 193 0
168 192 0
171 193 0
171 194 0
168 189 0
167 189 0
170 193 0
173 196 0
170 191 0
161 183 0
168 192 0
170 194 0
171 194 0
170 193 0
171 192 0
170 191 0
170 193 0
173 195 0
167 191 0
170 194 0
169 192 0
172 194 0
177 199 0
169 192 0
172 195 0
170 195 0
169 192 0
173 196 0
174 196 0
176 198 0
174 197 0
172 196 0
169 192 0
170 194 0
173 195 0
173 195 0
171 194 0
172 195 0
172 194 0
174 198 0
175 197 0
175 198 0
171 194 0
173 196 0
173 194 0
170 193 0
174 197 0
166 189 0
171 195 0
167 190 0
174 196 0
174 196 0
175 198 0
173 196 0
172 195 0
173 195 0
170 194 0
174 196 0
175 197 0
171 195 0
173 195 0
172 196 0
173 196 0
173 197 0
172 196 0
172 197 0
176 198 0
169 193 0
174 197 0
171 195 0
172 195 0
173 197 0
176 198 0
177 199 0
170 195 0
172 196 0
173 197 0
169 193 0
173 196 0
173 195 0
174 197 0
172 195 0
173 197 0
172 196 0
174 198 0
170 195 0
173 197 0
175 197 0
171 194 0
175 198 0
172 196 0
174 198 0
171 195 0
169 193 0
172 195 0
171 194 0
174 197 0
172 195 0
173 197 0
172 197 0
174 197 0
171 194 0
173 197 0
170 194 0
171 195 0
173 197 0
173 197 0
168 191 0
173 195 0
176 199 0
173 197 0
173 196 0
177 199 0
171 194 0
172 195 0
172 196 0
173 197 0
174 198 0
171 194 0
173 196 0
174 198 0
174 196 0
169 193 0
165 188 0
168 191 0
172 197 0
166 191 0
161 185 0
171 194 0
172 195 0
167 191 0
175 198 0
169 192 0
172 195 0
171 195 0
172 196 0
171 195 0
173 197 0
175 198 0
180 202 72
176 199 36
176 199 51
175 199 51
177 200 62
175 199 51
182 204 102
178 200 62
170 193 51
176 199 72
175 198 62
178 200 88
176 198 72
175 197 72
176 199 102
171 194 62
172 195 62
174 197 72
172 194 80
170 194 62
174 196 88
167 191 80
177 200 88
174 197 88
178 201 95
169 192 51
171 193 80
174 198 102
175 199 88
182 203 102
176 200 108
176 198 114
177 201 130
168 191 95
175 198 108
173 196 88
169 191 120
167 191 114
169 192 72
173 196 102
170 194 102
164 186 95
175 199 120
158 182 88
168 190 80
168 190 95
175 198 95
157 181 88
165 188 108
168 192 108
162 185 62
171 195 120
168 192 120
173 196 120
174 198 125
159 182 95
171 194 108
165 189 108
161 185 88
168 191 102
153 176 108
167 190 114
157 180 88
163 185 108
167 190 120
164 186 114
160 183 80
167 189 108
163 186 95
159 180 102
153 174 80
158 178 102
145 165 88
161 182 72
157 178 88
158 177 125
144 165 80
158 180 80
146 166 102
152 170 135
147 164 125
142 161 80
139 157 80
144 163 80
147 166 72
141 160 80
126 145 51
139 157 72
106 122 62
144 162 80
129 145 72
124 142 0
118 136 36
137 155 36
154 177 0
159 179 0
152 172 0
148 171 0
137 160 0
119 138 0
120 138 0
111 127 0
115 132 0
124 143 0
112 130 0
115 134 0
110 128 0
120 137 0
123 142 0
110 128 0
97 113 0
115 132 0
114 131 0
123 140 0
111 128 0
105 123 0
109 126 0
109 126 0
108 126 0
103 122 0
104 123 0
117 134 0
117 134 0
126 144 0
106 123 0
119 137 0
124 143 0
106 124 0
122 140 0
112 130 0
131 148 0
127 146 0
112 131 0
124 142 0
116 135 0
123 143 0
136 155 0
116 136 0
135 154 0
116 136 0
120 139 0
123 144 0
136 155 0
135 155 0
132 151 0
134 153 0
137 156 0
138 158 0
149 170 0
129 150 0
135 155 0
139 159 0
138 158 0
146 165 0
152 172 0
141 159 0
145 164 0
136 157 0
133 152 0
142 163 0
146 167 0
149 169 0
135 154 0
144 163 0
148 169 0
145 166 0
144 166 0
145 164 0
152 174 0
148 168 0
159 180 0
148 168 0
153 174 0
159 179 0
151 172 0
156 175 0
152 170 0
158 181 0
158 180 0
148 168 0
156 177 0
152 172 0
158 177 0
156 177 0
157 177 0
163 185 0
160 183 0
156 177 0
159 178 0
166 186 0
160 180 0
153 174 0
154 175 0
165 185 0
159 180 0
155 176 0
164 185 0
167 189 0
159 177 0
160 182 0
159 179 0
170 192 0
164 183 0
159 181 0
167 188 0
166 188 0
162 182 0
164 186 0
156 178 0
167 185 0
166 186 0
166 186 0
163 184 0
168 190 0
169 189 0
166 187 0
165 186 0
163 185 0
169 191 0
170 190 0
160 182 0
166 190 0
166 188 0
163 183 0
168 189 0
165 187 0
170 191 0
161 184 0
162 184 0
170 193 0
171 194 0
173 195 0
169 193 0
167 186 0
168 190 0
166 188 0
169 191 0
166 188 0
169 191 0
165 186 0
167 190 0
164 186 0
170 192 0
156 179 0
167 187 0
173 196 0
170 193 0
173 197 0
169 190 0
164 187 0
170 193 0
169 189 0
170 192 0
173 195 0
175 196 0
172 194 0
164 187 0
171 194 0
170 190 0
172 194 0
171 193 0
170 193 0
168 190 0
171 194 0
172 194 0
169 190 0
169 191 0
171 195 0
173 195 0
169 191 0
175 196 0
168 190 0
172 194 0
172 195 0
169 192 0
170 191 0
172 194 0
171 193 0
171 194 0
174 197 0
171 193 0
174 197 0
169 192 0
173 196 0
172 195 0
173 196 0
171 194 0
171 194 0
170 191 0
174 198 0
169 191 0
173 196 0
170 194 0
174 196 0
173 197 0
173 196 0
169 192 0
171 194 0
174 197 0
172 195 0
176 197 0
174 198 0
171 194 0
175 197 0
173 196 0
175 198 0
169 193 0
173 196 0
175 198 0
174 197 0
172 195 0
171 196 0
172 195 0
173 197 0
175 196 0
174 197 0
176 198 0
175 198 0
172 196 0
173 196 0
175 197 0
174 195 0
170 192 0
177 199 0
174 197 0
170 193 0
174 196 0
171 195 0
174 197 0
173 196 0
170 195 0
172 196 0
175 198 0
172 197 0
173 196 0
176 199 0
174 198 0
174 197 0
173 196 0
173 197 0
170 194 0
170 194 0
173 197 0
173 197 0
174 198 0
176 198 0
175 198 0
171 194 0
170 193 0
173 197 0
172 195 0
177 199 0
174 197 0
173 196 0
171 195 0
171 196 0
169 193 0
170 194 0
175 198 0
172 194 0
168 193 0
172 196 0
171 194 0
172 196 0
173 196 0
173 197 0
173 196 0
171 195 0
173 197 0
173 197 0
171 195 0
171 195 0
171 194 0
176 198 0
173 196 0
171 194 0
174 197 0
167 191 0
169 193 0
173 197 0
172 195 0
171 194 0
170 195 0
172 196 0
172 195 0
171 194 0
170 194 0
170 194 0
172 197 0
173 196 0
172 195 0
171 194 0
169 193 0
171 194 0
170 193 0
174 198 0
169 194 0
171 196 0
171 196 0
174 197 0
175 199 51
176 199 36
177 199 51
178 200 62
178 201 62
176 198 62
179 200 80
180 201 95
174 197 72
171 194 0
176 197 80
171 195 62
178 200 108
168 191 62
175 197 80
173 196 72
166 188 72
172 195 80
174 196 72
174 197 108
172 196 62
175 199 80
170 193 62
165 189 62
174 196 88
183 205 120
172 196 80
172 195 108
180 202 102
179 201 80
170 192 88
173 196 102
171 195 95
171 193 95
170 193 108
167 191 80
178 201 125
176 200 108
170 193 88
169 192 80
173 196 102
163 187 88
170 194 102
170 194 120
171 195 88
171 195 62
173 195 102
160 184 88
168 190 120
174 198 102
166 189 120
170 193 95
162 186 72
171 195 108
161 183 102
163 185 80
156 180 72
155 178 80
171 195 102
152 175 80
166 189 108
163 185 88
155 178 95
157 179 114
162 186 114
172 195 114
154 177 95
170 192 102
151 173 80
161 183 114
170 191 108
155 177 102
175 196 80
166 187 114
165 185 108
154 175 62
152 171 114
144 165 62
153 172 95
154 172 114
160 180 125
143 162 102
146 164 95
139 158 80
152 169 102
130 149 72
121 138 62
133 151 72
115 131 51
113 131 36
130 149 62
132 152 0
144 164 0
128 147 0
155 176 0
152 175 0
143 165 0
152 174 0
141 163 0
126 145 0
126 144 0
129 146 0
126 144 0
116 134 0
136 154 0
119 137 0
119 137 0
130 149 0
129 147 0
119 138 0
122 139 0
112 129 0
122 141 0
97 113 0
100 119 0
98 116 0
125 143 0
106 124 0
113 131 0
118 137 0
115 133 0
99 117 0
118 136 0
108 127 0
103 121 0
108 126 0
124 142 0
117 136 0
119 137 0
126 145 0
120 140 0
125 145 0
139 159 0
119 137 0
132 151 0
130 150 0
122 140 0
112 133 0
131 150 0
144 163 0
130 150 0
141 163 0
147 165 0
136 156 0
110 129 0
131 151 0
133 152 0
136 154 0
140 163 0
144 165 0
138 159 0
137 157 0
146 166 0
132 153 0
147 167 0
153 172 0
139 160 0
150 170 0
141 160 0
147 169 0
148 169 0
141 162 0
145 165 0
147 167 0
152 172 0
156 178 0
148 170 0
145 163 0
152 174 0
152 173 0
146 166 0
147 166 0
151 174 0
161 181 0
148 167 0
153 174 0
156 177 0
154 174 0
155 176 0
153 174 0
149 173 0
154 175 0
154 175 0
158 180 0
154 173 0
155 178 0
153 172 0
158 180 0
155 177 0
168 188 0
161 183 0
158 180 0
164 186 0
157 177 0
159 181 0
157 177 0
166 187 0
164 182 0
160 178 0
157 178 0
162 182 0
164 183 0
165 186 0
159 177 0
160 179 0
169 192 0
170 190 0
167 189 0
163 185 0
170 191 0
160 182 0
169 191 0
164 185 0
166 188 0
162 183 0
156 174 0
153 173 0
168 190 0
154 175 0
162 184 0
168 190 0
169 191 0
170 191 0
162 184 0
167 189 0
165 188 0
168 189 0
168 190 0
158 179 0
158 180 0
161 184 0
171 193 0
165 187 0
172 193 0
173 196 0
171 191 0
165 188 0
168 190 0
169 192 0
168 191 0
170 191 0
164 188 0
167 191 0
167 189 0
166 186 0
167 188 0
169 190 0
175 197 0
167 189 0
168 190 0
169 191 0
169 190 0
165 188 0
172 195 0
171 192 0
170 192 0
168 191 0
170 192 0
169 191 0
174 195 0
170 192 0
172 194 0
171 194 0
171 195 0
166 191 0
172 196 0
170 191 0
171 195 0
170 194 0
173 195 0
171 195 0
172 196 0
169 191 0
170 193 0
173 196 0
171 194 0
171 195 0
172 195 0
173 195 0
169 191 0
172 196 0
169 192 0
173 195 0
173 196 0
169 190 0
172 196 0
172 195 0
171 193 0
173 196 0
174 197 0
171 195 0
170 193 0
171 195 0
175 198 0
171 195 0
174 196 0
175 198 0
171 193 0
172 194 0
171 194 0
172 194 0
174 197 0
172 195 0
174 197 0
174 198 0
173 196 0
173 196 0
174 198 0
174 197 0
172 194 0
174 197 0
174 196 0
173 195 0
173 196 0
175 195 0
173 197 0
173 196 0
175 198 0
177 198 0
172 194 0
175 198 0
173 196 0
171 196 0
174 198 0
173 196 0
174 195 0
174 197 0
175 198 0
173 197 0
174 198 0
173 197 0
170 194 0
174 197 0
176 198 0
173 195 0
174 197 0
175 198 0
173 195 0
171 195 0
169 193 0
173 197 0
174 197 0
171 193 0
172 196 0
170 194 0
170 193 0
168 192 0
172 197 0
170 194 0
174 197 0
173 196 0
172 196 0
173 196 0
173 196 0
174 197 0
173 197 0
176 199 0
173 197 0
169 194 0
172 196 0
170 193 0
171 195 0
167 192 0
173 196 0
171 195 0
173 196 0
174 197 0
175 198 0
174 197 0
171 196 0
172 196 0
172 197 0
172 196 0
175 198 0
174 197 0
169 194 0
175 197 0
172 197 0
169 193 0
172 195 0
171 195 0
172 196 0
173 195 0
175 198 0
167 191 0
171 195 0
169 194 0
172 196 0
172 195 0
165 189 0
172 196 0
169 192 0
173 196 0
172 196 0
173 196 0
175 198 0
172 197 0
171 195 0
174 198 0
174 198 0
178 200 51
180 202 88
176 199 36
176 199 51
179 201 72
173 196 51
174 197 62
177 200 62
177 200 72
183 205 108
173 196 36
169 192 72
174 196 80
176 198 72
173 196 80
173 196 51
174 197 95
175 198 80
179 201 102
173 196 80
177 200 88
167 190 51
177 200 80
175 198 102
161 184 51
177 199 108
171 195 51
180 202 102
179 201 114
173 196 102
171 194 80
172 195 114
178 200 108
177 200 114
179 202 114
168 192 80
171 195 95
167 190 88
180 203 108
159 182 62
169 194 102
170 193 114
167 191 102
170 193 95
167 190 88
166 189 114
169 191 95
166 189 95
163 188 102
172 195 108
165 189 80
172 195 102
174 197 108
168 191 88
165 187 72
159 183 95
170 192 120
160 183 51
162 184 108
153 176 114
156 178 80
165 190 102
165 188 114
169 191 95
160 183 114
158 182 95
163 185 114
157 179 95
159 180 72
164 186 102
163 184 95
158 179 120
156 177 102
153 172 108
148 169 95
158 178 95
145 165 95
159 179 120
164 184 130
150 169 102
155 174 125
137 156 88
129 148 51
151 170 95
150 167 88
139 158 62
147 165 102
136 155 62
124 144 51
132 151 62
119 138 51
140 158 0
138 158 0
133 152 0
151 171 0
143 164 0
144 162 0
131 148 0
135 155 0
122 144 0
132 151 0
106 124 0
129 147 0
124 143 0
108 126 0
113 131 0
110 130 0
107 126 0
130 148 0
130 149 0
121 140 0
117 134 0
118 136 0
118 136 0
112 130 0
115 133 0
111 130 0
96 115 0
123 141 0
118 137 0
117 137 0
115 133 0
101 119 0
116 134 0
125 144 0
117 135 0
129 148 0
122 139 0
119 137 0
115 134 0
115 135 0
119 135 0
142 163 0
115 135 0
142 161 0
138 157 0
134 154 0
137 156 0
137 157 0
137 157 0
135 155 0
134 153 0
137 157 0
129 150 0
131 151 0
139 157 0
145 166 0
148 166 0
136 156 0
133 155 0
142 164 0
142 165 0
139 159 0
147 169 0
156 175 0
146 167 0
134 153 0
151 172 0
145 167 0
156 176 0
137 156 0
153 174 0
150 169 0
146 166 0
141 163 0
150 171 0
144 165 0
149 171 0
150 169 0
152 174 0
154 173 0
148 171 0
156 177 0
153 174 0
156 177 0
145 166 0
156 178 0
152 172 0
159 179 0
155 175 0
161 181 0
153 174 0
158 177 0
150 171 0
161 180 0
154 174 0
160 182 0
170 193 0
163 185 0
163 186 0
157 176 0
163 185 0
162 185 0
157 179 0
161 184 0
162 184 0
158 180 0
166 187 0
164 186 0
165 186 0
165 186 0
161 183 0
158 179 0
160 182 0
164 183 0
164 185 0
161 180 0
162 185 0
161 184 0
167 188 0
166 189 0
167 189 0
164 186 0
166 189 0
165 186 0
168 190 0
163 182 0
163 186 0
171 196 0
168 188 0
164 185 0
168 189 0
168 190 0
171 193 0
170 192 0
172 195 0
167 188 0
168 190 0
170 194 0
164 185 0
165 186 0
167 191 0
171 193 0
170 191 0
169 190 0
169 194 0
172 194 0
163 184 0
168 191 0
161 182 0
170 193 0
166 189 0
169 192 0
163 186 0
170 194 0
163 184 0
172 196 0
168 191 0
169 191 0
171 192 0
175 197 0
171 194 0
169 190 0
172 194 0
172 194 0
172 196 0
168 188 0
169 194 0
174 196 0
173 197 0
172 194 0
174 197 0
170 193 0
171 195 0
167 190 0
172 193 0
169 193 0
170 194 0
170 194 0
172 195 0
167 190 0
169 191 0
170 192 0
171 195 0
171 192 0
170 193 0
169 192 0
172 195 0
174 197 0
173 197 0
173 195 0
171 194 0
166 189 0
174 196 0
168 191 0
170 193 0
172 196 0
172 196 0
172 194 0
173 197 0
173 197 0
170 194 0
171 194 0
170 193 0
174 197 0
172 194 0
172 195 0
169 191 0
172 196 0
173 196 0
173 196 0
173 196 0
173 197 0
175 198 0
168 192 0
176 199 0
171 195 0
174 198 0
174 198 0
169 193 0
176 198 0
175 198 0
172 195 0
174 197 0
173 196 0
174 197 0
172 196 0
173 196 0
171 194 0
175 198 0
174 197 0
172 195 0
173 197 0
172 196 0
174 197 0
174 198 0
173 195 0
173 196 0
171 196 0
174 198 0
174 198 0
172 196 0
173 197 0
175 198 0
173 196 0
174 197 0
175 198 0
172 196 0
175 198 0
174 198 0
175 198 0
171 194 0
170 195 0
171 195 0
173 197 0
173 197 0
174 197 0
171 195 0
174 197 0
174 198 0
174 197 0
172 196 0
172 197 0
174 198 0
173 195 0
170 194 0
172 196 0
172 195 0
173 197 0
173 197 0
175 198 0
175 198 0
173 196 0
175 198 0
172 197 0
174 198 0
172 196 0
170 194 0
172 197 0
175 198 0
171 195 0
175 198 0
175 197 0
171 196 0
177 199 0
174 198 0
169 193 0
174 198 0
172 196 0
168 192 0
170 194 0
172 195 0
172 195 0
173 196 0
171 194 0
168 192 0
169 193 0
174 197 0
160 185 0
168 192 0
169 193 0
173 196 0
170 194 0
170 193 0
170 193 0
166 190 0
171 195 0
173 197 0
173 196 0
175 198 0
175 197 0
177 200 80
172 196 36
176 200 62
175 198 36
177 199 62
177 198 72
178 201 95
176 198 80
169 191 80
178 200 62
177 199 80
169 192 51
167 190 72
167 189 72
176 198 62
171 193 80
169 192 80
169 192 72
172 195 0
171 194 0
172 194 88
177 199 120
171 194 62
179 201 120
180 202 135
171 195 72
176 199 102
171 193 108
167 189 95
172 196 72
178 201 108
167 190 80
171 195 80
165 188 72
170 193 95
172 195 108
159 182 102
172 197 108
164 188 51
169 193 125
173 197 130
170 193 88
170 193 108
170 194 108
162 186 95
166 190 80
174 196 88
163 186 95
163 185 114
163 185 80
169 192 120
167 190 88
162 184 62
167 190 88
164 187 88
166 189 120
167 191 88
153 178 72
160 183 95
154 176 72
157 179 80
162 185 72
163 186 108
155 178 80
165 187 88
158 180 102
161 183 114
159 181 80
167 189 114
163 185 108
166 189 80
162 182 114
157 177 102
168 189 102
158 179 95
161 181 95
153 172 108
167 187 125
153 173 102
149 169 95
134 154 62
142 160 102
140 161 62
150 167 114
154 173 95
142 160 62
133 152 0
115 135 51
146 166 36
133 151 36
125 145 36
148 169 0
135 155 0
147 168 0
156 178 0
148 170 0
141 163 0
144 165 0
142 162 0
121 141 0
143 163 0
113 131 0
128 147 0
134 154 0
129 149 0
127 147 0
125 144 0
126 145 0
101 120 0
114 134 0
103 123 0
117 134 0
110 129 0
116 136 0
117 136 0
131 150 0
130 148 0
117 136 0
119 139 0
131 150 0
122 142 0
103 122 0
98 118 0
99 118 0
128 149 0
128 147 0
113 132 0
127 145 0
111 130 0
122 142 0
121 140 0
148 169 0
118 140 0
144 163 0
128 148 0
141 161 0
124 144 0
138 158 0
140 160 0
132 153 0
138 160 0
144 164 0
123 144 0
143 164 0
145 165 0
128 147 0
143 162 0
127 145 0
147 167 0
142 163 0
147 167 0
140 161 0
137 158 0
150 172 0
129 149 0
145 164 0
145 167 0
146 167 0
150 172 0
144 164 0
141 161 0
149 170 0
147 168 0
151 172 0
149 170 0
158 179 0
148 167 0
151 174 0
148 169 0
142 162 0
147 169 0
150 172 0
161 183 0
146 167 0
150 172 0
159 178 0
150 172 0
155 175 0
155 176 0
160 183 0
161 185 0
164 186 0
167 186 0
158 178 0
158 177 0
164 183 0
154 175 0
158 180 0
156 176 0
159 180 0
159 179 0
163 183 0
158 180 0
158 180 0
166 189 0
160 178 0
167 190 0
162 183 0
160 183 0
163 185 0
164 187 0
171 193 0
148 167 0
161 181 0
161 182 0
163 187 0
163 186 0
156 176 0
164 183 0
158 179 0
168 188 0
170 192 0
159 181 0
167 190 0
165 186 0
165 187 0
156 178 0
171 194 0
166 189 0
166 187 0
173 195 0
164 185 0
167 188 0
162 183 0
164 188 0
163 184 0
170 190 0
168 189 0
166 189 0
172 193 0
170 192 0
170 193 0
170 194 0
169 193 0
170 192 0
170 192 0
165 186 0
169 193 0
170 193 0
170 193 0
172 194 0
169 191 0
168 191 0
171 193 0
172 195 0
167 191 0
169 193 0
166 187 0
170 192 0
169 192 0
169 192 0
168 190 0
172 195 0
171 194 0
170 192 0
172 195 0
170 190 0
164 186 0
167 190 0
172 195 0
164 187 0
168 191 0
170 192 0
174 197 0
173 195 0
170 194 0
170 192 0
171 193 0
171 195 0
171 194 0
173 196 0
174 196 0
171 194 0
171 193 0
173 196 0
171 194 0
172 195 0
174 196 0
173 197 0
173 197 0
172 194 0
172 194 0
168 190 0
170 193 0
173 196 0
171 194 0
168 189 0
172 195 0
173 197 0
169 193 0
170 194 0
172 195 0
173 196 0
173 196 0
169 193 0
172 195 0
172 197 0
175 196 0
175 198 0
177 199 0
172 194 0
171 195 0
171 193 0
175 197 0
171 194 0
168 192 0
169 191 0
170 194 0
172 197 0
175 198 0
175 197 0
170 195 0
175 198 0
171 195 0
173 197 0
172 195 0
174 197 0
174 197 0
170 192 0
175 198 0
169 193 0
175 198 0
173 196 0
174 198 0
173 196 0
172 195 0
173 197 0
172 196 0
173 197 0
173 197 0
175 198 0
171 194 0
167 191 0
171 194 0
174 197 0
171 195 0
172 196 0
176 197 0
172 196 0
170 192 0
174 197 0
173 197 0
175 198 0
174 198 0
173 197 0
174 198 0
175 198 0
171 195 0
169 193 0
175 198 0
173 196 0
173 197 0
169 193 0
174 197 0
171 195 0
167 191 0
172 196 0
173 197 0
175 198 0
170 193 0
170 193 0
177 199 0
168 192 0
174 197 0
173 196 0
171 196 0
166 190 0
173 197 0
172 197 0
169 193 0
169 193 0
172 196 0
168 192 0
169 193 0
170 194 0
173 196 0
172 195 0
171 195 0
170 194 0
174 197 0
171 195 0
171 194 0
170 194 0
176 199 0
171 194 0
170 193 0
171 195 0
168 193 0
172 196 0
170 193 0
168 192 0
169 192 0
173 196 0
170 194 0
171 194 0
172 195 0
168 192 0
171 195 0
173 196 0
175 198 0
178 201 80
179 202 80
175 199 72
177 200 62
175 199 72
176 199 62
174 197 72
179 201 108
179 201 88
177 199 62
165 187 72
168 191 51
174 196 88
171 193 80
170 193 72
167 189 62
169 191 80
175 198 80
175 198 102
178 200 80
181 203 108
171 194 72
176 199 102
172 195 95
179 202 95
176 199 102
173 196 80
171 194 108
174 197 114
168 192 114
171 194 88
178 201 125
166 189 80
172 195 80
170 192 62
169 192 80
170 193 95
167 191 72
167 190 108
175 198 95
162 186 108
172 195 95
171 194 95
167 190 80
167 190 102
160 185 72
163 187 120
173 196 108
174 197 108
170 194 95
158 181 72
159 181 62
171 196 114
170 192 114
168 192 108
161 184 95
168 192 125
161 184 88
164 187 108
173 196 130
145 167 102
163 187 88
172 194 108
161 183 80
165 188 120
163 185 140
153 175 51
162 183 95
154 174 95
160 182 88
161 183 88
170 190 125
153 175 72
154 174 80
156 178 72
163 182 125
146 166 88
154 173 108
148 168 108
157 177 88
141 161 51
163 182 125
148 169 51
137 158 62
146 166 72
138 159 36
140 161 36
151 170 80
134 154 36
127 147 51
130 149 36
141 162 0
147 167 36
151 171 0
148 171 0
156 178 0
148 168 0
147 169 0
125 144 0
139 158 0
119 139 0
131 151 0
126 148 0
130 149 0
126 144 0
124 143 0
127 146 0
114 133 0
113 133 0
126 145 0
123 143 0
117 135 0
126 146 0
132 150 0
108 127 0
125 145 0
119 136 0
122 140 0
118 136 0
117 137 0
136 157 0
122 142 0
127 147 0
124 143 0
123 141 0
112 131 0
124 143 0
132 152 0
132 151 0
120 140 0
136 154 0
112 132 0
140 160 0
140 161 0
118 137 0
143 164 0
150 170 0
134 153 0
135 155 0
134 155 0
144 165 0
132 153 0
135 156 0
131 150 0
141 160 0
126 143 0
139 159 0
133 155 0
141 159 0
139 159 0
150 172 0
149 169 0
150 171 0
150 171 0
131 153 0
147 168 0
144 163 0
150 171 0
147 167 0
147 169 0
141 162 0
138 159 0
153 174 0
150 171 0
152 173 0
162 183 0
154 173 0
154 176 0
148 168 0
150 172 0
143 165 0
153 171 0
157 178 0
155 176 0
142 163 0
154 174 0
157 179 0
165 185 0
165 189 0
160 181 0
159 181 0
165 187 0
162 182 0
164 185 0
154 174 0
161 185 0
155 177 0
161 183 0
155 176 0
165 189 0
168 188 0
159 181 0
158 179 0
166 187 0
160 184 0
154 175 0
161 184 0
160 184 0
166 188 0
160 179 0
162 183 0
168 188 0
170 189 0
164 186 0
160 182 0
168 191 0
164 185 0
165 187 0
160 182 0
168 191 0
171 195 0
152 174 0
167 189 0
163 185 0
153 172 0
164 186 0
170 191 0
163 186 0
160 184 0
168 190 0
165 185 0
169 191 0
167 191 0
166 188 0
169 191 0
172 194 0
168 189 0
172 195 0
173 193 0
168 191 0
165 186 0
170 193 0
163 186 0
168 191 0
159 181 0
164 187 0
166 186 0
171 193 0
165 186 0
169 191 0
167 188 0
166 187 0
174 196 0
168 187 0
171 194 0
169 191 0
169 191 0
170 192 0
169 190 0
171 193 0
168 192 0
171 195 0
169 192 0
166 189 0
170 191 0
175 196 0
166 188 0
169 192 0
173 197 0
173 195 0
170 193 0
176 198 0
172 194 0
170 192 0
168 190 0
171 193 0
174 197 0
174 198 0
173 195 0
169 193 0
168 191 0
168 190 0
172 195 0
174 195 0
170 191 0
174 197 0
171 194 0
174 197 0
171 195 0
171 194 0
175 197 0
173 195 0
175 197 0
170 194 0
172 194 0
171 193 0
173 197 0
172 195 0
175 198 0
171 195 0
172 197 0
170 192 0
175 198 0
174 196 0
173 197 0
174 196 0
171 195 0
170 192 0
172 196 0
173 197 0
168 193 0
174 196 0
173 196 0
175 198 0
171 194 0
174 197 0
173 196 0
175 197 0
173 196 0
169 192 0
171 195 0
174 196 0
172 195 0
171 194 0
174 196 0
172 197 0
175 197 0
174 198 0
174 197 0
173 195 0
173 196 0
172 195 0
174 197 0
173 196 0
172 195 0
170 194 0
170 193 0
172 196 0
172 197 0
174 198 0
174 197 0
173 196 0
172 197 0
175 198 0
175 198 0
172 197 0
176 199 0
173 196 0
174 198 0
175 198 0
172 195 0
167 192 0
175 198 0
172 196 0
171 194 0
175 198 0
173 197 0
175 198 0
173 197 0
172 197 0
173 197 0
171 194 0
173 196 0
170 194 0
171 195 0
173 196 0
174 198 0
174 198 0
175 198 0
171 194 0
169 194 0
171 195 0
173 197 0
174 197 0
170 194 0
172 197 0
172 197 0
169 192 0
169 194 0
171 194 0
170 194 0
171 195 0
173 197 0
170 193 0
170 194 0
175 198 0
168 192 0
173 197 0
175 197 0
169 193 0
173 196 0
173 197 0
168 191 0
171 194 0
169 193 0
172 195 0
167 191 0
174 198 0
174 197 0
170 195 0
172 196 0
170 194 0
170 194 0
175 198 0
173 196 0
174 197 0
177 199 0
170 194 0
172 196 0
174 197 0
175 199 51
178 200 51
178 200 51
179 201 72
174 197 36
170 194 62
173 196 62
173 195 62
174 196 88
176 199 62
170 193 51
175 198 62
173 197 62
166 188 51
177 199 108
169 190 62
170 193 62
174 197 88
167 190 88
177 198 102
174 197 88
178 200 102
175 197 114
178 201 102
174 198 80
172 194 102
169 193 80
175 198 108
179 202 149
176 199 95
174 197 102
175 198 95
169 192 80
179 202 88
174 197 102
175 199 80
164 187 80
173 196 102
167 190 62
177 200 125
167 190 95
170 193 88
169 193 95
172 195 102
165 188 80
173 196 125
160 183 62
175 198 88
172 195 108
167 188 51
165 189 125
158 181 95
158 180 88
168 191 114
167 190 95
166 189 80
166 189 95
156 179 108
156 178 88
162 185 80
157 179 62
163 185 114
151 174 80
153 175 95
155 178 62
161 184 120
164 186 88
149 171 80
158 181 80
146 168 80
170 191 114
167 189 120
160 181 88
157 178 88
165 184 120
159 179 125
154 175 51
151 172 88
164 182 125
157 178 102
123 144 62
153 173 80
144 162 88
134 155 51
132 154 36
141 161 72
137 157 62
152 174 51
142 163 62
141 161 36
140 160 36
124 143 0
146 167 0
153 175 0
155 176 0
155 176 0
147 168 0
136 157 0
146 165 0
140 161 0
136 156 0
134 154 0
131 152 0
135 156 0
140 160 0
148 168 0
126 146 0
124 141 0
126 147 0
114 133 0
128 149 0
115 133 0
132 153 0
124 143 0
126 145 0
130 150 0
113 132 0
119 138 0
143 163 0
124 144 0
122 142 0
131 151 0
131 151 0
119 139 0
127 146 0
126 145 0
139 158 0
121 139 0
132 152 0
148 169 0
132 151 0
136 157 0
144 167 0
126 146 0
121 144 0
131 151 0
130 149 0
132 152 0
148 170 0
157 179 0
140 160 0
130 149 0
147 167 0
140 160 0
148 169 0
149 169 0
138 158 0
133 152 0
148 167 0
133 153 0
149 170 0
139 159 0
132 153 0
142 164 0
148 171 0
152 173 0
140 158 0
152 174 0
147 168 0
146 166 0
146 167 0
164 188 0
159 181 0
141 163 0
155 178 0
155 176 0
158 181 0
145 166 0
156 178 0
149 170 0
153 175 0
157 178 0
153 173 0
156 178 0
154 176 0
154 174 0
146 166 0
160 181 0
153 175 0
156 177 0
150 172 0
148 167 0
160 181 0
151 172 0
162 181 0
162 184 0
151 172 0
160 179 0
164 187 0
162 182 0
156 178 0
157 178 0
165 190 0
161 182 0
155 178 0
167 188 0
160 181 0
157 179 0
156 176 0
167 188 0
162 183 0
164 185 0
157 178 0
152 172 0
169 190 0
165 185 0
164 187 0
163 186 0
159 179 0
159 179 0
165 186 0
168 192 0
161 183 0
166 189 0
165 186 0
165 187 0
169 191 0
165 188 0
163 184 0
163 184 0
168 190 0
164 186 0
169 192 0
160 182 0
163 183 0
165 186 0
176 195 0
164 185 0
161 184 0
165 188 0
170 191 0
169 192 0
172 194 0
171 193 0
165 186 0
164 187 0
166 188 0
168 192 0
167 189 0
171 193 0
172 193 0
168 191 0
171 193 0
170 193 0
166 189 0
170 191 0
169 192 0
168 188 0
170 194 0
169 192 0
173 196 0
171 193 0
172 195 0
172 195 0
171 194 0
170 192 0
165 185 0
171 193 0
166 189 0
174 197 0
172 193 0
172 196 0
168 191 0
172 196 0
168 189 0
171 195 0
169 191 0
171 194 0
172 195 0
171 192 0
168 190 0
174 195 0
170 195 0
170 193 0
175 198 0
173 195 0
171 194 0
172 196 0
173 195 0
171 193 0
174 197 0
170 192 0
170 192 0
171 194 0
173 195 0
172 196 0
169 192 0
175 197 0
170 193 0
168 191 0
167 190 0
172 195 0
176 199 0
171 195 0
174 197 0
172 195 0
169 192 0
173 196 0
170 195 0
172 197 0
174 197 0
171 195 0
174 198 0
174 198 0
175 198 0
171 195 0
170 193 0
174 196 0
173 196 0
175 198 0
172 196 0
173 197 0
174 198 0
172 195 0
174 197 0
173 196 0
170 193 0
173 197 0
175 197 0
170 193 0
169 193 0
174 197 0
174 198 0
173 197 0
171 194 0
173 197 0
176 198 0
174 197 0
173 197 0
173 197 0
174 197 0
172 196 0
169 193 0
171 196 0
173 197 0
172 195 0
171 194 0
175 198 0
172 196 0
176 198 0
174 196 0
171 194 0
173 196 0
174 198 0
172 196 0
171 196 0
173 197 0
173 197 0
172 195 0
173 196 0
170 193 0
173 197 0
171 195 0
173 197 0
172 195 0
175 198 0
173 197 0
173 196 0
173 197 0
174 197 0
176 198 0
174 197 0
167 192 0
171 195 0
165 189 0
174 198 0
171 195 0
169 192 0
172 196 0
172 196 0
172 196 0
173 196 0
170 194 0
170 195 0
173 195 0
170 194 0
168 192 0
169 193 0
172 195 0
173 196 0
170 194 0
173 196 0
171 194 0
173 197 0
175 198 0
169 193 0
174 197 0
175 198 0
170 194 0
163 186 0
175 198 0
172 196 0
170 194 0
170 193 0
171 195 0
171 195 0
175 198 0
173 197 0
170 194 0
173 196 0
176 199 36
175 198 51
175 199 51
176 199 51
173 195 36
173 195 72
171 194 62
174 197 62
171 195 62
179 201 72
178 200 88
180 202 95
172 194 51
170 192 62
172 193 88
171 193 72
170 192 51
168 191 80
174 197 88
172 195 88
173 195 105
172 195 102
179 202 102
168 191 95
178 201 102
172 195 108
177 200 114
175 198 95
173 196 102
172 196 95
172 195 95
179 202 108
170 194 108
171 194 102
175 197 95
178 201 108
173 197 95
179 202 114
174 198 102
169 192 102
168 192 95
170 192 88
163 186 95
165 188 72
166 190 108
170 193 114
172 193 88
168 190 95
154 177 80
168 191 80
162 185 72
170 194 120
172 195 130
164 187 95
167 190 80
163 186 95
161 185 102
169 192 125
162 186 95
176 199 108
142 164 62
158 180 114
154 176 72
164 186 114
154 176 95
162 183 95
160 182 95
166 188 102
168 191 95
157 177 80
162 183 108
153 175 102
170 192 120
162 184 80
147 168 62
159 179 102
161 181 120
156 176 95
148 168 95
154 174 95
155 174 102
158 178 108
149 169 62
154 174 62
150 170 80
155 176 62
155 175 36
127 148 36
138 159 0
150 171 62
143 162 36
150 172 36
144 165 0
157 178 0
152 172 0
153 175 0
151 173 0
140 161 0
140 160 0
135 154 0
131 151 0
145 165 0
137 157 0
138 158 0
130 152 0
135 157 0
112 132 0
128 147 0
126 145 0
128 147 0
132 151 0
129 148 0
141 160 0
131 151 0
126 145 0
136 156 0
138 158 0
144 164 0
122 141 0
130 150 0
122 143 0
116 136 0
143 163 0
132 152 0
121 141 0
119 139 0
141 160 0
113 132 0
127 146 0
126 148 0
129 151 0
132 153 0
139 161 0
131 151 0
136 155 0
140 162 0
129 150 0
135 155 0
132 151 0
140 158 0
139 160 0
142 162 0
155 173 0
129 150 0
126 146 0
144 166 0
145 166 0
138 159 0
143 165 0
139 160 0
141 163 0
149 169 0
147 167 0
146 166 0
136 156 0
147 170 0
149 171 0
150 171 0
147 170 0
155 175 0
148 169 0
147 169 0
146 164 0
156 178 0
152 175 0
147 168 0
143 165 0
155 177 0
155 178 0
158 180 0
153 175 0
159 180 0
162 185 0
160 181 0
156 180 0
161 182 0
157 176 0
158 181 0
159 182 0
156 177 0
160 180 0
154 176 0
156 177 0
158 178 0
149 168 0
159 180 0
158 181 0
157 179 0
165 187 0
163 181 0
157 177 0
166 187 0
161 181 0
164 184 0
167 190 0
162 182 0
164 185 0
157 179 0
156 177 0
159 181 0
163 184 0
168 189 0
165 188 0
168 188 0
160 181 0
168 190 0
168 191 0
165 187 0
165 185 0
170 194 0
165 187 0
163 185 0
168 189 0
161 184 0
169 193 0
168 193 0
165 187 0
167 189 0
166 187 0
171 195 0
167 189 0
164 184 0
163 186 0
165 186 0
166 187 0
166 188 0
173 194 0
171 193 0
163 186 0
165 187 0
161 182 0
170 193 0
172 194 0
174 197 0
166 187 0
173 195 0
166 189 0
169 189 0
169 190 0
167 190 0
170 193 0
174 197 0
166 189 0
170 190 0
173 196 0
166 188 0
163 186 0
171 193 0
169 192 0
174 198 0
170 191 0
175 198 0
169 191 0
171 194 0
170 193 0
174 197 0
170 194 0
169 193 0
170 194 0
172 194 0
172 197 0
167 189 0
168 190 0
174 197 0
172 196 0
172 195 0
175 197 0
173 196 0
172 195 0
169 192 0
170 193 0
173 197 0
172 196 0
172 196 0
172 196 0
172 195 0
172 195 0
170 195 0
172 195 0
167 189 0
173 197 0
166 188 0
170 192 0
170 193 0
175 198 0
171 194 0
175 197 0
168 190 0
173 196 0
173 197 0
171 193 0
172 196 0
172 196 0
170 193 0
171 194 0
174 196 0
172 195 0
174 197 0
175 198 0
174 198 0
171 196 0
170 194 0
174 198 0
175 198 0
169 192 0
173 196 0
174 197 0
171 195 0
173 197 0
173 196 0
174 197 0
172 195 0
173 197 0
171 195 0
173 196 0
174 197 0
173 196 0
173 196 0
174 196 0
171 193 0
170 195 0
171 194 0
172 195 0
175 197 0
174 197 0
173 196 0
176 198 0
172 195 0
173 197 0
175 198 0
176 198 0
174 198 0
174 197 0
173 197 0
174 197 0
171 195 0
174 198 0
173 196 0
176 199 0
171 195 0
174 198 0
175 198 0
171 194 0
172 194 0
168 192 0
173 197 0
174 198 0
173 196 0
168 192 0
173 197 0
172 196 0
175 198 0
172 196 0
171 195 0
173 197 0
167 191 0
174 197 0
176 199 0
171 195 0
175 197 0
174 198 0
176 198 0
174 197 0
174 197 0
171 195 0
174 197 0
171 195 0
171 194 0
174 198 0
172 196 0
173 197 0
173 196 0
173 197 0
170 194 0
168 193 0
168 192 0
171 196 0
171 194 0
170 194 0
174 198 0
171 195 0
171 194 0
169 193 0
175 198 0
171 195 0
173 196 0
176 198 0
171 195 0
172 196 0
173 197 0
174 198 0
173 196 0
170 192 0
174 197 0
171 194 0
172 195 0
173 197 0
169 193 0
171 195 0
173 195 0
173 197 0
179 202 80
176 198 0
176 200 62
178 200 72
176 198 51
178 200 88
171 194 62
180 201 120
178 201 80
170 193 51
178 200 88
168 189 88
165 188 51
181 203 114
167 189 95
175 197 80
171 192 80
165 188 95
166 189 76
176 198 84
172 195 88
171 195 80
172 195 102
172 195 95
178 201 120
175 197 108
171 195 95
173 197 114
171 194 80
173 195 88
176 198 108
175 199 95
175 198 88
175 197 95
166 189 62
170 195 108
168 191 80
164 187 72
164 187 88
166 189 62
168 190 102
173 196 108
172 196 102
169 191 108
170 192 80
162 186 88
172 193 88
167 192 95
163 186 102
171 193 108
157 181 88
159 182 80
164 186 88
170 194 88
159 180 72
169 191 80
164 187 108
158 182 95
169 192 95
165 186 114
162 184 88
149 171 80
157 178 102
157 178 88
152 172 88
165 189 102
156 177 95
153 174 88
151 173 88
158 178 95
160 180 114
161 181 130
158 178 114
160 182 88
159 179 95
156 176 114
172 192 120
166 185 125
145 165 80
151 173 72
152 171 62
153 173 80
137 157 80
147 168 62
136 156 62
151 172 0
145 166 36
147 169 0
136 158 0
147 168 36
135 156 0
139 158 0
152 174 0
161 184 0
155 175 0
156 177 0
146 168 0
133 153 0
141 162 0
139 159 0
129 148 0
132 152 0
135 157 0
137 156 0
133 153 0
131 153 0
130 150 0
126 148 0
132 152 0
123 144 0
134 154 0
131 152 0
129 149 0
126 145 0
130 150 0
139 159 0
133 154 0
130 149 0
138 159 0
138 157 0
122 141 0
124 144 0
133 154 0
136 156 0
126 148 0
119 139 0
134 154 0
136 155 0
130 152 0
141 160 0
128 151 0
148 169 0
154 176 0
143 162 0
138 157 0
138 158 0
139 160 0
145 165 0
132 153 0
138 159 0
142 163 0
149 172 0
137 157 0
149 169 0
134 156 0
143 166 0
140 162 0
136 157 0
147 170 0
160 180 0
144 167 0
141 161 0
144 165 0
148 168 0
147 169 0
149 171 0
148 170 0
141 163 0
152 171 0
156 178 0
154 177 0
153 174 0
147 167 0
157 178 0
157 179 0
146 166 0
160 182 0
157 178 0
147 170 0
154 175 0
145 165 0
160 182 0
154 175 0
157 179 0
159 181 0
164 186 0
164 186 0
160 181 0
163 183 0
156 174 0
160 181 0
156 179 0
157 178 0
156 177 0
159 182 0
156 177 0
155 177 0
163 185 0
166 188 0
157 177 0
166 186 0
167 188 0
163 185 0
157 179 0
161 182 0
158 180 0
166 189 0
163 186 0
166 187 0
168 191 0
164 186 0
169 190 0
165 188 0
165 188 0
165 189 0
158 180 0
166 187 0
162 184 0
171 194 0
157 180 0
160 184 0
164 185 0
166 187 0
168 189 0
171 193 0
165 184 0
165 187 0
172 193 0
164 185 0
170 193 0
170 192 0
168 190 0
167 188 0
169 191 0
172 194 0
167 189 0
170 191 0
172 194 0
168 188 0
173 195 0
169 191 0
166 189 0
168 192 0
168 191 0
174 195 0
172 195 0
171 194 0
169 191 0
168 189 0
164 187 0
172 196 0
167 189 0
167 190 0
168 190 0
168 192 0
169 191 0
171 192 0
173 195 0
172 195 0
164 187 0
169 190 0
167 189 0
168 192 0
170 193 0
173 194 0
172 196 0
174 196 0
170 192 0
172 195 0
172 195 0
168 194 0
170 192 0
171 195 0
163 186 0
169 191 0
171 195 0
167 190 0
168 191 0
167 189 0
171 195 0
171 194 0
170 195 0
170 192 0
173 195 0
169 193 0
170 192 0
170 193 0
171 193 0
171 194 0
173 195 0
174 197 0
174 196 0
173 196 0
172 195 0
170 193 0
172 195 0
168 191 0
171 195 0
172 193 0
171 194 0
174 198 0
170 192 0
173 196 0
172 195 0
172 196 0
171 193 0
170 193 0
173 195 0
170 194 0
173 197 0
170 193 0
173 197 0
171 195 0
177 199 0
171 195 0
175 197 0
174 197 0
172 195 0
170 193 0
171 194 0
173 196 0
171 194 0
175 197 0
172 194 0
174 197 0
172 195 0
173 194 0
175 198 0
170 193 0
172 197 0
174 197 0
173 196 0
174 196 0
173 196 0
174 197 0
172 196 0
175 198 0
172 196 0
177 199 0
173 197 0
175 198 0
170 195 0
172 195 0
172 197 0
174 198 0
172 195 0
171 195 0
172 195 0
173 196 0
171 195 0
172 197 0
173 197 0
174 197 0
172 196 0
173 196 0
175 198 0
173 196 0
171 195 0
169 193 0
171 195 0
175 198 0
170 194 0
169 194 0
174 198 0
172 196 0
171 195 0
172 195 0
172 196 0
171 195 0
173 196 0
172 196 0
175 198 0
171 195 0
175 198 0
176 199 0
176 199 0
169 192 0
168 191 0
169 194 0
175 198 0
173 197 0
170 194 0
171 195 0
169 192 0
171 195 0
169 193 0
172 196 0
171 195 0
171 194 0
172 196 0
172 196 0
175 198 0
171 195 0
171 196 0
172 196 0
167 191 0
172 196 0
166 190 0
171 194 0
169 193 0
163 188 0
171 195 0
174 198 0
171 194 0
173 196 0
171 195 0
171 196 0
171 195 0
171 195 0
172 195 0
174 197 0
179 201 72
178 200 62
173 196 36
171 194 36
174 197 51
171 194 72
169 192 72
176 200 72
174 196 88
173 196 62
169 191 80
169 191 62
173 195 88
172 195 95
168 191 72
174 197 72
166 188 99
163 188 51
172 196 80
163 186 67
176 198 95
162 185 80
173 195 72
171 193 72
177 199 108
182 204 144
173 196 114
173 195 120
173 196 114
179 202 114
172 195 88
173 196 88
175 198 108
166 189 80
176 199 114
175 197 88
165 188 72
163 186 80
170 192 88
166 189 80
170 194 114
171 193 102
164 188 102
168 190 72
168 190 88
167 190 72
166 188 72
168 191 80
173 195 125
156 179 108
160 183 88
166 190 95
163 186 108
171 194 114
165 187 102
169 192 120
162 185 95
168 190 108
158 180 95
155 179 72
161 182 88
165 187 80
166 189 120
157 178 80
148 170 51
162 184 108
165 186 95
165 187 95
163 184 88
161 182 88
156 178 80
168 189 102
163 183 120
159 180 95
155 176 95
163 184 72
175 197 108
160 181 95
158 179 95
166 186 108
143 164 88
149 169 62
149 171 51
143 164 0
138 158 0
141 162 36
150 171 0
146 167 36
147 168 36
150 172 36
158 180 51
157 177 0
159 181 0
146 168 0
146 167 0
140 161 0
147 168 0
130 149 0
141 163 0
129 150 0
139 159 0
133 154 0
148 169 0
146 168 0
133 153 0
143 163 0
148 168 0
132 151 0
126 145 0
136 157 0
127 146 0
126 145 0
140 162 0
126 147 0
125 144 0
125 146 0
125 145 0
133 153 0
127 148 0
141 163 0
126 145 0
129 149 0
139 160 0
130 151 0
137 157 0
128 150 0
128 149 0
138 158 0
136 157 0
147 166 0
117 139 0
142 163 0
138 157 0
140 159 0
139 160 0
146 168 0
157 179 0
146 166 0
135 156 0
147 168 0
136 156 0
149 170 0
151 172 0
152 172 0
148 169 0
136 158 0
144 164 0
149 170 0
148 170 0
145 166 0
157 179 0
145 166 0
153 173 0
147 168 0
137 158 0
148 169 0
156 178 0
144 166 0
146 167 0
157 178 0
167 188 0
150 170 0
146 166 0
152 171 0
153 173 0
155 178 0
150 172 0
160 182 0
149 169 0
157 179 0
154 176 0
155 177 0
158 179 0
164 186 0
160 183 0
163 183 0
164 186 0
160 182 0
155 175 0
159 182 0
165 187 0
166 190 0
159 182 0
160 184 0
166 189 0
154 174 0
162 183 0
169 192 0
157 180 0
160 181 0
159 181 0
163 185 0
172 194 0
164 187 0
165 186 0
153 174 0
160 180 0
161 181 0
164 184 0
160 183 0
164 187 0
160 182 0
164 186 0
166 187 0
157 179 0
161 183 0
163 185 0
170 191 0
161 184 0
158 177 0
166 189 0
167 192 0
174 197 0
171 194 0
165 186 0
167 187 0
162 183 0
166 188 0
162 185 0
170 192 0
162 184 0
163 183 0
167 190 0
170 193 0
168 187 0
163 186 0
170 193 0
165 189 0
161 184 0
170 194 0
168 190 0
160 182 0
173 195 0
162 182 0
169 191 0
171 194 0
169 191 0
165 187 0
168 190 0
170 193 0
167 190 0
169 193 0
168 189 0
172 196 0
164 185 0
169 193 0
169 192 0
167 189 0
170 192 0
170 193 0
170 193 0
171 192 0
173 196 0
173 196 0
168 189 0
169 190 0
173 196 0
169 193 0
173 196 0
168 191 0
172 194 0
169 191 0
166 188 0
174 197 0
168 191 0
174 196 0
171 192 0
171 195 0
174 197 0
169 193 0
172 196 0
172 193 0
170 193 0
172 193 0
172 196 0
169 192 0
172 195 0
169 192 0
170 193 0
167 190 0
172 195 0
170 195 0
173 197 0
170 194 0
174 197 0
172 195 0
173 197 0
172 195 0
169 191 0
172 195 0
172 193 0
173 197 0
172 196 0
171 193 0
174 196 0
174 196 0
170 194 0
173 196 0
175 197 0
174 197 0
174 196 0
172 195 0
172 195 0
170 192 0
173 196 0
173 195 0
172 197 0
173 197 0
174 197 0
172 195 0
172 195 0
172 195 0
172 195 0
172 194 0
171 195 0
173 196 0
174 197 0
172 195 0
171 195 0
172 196 0
175 198 0
175 198 0
172 195 0
174 198 0
175 198 0
172 196 0
173 196 0
174 197 0
173 197 0
175 197 0
172 196 0
173 197 0
176 199 0
171 195 0
173 197 0
170 194 0
177 199 0
173 196 0
174 197 0
171 195 0
173 196 0
172 196 0
172 195 0
173 197 0
171 194 0
174 198 0
171 194 0
171 195 0
177 199 0
174 197 0
174 197 0
172 196 0
171 194 0
166 191 0
174 197 0
175 198 0
170 194 0
173 196 0
176 199 0
174 198 0
171 195 0
174 197 0
175 198 0
170 194 0
172 195 0
174 197 0
172 196 0
169 194 0
171 195 0
173 197 0
170 193 0
173 196 0
173 196 0
175 197 0
171 195 0
172 196 0
173 197 0
170 194 0
174 198 0
170 194 0
174 198 0
172 196 0
172 195 0
174 198 0
170 194 0
170 194 0
173 196 0
168 191 0
175 198 0
171 195 0
173 196 0
171 194 0
175 198 0
167 191 0
170 194 0
170 194 0
172 196 0
173 197 0
176 199 0
171 196 0
175 199 36
180 202 72
172 197 36
175 197 51
175 199 72
181 203 88
175 198 62
176 199 62
181 202 95
173 196 62
172 194 88
175 198 62
164 187 36
167 189 72
173 196 99
171 193 62
164 187 80
168 190 72
169 190 62
171 194 88
173 196 84
170 193 102
176 197 88
178 201 108
177 200 62
177 200 120
177 200 108
177 200 125
175 198 88
175 198 120
174 197 120
172 195 102
173 195 95
175 199 114
170 193 51
169 191 114
174 197 114
172 196 102
164 187 88
158 181 72
172 196 120
166 189 114
172 195 120
172 194 95
170 193 62
166 189 95
171 193 108
168 191 108
167 190 80
161 184 72
169 191 72
164 187 95
168 191 80
156 179 88
157 180 72
162 185 72
158 180 80
167 189 102
160 182 95
159 180 72
160 182 120
160 182 51
162 185 108
167 188 102
154 175 62
161 184 114
156 177 108
160 181 72
159 180 95
166 188 80
165 185 108
150 171 72
159 180 95
160 182 108
162 184 114
171 190 114
165 185 102
160 178 88
160 180 72
160 180 88
168 189 88
149 171 72
150 172 0
141 164 36
143 165 36
140 160 0
142 163 0
142 163 0
143 164 0
149 171 51
153 177 0
153 175 0
160 182 0
159 180 0
157 178 0
139 161 0
140 163 0
141 162 0
139 160 0
123 142 0
137 157 0
150 170 0
147 168 0
137 158 0
141 163 0
131 151 0
139 162 0
137 157 0
130 152 0
127 148 0
136 155 0
145 165 0
127 148 0
127 146 0
139 157 0
123 143 0
134 156 0
133 153 0
136 156 0
135 155 0
123 142 0
118 138 0
148 167 0
137 158 0
138 159 0
138 160 0
142 164 0
137 157 0
157 179 0
124 144 0
150 171 0
143 163 0
130 151 0
148 169 0
143 164 0
149 170 0
139 160 0
131 152 0
147 168 0
155 176 0
141 161 0
137 159 0
153 174 0
146 167 0
142 161 0
147 167 0
147 169 0
143 165 0
145 167 0
152 173 0
149 171 0
146 168 0
146 169 0
138 159 0
144 163 0
155 175 0
141 161 0
156 178 0
150 174 0
150 169 0
145 166 0
151 173 0
156 177 0
162 185 0
142 163 0
158 179 0
147 169 0
159 180 0
150 171 0
157 179 0
164 186 0
156 178 0
160 181 0
166 187 0
156 178 0
166 188 0
156 179 0
157 180 0
162 184 0
163 186 0
159 180 0
161 186 0
153 175 0
169 193 0
150 173 0
163 185 0
154 173 0
167 189 0
162 185 0
168 191 0
157 177 0
167 190 0
162 183 0
162 183 0
160 179 0
158 180 0
159 182 0
166 188 0
168 189 0
160 182 0
165 187 0
168 189 0
162 184 0
160 178 0
165 186 0
164 187 0
168 190 0
167 187 0
166 187 0
172 195 0
165 187 0
168 191 0
165 185 0
170 192 0
165 188 0
167 191 0
162 183 0
165 188 0
168 189 0
163 184 0
168 189 0
165 187 0
169 193 0
167 188 0
166 187 0
168 188 0
168 191 0
171 193 0
159 181 0
168 190 0
163 186 0
168 189 0
172 193 0
168 191 0
166 188 0
168 190 0
165 188 0
166 189 0
163 186 0
172 193 0
164 187 0
172 192 0
171 195 0
174 195 0
172 194 0
169 191 0
170 192 0
171 193 0
163 184 0
168 191 0
171 193 0
172 195 0
175 197 0
173 195 0
171 194 0
165 188 0
164 187 0
172 195 0
169 191 0
175 198 0
171 195 0
167 189 0
168 192 0
174 195 0
173 195 0
173 195 0
172 194 0
170 194 0
171 195 0
175 197 0
172 196 0
174 196 0
172 196 0
175 198 0
172 195 0
172 195 0
169 192 0
170 195 0
174 196 0
173 194 0
167 191 0
168 192 0
169 191 0
171 194 0
175 198 0
173 195 0
171 194 0
175 197 0
173 197 0
173 196 0
170 194 0
170 193 0
172 196 0
171 194 0
172 196 0
173 196 0
175 198 0
168 190 0
171 194 0
175 198 0
172 194 0
172 196 0
175 198 0
174 198 0
171 194 0
172 196 0
175 197 0
175 196 0
172 195 0
172 195 0
174 197 0
176 198 0
174 198 0
174 197 0
170 193 0
175 197 0
174 196 0
174 198 0
169 192 0
174 198 0
172 196 0
174 196 0
175 198 0
171 195 0
171 195 0
173 196 0
174 198 0
171 195 0
173 197 0
173 197 0
172 196 0
174 197 0
170 194 0
173 197 0
173 196 0
169 194 0
172 195 0
171 195 0
172 195 0
171 195 0
173 197 0
176 198 0
169 194 0
175 198 0
170 194 0
172 195 0
172 196 0
174 197 0
171 195 0
165 189 0
174 197 0
173 197 0
172 195 0
173 196 0
173 197 0
173 196 0
170 194 0
171 195 0
169 193 0
175 198 0
173 196 0
171 195 0
175 198 0
170 193 0
173 197 0
168 193 0
173 196 0
171 194 0
173 195 0
173 196 0
167 191 0
171 195 0
172 196 0
168 191 0
173 197 0
170 194 0
169 193 0
170 195 0
173 197 0
171 196 0
169 194 0
173 196 0
172 196 0
174 197 0
170 194 0
167 191 0
172 196 0
173 196 0
173 197 0
174 198 0
168 192 0
173 196 0
170 193 0
171 196 0
168 192 0
170 194 0
173 197 0
175 198 0
175 198 0
173 197 0
174 197 0
175 197 36
176 199 36
173 197 51
169 192 36
176 199 51
177 199 72
172 195 62
173 198 36
178 200 95
175 196 88
162 185 51
172 196 62
174 195 88
162 184 84
166 189 36
174 195 128
172 196 51
167 191 84
170 193 92
163 186 76
175 197 105
177 200 72
175 198 88
178 200 102
173 196 80
173 197 108
175 198 95
177 200 102
174 196 95
178 200 88
173 196 102
178 200 102
177 199 120
175 198 120
164 187 88
175 199 125
166 189 36
169 191 72
170 193 102
169 193 95
164 187 88
168 190 72
169 192 102
166 189 72
172 195 102
170 194 80
174 197 88
170 193 88
163 186 102
171 193 95
163 186 95
161 184 62
165 187 102
174 196 120
176 198 95
165 185 80
163 184 108
165 188 108
154 175 51
159 181 88
154 175 95
165 187 120
163 184 130
161 183 102
161 182 80
166 187 114
165 187 95
156 176 88
158 178 102
160 182 80
151 173 102
163 184 102
173 194 135
173 194 125
141 162 36
149 170 72
159 179 72
153 173 62
160 179 102
153 172 102
155 175 72
153 176 0
160 182 51
147 169 0
137 158 0
138 158 36
147 170 0
153 175 51
152 175 0
163 184 0
164 186 0
155 176 0
155 178 0
159 181 0
160 181 0
145 167 0
148 168 0
138 157 0
147 169 0
145 166 0
131 152 0
126 147 0
150 173 0
120 141 0
131 152 0
145 166 0
132 152 0
148 168 0
133 154 0
122 144 0
132 152 0
133 152 0
142 164 0
129 150 0
143 164 0
138 159 0
144 165 0
128 149 0
137 160 0
136 156 0
127 150 0
135 156 0
138 158 0
133 156 0
145 167 0
140 161 0
153 173 0
149 170 0
148 168 0
137 157 0
142 163 0
133 152 0
135 156 0
131 153 0
138 161 0
145 166 0
145 166 0
150 173 0
141 163 0
146 169 0
142 164 0
143 164 0
149 171 0
149 172 0
134 155 0
148 170 0
148 169 0
155 176 0
145 166 0
155 178 0
148 170 0
150 174 0
143 164 0
147 170 0
158 179 0
147 169 0
156 178 0
149 169 0
150 172 0
158 178 0
157 178 0
146 168 0
150 172 0
147 169 0
151 173 0
148 171 0
153 174 0
156 177 0
154 178 0
163 183 0
147 168 0
160 182 0
163 187 0
160 183 0
160 183 0
161 180 0
165 188 0
155 177 0
160 182 0
169 190 0
155 175 0
159 181 0
161 183 0
163 186 0
163 187 0
165 188 0
167 188 0
153 174 0
157 178 0
156 177 0
150 172 0
158 179 0
159 179 0
155 176 0
161 181 0
164 185 0
168 191 0
164 184 0
165 187 0
153 172 0
164 187 0
162 184 0
162 182 0
169 192 0
164 187 0
163 185 0
164 185 0
165 186 0
168 190 0
160 181 0
162 185 0
169 191 0
171 194 0
165 188 0
162 182 0
169 190 0
172 193 0
160 182 0
169 191 0
166 189 0
161 183 0
166 187 0
165 186 0
168 190 0
167 188 0
165 188 0
165 188 0
166 190 0
170 194 0
167 190 0
163 184 0
170 193 0
168 191 0
168 190 0
170 193 0
170 193 0
164 188 0
170 193 0
171 194 0
167 189 0
170 192 0
163 186 0
170 193 0
174 196 0
172 195 0
170 193 0
174 197 0
172 195 0
174 196 0
174 195 0
169 194 0
174 197 0
174 196 0
173 196 0
171 194 0
167 191 0
165 189 0
174 196 0
172 195 0
171 193 0
169 190 0
173 195 0
174 196 0
170 194 0
170 191 0
160 183 0
173 196 0
171 194 0
171 195 0
169 192 0
172 196 0
175 198 0
173 195 0
174 197 0
169 192 0
170 194 0
170 191 0
169 194 0
172 195 0
170 194 0
169 192 0
177 199 0
169 192 0
169 191 0
171 195 0
175 197 0
171 195 0
163 186 0
173 196 0
177 199 0
175 198 0
175 198 0
171 195 0
173 197 0
172 195 0
175 197 0
172 196 0
173 197 0
173 196 0
171 195 0
172 196 0
174 197 0
169 192 0
172 196 0
174 196 0
173 196 0
174 197 0
174 198 0
175 198 0
172 196 0
171 193 0
174 196 0
174 197 0
173 196 0
171 195 0
173 197 0
173 197 0
176 198 0
175 197 0
170 191 0
172 196 0
174 197 0
176 198 0
171 195 0
173 196 0
173 196 0
173 196 0
175 198 0
171 194 0
175 198 0
172 195 0
174 197 0
172 195 0
174 197 0
174 197 0
172 196 0
174 198 0
173 197 0
170 193 0
172 197 0
172 197 0
173 196 0
172 195 0
173 196 0
174 198 0
169 194 0
173 196 0
171 195 0
172 197 0
173 197 0
169 193 0
171 195 0
173 197 0
174 198 0
173 196 0
171 195 0
173 196 0
174 197 0
174 198 0
174 197 0
173 197 0
172 195 0
172 196 0
176 198 0
172 196 0
173 197 0
173 197 0
171 193 0
175 198 0
171 194 0
171 194 0
172 196 0
173 197 0
177 199 0
170 193 0
176 198 0
162 186 0
170 193 0
174 196 0
171 194 0
170 194 0
169 193 0
170 193 0
170 194 0
172 195 0
165 189 0
173 197 0
172 196 0
172 195 0
172 196 0
169 194 0
173 197 0
170 195 0
172 196 0
174 197 0
172 195 0
175 198 0
173 196 0
173 196 0
177 199 0
174 198 36
178 201 88
175 197 62
178 200 62
171 194 51
176 198 36
171 194 62
173 196 72
176 198 88
164 186 62
167 190 51
174 196 51
176 198 80
163 185 80
166 189 80
161 184 84
169 192 99
162 186 72
166 190 88
162 185 44
169 191 88
175 197 76
170 193 99
174 197 111
170 193 95
173 196 72
171 194 95
178 200 102
179 202 108
178 201 114
168 192 88
167 191 88
178 199 108
176 200 120
179 202 108
163 186 72
174 197 108
175 198 125
167 189 95
170 193 88
168 190 95
177 201 120
173 196 125
174 197 88
168 193 130
167 190 51
169 191 80
160 183 72
167 189 80
163 184 88
169 190 108
164 185 102
164 189 108
156 179 51
154 176 88
163 185 114
155 177 95
162 185 95
163 185 72
159 181 102
167 189 88
162 182 51
166 188 108
163 185 72
164 185 72
168 190 102
153 175 95
172 192 125
155 178 80
166 187 108
169 190 114
167 188 120
158 178 95
168 188 114
170 189 120
159 180 80
161 181 80
161 182 95
145 166 72
159 180 95
160 181 62
139 161 51
161 182 51
148 169 0
144 166 0
145 167 0
140 163 36
149 170 0
153 174 36
157 178 0
160 183 0
164 186 0
155 178 0
157 179 0
153 175 0
148 171 0
141 162 0
147 169 0
140 162 0
130 150 0
131 153 0
147 168 0
151 172 0
134 154 0
154 176 0
132 153 0
132 150 0
140 160 0
134 156 0
137 158 0
144 165 0
146 167 0
144 165 0
140 162 0
132 151 0
143 164 0
140 162 0
136 159 0
133 155 0
118 139 0
137 159 0
133 153 0
150 172 0
132 152 0
140 163 0
146 168 0
145 167 0
143 164 0
140 161 0
140 162 0
151 173 0
123 145 0
150 171 0
148 171 0
142 163 0
148 170 0
146 167 0
148 168 0
150 172 0
142 164 0
146 168 0
146 167 0
151 175 0
151 171 0
150 172 0
148 171 0
146 169 0
140 163 0
142 164 0
153 173 0
152 175 0
147 169 0
152 173 0
148 171 0
153 176 0
151 172 0
150 171 0
149 171 0
157 177 0
150 171 0
154 176 0
158 177 0
148 171 0
151 173 0
159 180 0
150 171 0
153 172 0
152 172 0
158 179 0
155 176 0
163 186 0
166 188 0
164 186 0
169 191 0
162 184 0
172 193 0
157 176 0
157 178 0
161 183 0
156 178 0
160 182 0
168 192 0
161 183 0
166 185 0
160 182 0
160 182 0
162 183 0
164 186 0
160 183 0
157 178 0
167 190 0
162 184 0
167 188 0
162 184 0
164 187 0
163 184 0
162 185 0
159 179 0
161 183 0
163 186 0
167 188 0
155 175 0
165 189 0
168 191 0
168 190 0
162 183 0
167 190 0
164 187 0
161 184 0
172 196 0
163 187 0
160 183 0
166 188 0
171 193 0
168 188 0
168 192 0
168 189 0
163 184 0
163 185 0
165 188 0
160 183 0
169 191 0
169 191 0
171 195 0
163 185 0
163 184 0
168 192 0
168 190 0
166 186 0
167 187 0
172 194 0
171 192 0
164 185 0
170 193 0
168 190 0
170 192 0
167 190 0
168 191 0
169 193 0
174 198 0
171 191 0
169 191 0
169 192 0
170 193 0
169 193 0
167 190 0
166 188 0
173 197 0
167 190 0
169 191 0
171 195 0
170 193 0
169 194 0
172 194 0
174 196 0
171 194 0
167 190 0
171 194 0
171 194 0
166 189 0
168 192 0
171 194 0
172 194 0
173 196 0
171 194 0
170 194 0
172 195 0
171 194 0
171 193 0
173 196 0
175 198 0
171 194 0
171 194 0
172 194 0
171 194 0
175 198 0
172 193 0
170 191 0
172 195 0
173 196 0
173 196 0
174 195 0
175 198 0
172 197 0
172 193 0
170 195 0
174 197 0
171 195 0
172 195 0
172 194 0
171 195 0
167 190 0
171 195 0
171 194 0
175 197 0
170 193 0
175 197 0
173 197 0
173 196 0
173 197 0
174 198 0
171 194 0
173 197 0
174 197 0
175 197 0
174 197 0
174 197 0
174 196 0
174 197 0
171 193 0
169 193 0
175 197 0
171 195 0
175 196 0
175 197 0
171 194 0
168 193 0
172 196 0
174 197 0
170 195 0
171 194 0
174 197 0
169 193 0
175 198 0
173 197 0
171 193 0
173 196 0
172 196 0
174 197 0
177 199 0
172 196 0
176 198 0
174 198 0
174 197 0
171 194 0
172 196 0
174 198 0
169 192 0
173 197 0
177 199 0
173 196 0
175 198 0
172 194 0
168 192 0
173 197 0
173 196 0
172 196 0
172 196 0
171 195 0
172 196 0
171 194 0
175 197 0
173 196 0
175 198 0
172 197 0
172 196 0
178 200 0
174 198 0
173 196 0
168 192 0
176 198 0
172 196 0
174 198 0
172 197 0
171 195 0
172 196 0
175 198 0
175 198 0
176 198 0
175 197 0
172 197 0
169 193 0
171 194 0
167 190 0
172 196 0
173 196 0
172 195 0
167 191 0
174 198 0
169 193 0
174 197 0
173 197 0
174 198 0
172 196 0
171 196 0
170 194 0
173 196 0
174 196 0
169 193 0
170 193 0
174 198 0
172 195 0
168 191 0
172 194 0
173 197 0
173 197 0
174 197 0
175 198 0
175 198 0
174 198 0
174 197 0
176 199 36
179 200 62
173 196 36
174 196 72
171 194 62
175 198 36
170 194 0
176 198 80
175 197 80
165 189 36
166 188 84
165 187 80
169 191 76
168 191 80
165 186 72
170 193 95
162 185 62
168 191 72
169 191 92
164 187 99
163 187 36
160 184 88
179 201 120
169 192 84
178 200 120
175 198 114
169 192 88
167 190 72
168 192 72
171 193 102
178 200 114
163 186 80
167 189 102
168 191 72
168 191 102
173 196 102
169 191 95
171 194 88
167 190 95
170 192 80
166 190 62
171 194 120
165 188 102
172 195 114
172 195 95
170 193 114
174 197 102
160 184 95
165 190 120
161 183 95
159 181 88
166 188 88
167 189 72
169 192 80
168 191 102
168 190 130
164 186 80
164 186 88
159 181 95
166 187 95
161 183 88
166 188 88
168 188 102
161 183 80
165 186 51
163 184 114
150 171 108
163 183 80
151 172 80
167 185 114
162 183 80
167 188 95
161 182 72
152 172 88
146 166 62
166 186 80
154 174 80
157 178 62
169 190 88
161 182 51
152 174 51
161 184 62
144 167 0
149 171 0
159 181 72
148 171 36
135 156 0
145 167 0
160 183 0
165 188 0
152 173 0
162 183 0
150 170 0
138 158 0
144 166 0
150 171 0
144 164 0
141 162 0
137 158 0
153 175 0
144 165 0
149 170 0
142 162 0
145 165 0
148 169 0
147 169 0
142 163 0
143 164 0
141 164 0
138 159 0
137 157 0
141 164 0
150 173 0
146 166 0
136 158 0
142 162 0
135 156 0
136 156 0
142 160 0
136 158 0
145 167 0
135 157 0
141 163 0
139 159 0
135 158 0
149 172 0
151 171 0
138 159 0
136 157 0
144 165 0
140 162 0
140 162 0
141 161 0
137 158 0
158 180 0
145 166 0
135 156 0
147 169 0
147 167 0
147 170 0
155 175 0
141 161 0
150 170 0
150 171 0
154 175 0
145 168 0
155 175 0
151 173 0
145 167 0
158 181 0
157 180 0
155 177 0
155 175 0
157 180 0
150 173 0
159 182 0
142 165 0
148 169 0
155 175 0
159 182 0
156 178 0
149 171 0
157 177 0
151 173 0
165 187 0
152 175 0
153 175 0
159 181 0
156 179 0
156 178 0
154 175 0
157 180 0
160 182 0
156 178 0
162 186 0
160 181 0
165 186 0
160 183 0
161 184 0
156 177 0
155 176 0
168 189 0
161 184 0
162 184 0
166 189 0
162 183 0
160 181 0
160 183 0
158 180 0
172 195 0
162 184 0
159 183 0
154 176 0
162 183 0
171 193 0
163 185 0
168 190 0
160 181 0
158 179 0
169 192 0
170 193 0
170 192 0
165 187 0
165 186 0
166 188 0
160 182 0
171 193 0
166 188 0
165 186 0
171 195 0
164 188 0
166 189 0
164 187 0
165 187 0
165 187 0
167 191 0
164 186 0
164 185 0
165 186 0
173 196 0
168 190 0
164 186 0
164 187 0
166 189 0
168 190 0
172 195 0
165 188 0
166 190 0
171 195 0
166 187 0
169 193 0
167 188 0
167 189 0
165 188 0
170 192 0
169 192 0
170 191 0
171 194 0
167 190 0
169 191 0
171 194 0
168 192 0
166 188 0
168 191 0
167 190 0
167 188 0
169 191 0
168 192 0
167 189 0
170 193 0
171 192 0
169 194 0
171 194 0
163 186 0
171 193 0
172 196 0
167 191 0
165 189 0
164 186 0
170 193 0
168 190 0
172 194 0
170 194 0
169 192 0
173 197 0
171 194 0
168 192 0
170 192 0
169 192 0
173 197 0
174 197 0
169 193 0
172 195 0
168 190 0
173 196 0
171 193 0
174 197 0
174 198 0
172 195 0
172 194 0
171 194 0
171 193 0
174 197 0
170 192 0
172 196 0
175 196 0
170 193 0
167 191 0
174 197 0
169 193 0
175 198 0
171 195 0
173 196 0
172 195 0
176 198 0
169 193 0
174 198 0
174 197 0
175 197 0
173 197 0
172 195 0
172 196 0
173 196 0
174 197 0
176 199 0
172 195 0
175 197 0
171 194 0
172 194 0
175 198 0
172 196 0
172 196 0
172 196 0
174 197 0
170 194 0
173 197 0
173 197 0
170 193 0
172 196 0
172 195 0
171 195 0
171 194 0
174 198 0
170 193 0
170 195 0
175 198 0
172 196 0
174 198 0
173 196 0
173 196 0
174 197 0
171 194 0
175 198 0
169 193 0
170 194 0
172 196 0
173 197 0
175 198 0
175 198 0
172 196 0
175 198 0
174 198 0
170 194 0
173 197 0
171 195 0
172 197 0
169 194 0
174 197 0
175 198 0
171 195 0
174 197 0
175 198 0
173 196 0
177 199 0
172 196 0
171 195 0
169 193 0
167 191 0
173 196 0
171 194 0
171 195 0
170 194 0
168 193 0
171 194 0
174 196 0
174 197 0
166 191 0
171 194 0
176 198 0
171 195 0
172 195 0
171 195 0
172 196 0
170 194 0
171 195 0
171 196 0
170 194 0
172 197 0
175 198 0
171 194 0
169 191 0
166 189 0
173 197 0
172 197 0
170 194 0
171 195 0
172 195 0
172 196 0
172 195 0
171 194 0
169 193 0
173 197 0
170 195 0
172 196 0
174 197 0
171 195 0
176 199 0
170 194 0
177 199 0
175 198 0
175 198 0
178 201 72
168 191 0
174 197 36
175 197 62
174 197 36
163 186 44
171 194 72
170 193 88
176 198 95
175 197 95
173 195 76
159 181 80
168 191 51
165 188 84
172 195 95
172 194 80
170 193 76
164 188 57
165 188 84
160 183 92
173 195 125
167 190 51
175 198 105
170 194 62
176 199 108
177 200 95
170 192 120
173 196 120
178 200 108
177 199 120
171 195 95
170 193 108
172 195 80
168 192 88
171 194 95
166 189 62
172 194 0
173 195 102
169 191 95
168 190 95
160 183 80
158 180 80
166 188 80
171 194 108
169 193 114
168 190 120
165 188 114
163 185 88
173 194 95
170 192 95
172 194 102
172 194 102
162 184 72
164 186 95
167 188 95
174 195 80
159 182 114
168 190 114
166 187 102
168 190 95
165 187 88
167 188 102
166 186 80
164 185 108
159 181 80
170 189 120
170 189 80
165 186 95
155 175 51
161 182 80
152 173 72
160 180 95
158 179 88
153 173 72
152 173 95
147 169 62
142 163 72
157 179 62
151 172 36
156 178 51
156 176 62
146 167 0
146 170 36
153 175 36
153 175 0
154 174 36
160 182 0
162 186 0
165 188 0
160 182 0
157 180 0
155 176 0
157 179 0
146 167 0
151 173 0
153 175 0
139 161 0
160 182 0
121 143 0
147 168 0
144 166 0
143 164 0
142 163 0
132 154 0
146 166 0
144 165 0
148 170 0
143 165 0
130 152 0
127 147 0
145 166 0
139 161 0
149 171 0
151 172 0
139 160 0
143 164 0
135 157 0
139 160 0
153 173 0
150 171 0
157 179 0
155 177 0
151 172 0
133 155 0
148 170 0
121 142 0
155 177 0
150 172 0
146 168 0
135 155 0
152 173 0
142 165 0
159 180 0
151 174 0
141 163 0
156 177 0
159 180 0
148 169 0
150 173 0
150 172 0
149 172 0
152 172 0
150 172 0
153 175 0
149 172 0
148 170 0
152 172 0
150 171 0
149 169 0
152 174 0
154 176 0
147 169 0
149 171 0
155 176 0
143 167 0
155 178 0
159 181 0
150 171 0
154 175 0
145 167 0
159 182 0
157 179 0
148 170 0
163 185 0
159 181 0
148 170 0
159 183 0
158 181 0
154 177 0
157 178 0
157 180 0
153 176 0
154 175 0
160 181 0
160 182 0
151 174 0
155 176 0
162 183 0
162 184 0
162 181 0
161 184 0
153 175 0
157 178 0
165 186 0
159 180 0
154 177 0
158 180 0
163 186 0
161 185 0
162 185 0
161 184 0
163 186 0
158 180 0
162 185 0
160 182 0
164 188 0
161 184 0
165 186 0
167 191 0
167 191 0
164 185 0
165 188 0
170 193 0
171 194 0
162 184 0
161 184 0
170 191 0
170 192 0
158 180 0
171 192 0
164 187 0
168 192 0
159 180 0
172 195 0
157 178 0
166 188 0
170 191 0
167 190 0
162 185 0
169 192 0
170 193 0
164 188 0
170 192 0
163 185 0
168 189 0
173 195 0
169 190 0
173 194 0
161 184 0
168 192 0
168 189 0
171 194 0
167 189 0
165 188 0
166 189 0
167 190 0
172 193 0
168 190 0
169 192 0
168 193 0
167 190 0
173 195 0
171 193 0
173 196 0
166 189 0
165 188 0
171 193 0
166 188 0
173 196 0
170 193 0
170 192 0
170 192 0
171 193 0
171 195 0
171 195 0
170 193 0
165 187 0
172 194 0
174 197 0
171 194 0
167 192 0
173 195 0
170 193 0
172 195 0
169 193 0
169 191 0
168 190 0
172 194 0
170 193 0
176 197 0
172 195 0
169 192 0
172 193 0
171 194 0
173 196 0
173 196 0
173 197 0
171 192 0
173 196 0
174 196 0
171 196 0
175 197 0
171 194 0
171 195 0
171 194 0
174 197 0
172 195 0
174 197 0
174 196 0
171 195 0
174 198 0
174 195 0
174 195 0
174 196 0
175 197 0
172 197 0
171 194 0
171 193 0
173 196 0
173 196 0
177 198 0
172 196 0
175 198 0
170 194 0
174 197 0
172 194 0
168 190 0
171 195 0
173 197 0
172 196 0
173 196 0
173 196 0
175 198 0
172 195 0
175 197 0
176 198 0
175 198 0
173 197 0
174 197 0
173 197 0
173 197 0
171 195 0
176 199 0
175 198 0
175 197 0
172 196 0
174 197 0
175 198 0
175 198 0
174 198 0
175 198 0
175 198 0
173 196 0
168 192 0
176 198 0
172 196 0
174 197 0
173 195 0
174 198 0
174 198 0
172 196 0
172 196 0
171 194 0
175 198 0
174 197 0
171 196 0
174 198 0
173 196 0
175 198 0
170 194 0
175 197 0
176 198 0
172 195 0
175 198 0
173 196 0
174 197 0
173 196 0
175 198 0
176 199 0
174 197 0
171 195 0
170 193 0
173 196 0
174 197 0
172 196 0
168 192 0
175 197 0
171 194 0
170 194 0
172 195 0
171 195 0
172 196 0
175 198 0
171 194 0
173 196 0
168 194 0
172 196 0
170 194 0
171 195 0
170 194 0
172 195 0
172 196 0
169 192 0
170 193 0
172 196 0
165 189 0
167 191 0
171 195 0
167 191 0
172 195 0
174 197 0
172 196 0
174 197 0
175 197 0
172 197 0
171 194 0
173 197 0
177 199 0
175 198 0
173 196 0
172 196 0
174 197 62
170 193 62
175 197 62
174 196 36
174 198 72
172 194 72
170 192 51
167 190 51
178 199 95
168 191 80
174 196 80
164 187 76
163 186 67
170 192 72
172 195 51
177 199 80
166 189 95
166 189 88
175 197 95
164 187 72
163 186 102
174 196 92
177 199 88
177 199 117
166 190 80
175 198 80
174 197 108
173 195 108
177 200 108
171 193 95
178 200 95
167 191 80
169 192 102
178 201 125
172 195 114
176 199 114
173 196 95
167 190 95
174 197 72
169 192 80
168 190 88
168 191 72
170 192 114
166 189 95
167 189 120
165 187 80
166 188 51
170 193 108
164 188 102
164 185 62
171 192 95
160 182 80
155 177 51
162 183 102
165 186 88
174 195 120
160 182 80
155 177 80
163 184 72
159 180 95
175 196 120
162 182 88
161 182 88
159 181 80
170 191 102
160 179 102
176 198 125
165 186 80
155 176 88
163 183 80
159 180 51
167 186 120
161 181 95
161 182 80
149 169 72
163 184 80
161 182 72
141 163 51
159 181 62
158 178 36
151 173 0
154 175 0
164 185 36
157 179 0
156 178 36
167 189 0
152 175 0
160 183 0
163 186 0
156 179 0
153 175 0
150 172 0
150 174 0
142 162 0
146 168 0
141 162 0
154 176 0
134 154 0
149 171 0
141 162 0
141 163 0
146 167 0
152 174 0
135 159 0
153 175 0
144 165 0
149 172 0
138 157 0
147 168 0
143 164 0
139 159 0
147 169 0
133 154 0
146 169 0
137 159 0
142 164 0
146 167 0
152 174 0
157 180 0
138 159 0
135 156 0
142 164 0
155 177 0
154 176 0
138 159 0
140 163 0
137 159 0
144 166 0
158 179 0
139 159 0
149 170 0
144 165 0
149 171 0
145 167 0
144 165 0
145 168 0
156 178 0
151 173 0
157 178 0
151 172 0
143 163 0
156 177 0
141 164 0
162 184 0
149 169 0
159 181 0
146 168 0
152 174 0
141 163 0
146 167 0
165 188 0
160 184 0
150 173 0
151 174 0
164 186 0
158 179 0
166 187 0
151 173 0
154 176 0
152 173 0
154 175 0
163 185 0
152 174 0
159 183 0
152 171 0
167 193 0
160 182 0
159 183 0
161 183 0
170 194 0
165 188 0
167 189 0
155 178 0
158 180 0
155 177 0
162 185 0
164 186 0
155 176 0
157 178 0
157 179 0
164 187 0
161 184 0
152 175 0
170 193 0
164 185 0
167 188 0
171 191 0
167 190 0
160 180 0
161 183 0
165 187 0
158 181 0
166 187 0
168 191 0
165 187 0
159 181 0
160 182 0
163 186 0
164 187 0
168 191 0
163 186 0
168 191 0
170 192 0
169 192 0
166 188 0
172 195 0
171 193 0
161 183 0
167 191 0
164 187 0
162 183 0
166 188 0
166 189 0
166 190 0
167 191 0
163 187 0
167 190 0
165 187 0
164 187 0
166 188 0
168 191 0
164 186 0
171 194 0
170 192 0
170 191 0
167 190 0
164 186 0
169 191 0
166 189 0
170 192 0
163 187 0
172 193 0
170 193 0
163 187 0
169 191 0
168 191 0
172 195 0
169 192 0
168 190 0
170 191 0
169 192 0
173 196 0
173 196 0
172 195 0
171 192 0
170 192 0
165 187 0
165 188 0
172 194 0
170 193 0
173 194 0
171 192 0
170 193 0
171 195 0
174 195 0
171 194 0
174 197 0
173 196 0
172 194 0
173 197 0
172 195 0
172 197 0
171 192 0
172 195 0
170 194 0
169 193 0
172 196 0
170 192 0
167 189 0
173 196 0
169 192 0
172 195 0
173 197 0
169 193 0
170 193 0
171 195 0
167 190 0
172 195 0
171 194 0
170 193 0
175 198 0
172 195 0
172 194 0
170 193 0
172 195 0
174 197 0
173 197 0
173 196 0
171 194 0
175 197 0
173 197 0
173 197 0
174 197 0
170 193 0
173 197 0
173 197 0
169 193 0
175 197 0
173 196 0
174 197 0
173 197 0
172 195 0
175 198 0
171 195 0
173 197 0
172 195 0
174 197 0
172 197 0
172 196 0
175 198 0
173 196 0
174 197 0
174 198 0
173 196 0
172 195 0
174 197 0
171 194 0
172 196 0
174 198 0
173 196 0
173 196 0
170 194 0
173 197 0
173 197 0
173 197 0
172 195 0
170 193 0
175 198 0
174 198 0
173 197 0
170 194 0
175 198 0
172 196 0
173 196 0
174 197 0
172 196 0
171 195 0
175 198 0
173 196 0
176 198 0
172 195 0
173 196 0
169 193 0
174 198 0
173 197 0
175 198 0
174 197 0
173 196 0
175 198 0
175 198 0
166 191 0
175 198 0
172 196 0
172 197 0
173 197 0
170 194 0
174 198 0
172 195 0
172 195 0
174 198 0
173 196 0
172 194 0
172 196 0
168 193 0
173 197 0
169 191 0
172 195 0
174 198 0
172 196 0
170 194 0
171 194 0
172 196 0
170 194 0
166 190 0
168 192 0
172 196 0
171 195 0
174 197 0
171 194 0
172 196 0
172 196 0
174 197 0
172 196 0
173 196 0
170 195 0
169 192 0
174 197 0
171 194 0
173 195 0
172 195 0
171 194 0
176 199 0
170 194 0
173 197 0
174 197 0
171 194 0
175 198 0
173 197 0
172 196 0
172 196 0
171 195 36
175 197 36
166 189 51
170 192 36
170 193 44
172 196 36
168 191 36
169 192 36
171 194 51
166 188 51
163 186 72
166 188 84
170 193 84
172 194 72
173 195 80
168 190 62
173 195 99
172 194 76
164 186 57
165 188 57
161 183 72
168 191 76
169 191 92
167 190 95
178 200 102
173 195 114
181 203 125
168 192 80
176 199 108
168 191 102
177 200 114
170 192 120
174 196 114
168 191 108
170 193 114
173 196 108
168 191 72
164 188 108
172 194 108
166 189 88
175 197 120
164 186 72
169 191 108
158 180 102
168 189 80
167 188 88
164 186 108
171 194 88
163 185 88
168 189 102
165 187 114
171 192 62
164 184 88
164 186 80
163 185 102
161 181 88
171 193 88
166 188 102
174 196 114
160 182 62
164 186 80
161 180 95
167 188 102
160 181 95
165 186 102
170 193 108
166 189 88
158 181 80
164 185 88
165 185 95
164 185 102
166 188 51
166 186 80
158 179 72
148 169 51
161 181 72
156 177 62
156 178 72
160 182 51
166 188 0
154 176 0
160 182 36
159 182 0
155 176 36
160 182 0
156 178 0
163 188 0
153 176 0
157 181 0
150 172 0
149 171 0
157 180 0
156 178 0
158 179 0
152 175 0
141 161 0
147 167 0
146 168 0
145 167 0
147 168 0
141 162 0
159 181 0
138 158 0
156 177 0
145 169 0
151 174 0
148 170 0
147 168 0
157 181 0
150 172 0
153 175 0
151 173 0
144 165 0
143 166 0
147 169 0
143 165 0
144 165 0
153 176 0
135 155 0
144 166 0
147 169 0
147 169 0
149 171 0
150 171 0
153 175 0
148 170 0
139 163 0
150 173 0
153 174 0
147 170 0
155 177 0
141 163 0
148 169 0
162 183 0
153 175 0
160 182 0
146 167 0
150 173 0
135 156 0
151 171 0
154 177 0
149 168 0
151 173 0
153 175 0
154 174 0
157 180 0
151 173 0
154 176 0
145 167 0
137 158 0
156 179 0
153 176 0
153 177 0
156 177 0
157 179 0
153 176 0
160 183 0
163 184 0
158 180 0
160 183 0
161 183 0
163 185 0
154 173 0
155 176 0
162 185 0
166 190 0
155 175 0
158 180 0
159 181 0
161 182 0
159 179 0
158 180 0
158 179 0
158 182 0
158 180 0
154 176 0
165 188 0
157 179 0
158 179 0
160 182 0
158 179 0
160 183 0
163 186 0
163 185 0
164 188 0
161 182 0
167 191 0
162 183 0
165 188 0
161 184 0
163 186 0
164 186 0
160 182 0
167 191 0
166 189 0
165 188 0
164 187 0
165 186 0
167 190 0
160 181 0
162 185 0
163 186 0
166 189 0
164 187 0
167 191 0
171 192 0
171 192 0
156 177 0
165 189 0
160 181 0
168 191 0
171 194 0
170 193 0
171 191 0
169 191 0
165 189 0
163 185 0
170 193 0
162 185 0
173 195 0
165 186 0
169 191 0
161 185 0
173 196 0
168 191 0
166 188 0
161 184 0
170 192 0
162 186 0
169 193 0
168 193 0
167 189 0
169 190 0
166 187 0
171 194 0
168 190 0
168 191 0
174 196 0
166 190 0
170 192 0
165 188 0
174 198 0
175 198 0
170 192 0
172 194 0
169 191 0
169 190 0
171 194 0
173 196 0
171 194 0
166 188 0
175 198 0
173 193 0
172 195 0
171 193 0
170 193 0
170 193 0
172 196 0
171 195 0
172 194 0
171 193 0
172 196 0
173 197 0
171 194 0
170 192 0
171 194 0
172 195 0
168 191 0
171 193 0
168 192 0
168 192 0
172 197 0
171 193 0
168 192 0
171 194 0
174 197 0
174 196 0
175 198 0
169 192 0
168 191 0
172 195 0
168 192 0
170 194 0
174 196 0
171 193 0
176 198 0
168 192 0
171 195 0
173 196 0
170 193 0
170 193 0
170 194 0
171 193 0
168 191 0
172 195 0
172 194 0
175 197 0
172 195 0
174 198 0
172 195 0
175 198 0
174 195 0
176 198 0
172 196 0
173 197 0
173 197 0
173 196 0
174 198 0
174 196 0
170 194 0
171 194 0
172 197 0
170 194 0
174 197 0
173 196 0
175 198 0
174 195 0
173 196 0
175 198 0
173 197 0
176 199 0
172 197 0
175 198 0
174 198 0
172 196 0
173 197 0
175 198 0
175 198 0
174 198 0
173 196 0
173 196 0
176 198 0
173 196 0
171 195 0
173 197 0
174 198 0
173 197 0
173 196 0
173 197 0
171 194 0
174 197 0
172 197 0
177 199 0
173 197 0
173 197 0
169 193 0
174 197 0
173 196 0
173 197 0
173 197 0
167 192 0
168 192 0
170 194 0
170 194 0
170 194 0
174 198 0
172 195 0
175 198 0
169 194 0
176 198 0
175 198 0
174 197 0
170 195 0
173 197 0
169 191 0
171 195 0
171 195 0
171 195 0
171 195 0
173 197 0
174 197 0
169 192 0
174 197 0
174 198 0
173 196 0
169 192 0
173 196 0
176 199 0
173 197 0
170 194 0
171 195 0
169 193 0
170 195 0
169 192 0
171 195 0
169 193 0
172 195 0
167 192 0
173 197 0
172 196 0
174 196 0
170 194 0
173 196 0
176 198 0
172 196 0
173 197 0
176 199 0
175 198 0
176 198 0
173 196 0
176 199 0
171 193 72
175 198 51
175 198 57
171 194 62
172 195 36
177 199 62
167 188 62
168 191 51
166 189 67
168 191 62
178 201 72
174 197 99
158 181 62
167 190 44
173 195 72
170 193 84
167 189 67
166 188 62
171 193 88
166 188 76
170 193 72
176 199 80
171 193 120
176 197 84
171 193 102
173 196 102
171 193 102
168 191 72
173 195 108
181 203 102
166 187 80
172 195 108
170 193 80
172 196 80
173 195 120
176 199 95
170 193 88
171 193 95
171 194 88
165 188 95
168 190 108
162 184 62
168 191 95
173 194 114
172 194 80
159 182 80
175 198 108
166 188 95
163 185 88
169 192 80
153 175 80
172 194 114
167 187 80
164 187 108
163 184 88
163 183 88
168 190 102
154 175 80
158 179 88
166 188 102
167 188 95
163 185 80
160 182 80
166 189 108
161 182 108
163 183 72
163 185 88
162 183 95
156 177 62
159 180 62
163 185 62
165 186 62
160 182 80
150 171 62
159 180 88
154 175 51
150 172 62
164 186 51
160 181 0
157 179 36
163 186 0
147 168 36
151 174 0
160 183 0
161 184 0
162 185 0
159 183 0
159 180 0
168 190 0
147 169 0
151 174 0
155 177 0
146 169 0
153 174 0
168 190 0
149 172 0
143 166 0
146 168 0
158 179 0
140 161 0
153 174 0
150 173 0
143 166 0
142 162 0
133 153 0
144 165 0
150 172 0
142 164 0
144 166 0
148 170 0
145 165 0
147 169 0
147 169 0
144 164 0
147 170 0
149 171 0
150 173 0
162 185 0
146 169 0
149 172 0
141 162 0
150 173 0
140 162 0
157 179 0
139 161 0
153 176 0
147 169 0
145 167 0
156 178 0
158 180 0
154 176 0
159 181 0
147 168 0
154 176 0
157 177 0
150 172 0
152 174 0
144 165 0
145 166 0
159 182 0
143 166 0
143 164 0
159 181 0
154 176 0
154 177 0
158 181 0
159 181 0
159 179 0
152 176 0
166 189 0
160 182 0
153 177 0
166 189 0
148 171 0
159 179 0
150 172 0
159 180 0
153 176 0
161 183 0
148 170 0
147 167 0
161 184 0
163 185 0
157 178 0
160 181 0
153 175 0
161 184 0
159 182 0
161 184 0
164 187 0
153 174 0
153 173 0
165 186 0
158 179 0
156 177 0
168 190 0
169 192 0
166 188 0
170 192 0
163 186 0
166 189 0
156 178 0
162 185 0
163 186 0
164 185 0
160 182 0
161 183 0
166 187 0
163 185 0
165 187 0
162 185 0
159 181 0
155 178 0
167 187 0
164 187 0
160 184 0
166 187 0
164 186 0
163 186 0
166 188 0
161 182 0
163 186 0
169 192 0
167 189 0
165 187 0
166 188 0
167 189 0
164 185 0
172 194 0
169 191 0
164 186 0
168 191 0
166 188 0
167 190 0
165 184 0
168 189 0
171 192 0
164 184 0
169 192 0
167 188 0
169 192 0
162 183 0
173 196 0
172 196 0
160 183 0
168 191 0
163 184 0
172 194 0
172 195 0
166 187 0
167 190 0
170 193 0
170 194 0
172 195 0
167 189 0
167 190 0
167 190 0
169 192 0
171 195 0
164 187 0
163 184 0
172 194 0
172 196 0
170 192 0
170 192 0
169 191 0
172 193 0
171 195 0
170 193 0
170 192 0
170 193 0
168 191 0
171 193 0
169 191 0
171 194 0
172 196 0
167 190 0
172 195 0
170 193 0
165 186 0
167 190 0
171 193 0
170 192 0
171 194 0
173 196 0
171 195 0
172 196 0
168 192 0
168 192 0
171 195 0
175 197 0
171 195 0
170 190 0
172 195 0
170 192 0
171 195 0
174 195 0
169 191 0
168 191 0
174 197 0
170 194 0
173 193 0
172 195 0
173 195 0
170 193 0
173 196 0
173 196 0
172 193 0
173 196 0
174 196 0
172 195 0
167 191 0
174 197 0
172 195 0
173 196 0
171 195 0
168 190 0
174 197 0
172 197 0
173 195 0
175 196 0
173 196 0
176 198 0
171 195 0
170 195 0
170 193 0
173 196 0
172 196 0
171 194 0
170 194 0
173 197 0
173 196 0
175 198 0
172 196 0
172 196 0
174 197 0
170 193 0
171 195 0
175 197 0
174 197 0
172 196 0
172 197 0
171 195 0
172 196 0
173 197 0
172 196 0
175 198 0
174 197 0
176 199 0
173 197 0
171 195 0
175 198 0
172 196 0
172 197 0
173 197 0
173 196 0
175 198 0
175 198 0
175 198 0
170 194 0
173 197 0
174 197 0
172 196 0
172 195 0
174 197 0
173 196 0
173 196 0
171 195 0
170 194 0
170 193 0
173 196 0
171 194 0
173 196 0
170 193 0
172 196 0
174 198 0
174 198 0
173 196 0
173 197 0
173 196 0
173 197 0
175 198 0
176 199 0
173 197 0
171 194 0
170 192 0
172 196 0
173 197 0
170 195 0
171 195 0
171 194 0
173 196 0
170 193 0
171 195 0
174 197 0
169 193 0
167 191 0
175 197 0
172 196 0
174 197 0
168 192 0
175 197 0
173 195 0
171 195 0
172 196 0
172 196 0
175 196 0
171 194 0
172 195 0
173 196 0
177 199 0
172 196 0
173 196 0
176 198 0
171 195 0
174 197 0
174 197 0
174 198 0
174 198 0
167 191 25
166 191 0
175 198 36
172 195 0
171 194 36
175 198 62
178 200 72
168 191 0
175 198 80
167 191 44
172 194 57
171 193 88
166 190 72
172 194 102
161 184 62
165 187 80
170 192 80
173 194 86
167 189 88
156 180 84
174 197 76
170 191 95
171 193 84
170 192 36
164 187 44
170 193 76
176 198 95
177 199 135
175 197 72
173 195 108
177 199 80
171 192 95
172 194 95
175 197 62
179 201 114
174 196 102
171 194 72
176 199 114
171 195 102
172 195 120
174 196 114
174 196 88
163 183 80
161 183 72
167 189 88
164 184 95
161 182 95
166 187 80
170 190 80
159 180 95
160 181 95
174 194 120
162 183 114
161 183 88
153 176 88
157 179 80
167 187 108
166 188 95
167 188 88
163 184 80
166 188 72
164 187 72
162 182 51
160 181 62
163 184 95
172 192 80
155 176 62
162 183 72
162 182 88
159 180 36
147 168 36
164 185 72
152 173 62
162 183 62
158 180 88
167 187 102
159 180 51
157 177 51
153 177 0
154 175 51
151 172 36
163 184 36
153 176 0
154 177 0
158 182 0
160 183 0
163 186 0
151 175 0
159 182 0
159 180 0
152 174 0
153 174 0
157 178 0
144 166 0
151 172 0
150 171 0
145 168 0
150 172 0
140 163 0
156 179 0
155 177 0
152 173 0
142 163 0
154 176 0
156 178 0
155 177 0
151 173 0
147 169 0
143 164 0
157 179 0
146 168 0
149 171 0
154 176 0
142 163 0
153 174 0
150 171 0
139 161 0
153 175 0
144 167 0
151 173 0
147 169 0
143 165 0
154 176 0
151 173 0
149 170 0
139 161 0
142 164 0
138 160 0
144 165 0
154 177 0
145 166 0
157 178 0
157 178 0
154 176 0
144 166 0
151 173 0
150 171 0
154 176 0
158 180 0
154 177 0
155 177 0
155 177 0
152 173 0
157 178 0
155 178 0
156 178 0
158 179 0
151 175 0
155 176 0
154 176 0
157 180 0
154 176 0
156 179 0
162 186 0
151 175 0
158 181 0
157 179 0
144 166 0
160 183 0
158 180 0
157 179 0
157 181 0
160 182 0
158 182 0
161 184 0
164 185 0
157 181 0
157 180 0
154 178 0
165 188 0
160 181 0
159 181 0
166 189 0
159 182 0
167 189 0
160 182 0
166 190 0
166 189 0
163 185 0
160 183 0
166 190 0
159 184 0
162 184 0
169 191 0
161 183 0
166 190 0
162 185 0
155 180 0
162 185 0
172 194 0
164 186 0
163 185 0
162 185 0
162 186 0
169 192 0
161 184 0
164 187 0
160 184 0
166 189 0
162 185 0
164 187 0
166 189 0
163 186 0
162 185 0
166 188 0
169 192 0
160 182 0
165 188 0
165 188 0
174 197 0
167 189 0
165 187 0
172 195 0
171 193 0
166 189 0
171 194 0
168 190 0
161 185 0
167 190 0
161 183 0
169 191 0
169 192 0
168 190 0
165 188 0
173 195 0
173 195 0
171 194 0
167 189 0
172 193 0
168 186 0
171 194 0
173 196 0
169 191 0
169 192 0
170 193 0
170 190 0
172 196 0
171 193 0
165 186 0
175 198 0
170 193 0
170 192 0
172 195 0
166 188 0
172 195 0
168 189 0
172 195 0
173 194 0
168 191 0
173 196 0
172 194 0
172 197 0
170 194 0
174 196 0
170 194 0
169 192 0
169 193 0
174 197 0
174 197 0
172 194 0
172 194 0
169 192 0
172 194 0
173 196 0
172 196 0
169 194 0
163 184 0
169 193 0
176 199 0
172 194 0
170 192 0
174 198 0
172 194 0
173 195 0
174 198 0
166 189 0
174 198 0
172 193 0
170 194 0
174 196 0
170 193 0
173 197 0
171 194 0
172 193 0
169 193 0
172 195 0
168 191 0
170 194 0
172 195 0
170 193 0
165 190 0
169 192 0
173 194 0
175 197 0
175 198 0
169 191 0
175 198 0
172 195 0
173 196 0
173 196 0
175 197 0
171 194 0
173 196 0
169 193 0
173 195 0
176 198 0
171 194 0
173 197 0
174 197 0
173 197 0
175 196 0
169 193 0
173 196 0
172 196 0
169 193 0
171 195 0
172 196 0
174 198 0
173 197 0
174 197 0
176 199 0
172 195 0
172 195 0
176 198 0
173 197 0
172 196 0
172 196 0
174 197 0
172 196 0
172 196 0
174 197 0
169 193 0
173 197 0
175 198 0
172 195 0
169 192 0
172 196 0
168 193 0
173 197 0
171 196 0
171 194 0
175 198 0
175 197 0
176 199 0
172 196 0
169 194 0
172 196 0
173 197 0
172 196 0
170 193 0
174 197 0
174 197 0
172 195 0
171 196 0
174 198 0
173 197 0
173 196 0
167 192 0
169 192 0
173 197 0
172 196 0
175 198 0
173 197 0
169 193 0
172 196 0
167 191 0
172 196 0
174 197 0
170 194 0
174 196 0
172 195 0
171 194 0
169 193 0
172 194 0
169 193 0
173 197 0
173 196 0
174 198 0
171 194 0
172 196 0
174 198 0
172 195 0
170 194 0
168 192 0
171 195 0
169 194 0
170 193 0
170 194 0
170 194 0
173 196 0
175 197 0
172 196 0
171 194 0
172 196 0
174 197 0
171 195 0
177 199 0
172 196 0
175 198 0
172 195 0
173 195 0
173 196 0
169 193 0
174 197 62
174 197 51
179 201 62
170 193 62
169 191 36
169 192 44
164 187 51
175 197 62
169 193 36
170 192 84
172 195 62
175 196 95
170 192 88
168 191 102
168 190 72
176 197 92
169 191 62
163 186 88
170 192 108
174 197 92
173 195 88
176 198 99
160 182 117
172 194 102
178 200 102
169 192 95
174 197 80
174 196 62
177 198 102
172 194 80
175 198 120
173 195 80
168 190 72
172 194 95
174 198 114
172 194 88
178 201 108
169 191 80
169 192 95
172 195 108
175 198 130
169 190 88
170 191 51
176 196 102
170 190 62
172 194 102
163 185 102
176 196 114
161 182 102
164 186 95
169 192 114
167 187 102
160 181 80
175 197 108
156 177 72
162 183 88
162 184 80
173 195 102
156 177 80
164 185 102
163 185 95
157 177 88
170 191 130
157 178 72
155 177 36
165 187 72
156 178 36
161 182 62
171 192 72
156 177 51
158 180 80
160 181 80
156 177 36
146 168 62
156 177 0
162 185 36
150 172 36
154 175 0
156 178 0
160 183 62
157 179 51
157 178 0
157 180 0
159 182 0
157 180 0
156 178 0
158 181 0
153 175 0
153 176 0
146 168 0
158 179 0
149 172 0
150 171 0
149 172 0
141 163 0
148 169 0
152 173 0
134 154 0
133 156 0
138 159 0
150 171 0
157 179 0
156 177 0
147 168 0
134 157 0
149 171 0
132 153 0
152 172 0
152 174 0
141 163 0
155 177 0
142 164 0
138 159 0
147 168 0
154 177 0
147 167 0
159 181 0
142 164 0
144 166 0
158 181 0
142 165 0
147 170 0
151 173 0
156 177 0
154 175 0
150 173 0
153 177 0
151 174 0
159 183 0
155 176 0
159 181 0
156 179 0
152 174 0
153 174 0
157 178 0
155 177 0
160 183 0
150 172 0
159 182 0
159 181 0
150 172 0
156 178 0
164 186 0
155 177 0
157 180 0
157 180 0
153 176 0
157 179 0
156 178 0
153 175 0
154 174 0
154 176 0
154 176 0
160 183 0
157 180 0
157 179 0
164 184 0
166 188 0
165 188 0
160 183 0
162 185 0
160 183 0
154 175 0
156 180 0
170 192 0
157 179 0
157 178 0
164 187 0
160 183 0
171 193 0
153 174 0
161 182 0
161 184 0
162 186 0
165 189 0
164 186 0
158 180 0
161 183 0
156 178 0
167 191 0
168 189 0
160 181 0
166 188 0
156 178 0
164 186 0
160 184 0
165 189 0
168 191 0
169 193 0
166 190 0
161 182 0
165 188 0
172 196 0
167 188 0
164 186 0
168 190 0
170 193 0
161 182 0
167 189 0
159 181 0
165 188 0
163 186 0
161 184 0
157 179 0
171 194 0
166 189 0
168 192 0
166 187 0
160 183 0
169 191 0
168 191 0
162 184 0
165 187 0
171 192 0
169 190 0
165 187 0
169 191 0
162 184 0
169 191 0
172 193 0
169 192 0
168 190 0
166 190 0
168 191 0
175 196 0
171 193 0
167 191 0
170 193 0
169 192 0
168 192 0
163 186 0
168 191 0
171 193 0
168 192 0
170 193 0
170 193 0
170 193 0
169 192 0
168 192 0
171 193 0
173 196 0
172 197 0
171 195 0
166 189 0
171 193 0
171 195 0
165 187 0
172 195 0
174 195 0
170 193 0
171 195 0
173 195 0
175 198 0
170 194 0
171 194 0
173 196 0
168 190 0
172 194 0
169 191 0
171 193 0
174 197 0
173 196 0
172 195 0
168 192 0
170 193 0
171 193 0
172 194 0
170 195 0
170 194 0
172 194 0
172 194 0
171 195 0
171 195 0
171 194 0
172 196 0
173 194 0
175 198 0
175 198 0
172 195 0
173 195 0
176 197 0
170 194 0
169 191 0
174 196 0
171 195 0
170 194 0
176 198 0
175 197 0
172 195 0
174 196 0
174 198 0
174 197 0
166 189 0
175 197 0
171 195 0
172 195 0
173 196 0
172 196 0
174 198 0
174 198 0
170 193 0
175 197 0
173 197 0
172 196 0
175 197 0
174 198 0
173 196 0
170 193 0
173 196 0
174 198 0
172 195 0
173 196 0
174 198 0
175 197 0
174 196 0
176 198 0
173 195 0
175 198 0
173 196 0
175 198 0
171 195 0
172 196 0
174 198 0
173 196 0
174 197 0
171 195 0
174 197 0
174 197 0
172 197 0
172 197 0
173 197 0
172 196 0
171 195 0
171 195 0
169 193 0
174 197 0
173 197 0
173 196 0
171 195 0
175 198 0
171 194 0
175 198 0
174 197 0
175 198 0
172 195 0
168 192 0
172 196 0
173 196 0
172 196 0
172 196 0
171 195 0
173 197 0
171 195 0
173 196 0
174 198 0
171 195 0
174 198 0
173 197 0
170 194 0
175 197 0
173 196 0
174 197 0
172 195 0
173 196 0
170 194 0
176 199 0
171 195 0
172 195 0
169 193 0
173 196 0
170 194 0
170 194 0
169 193 0
171 195 0
171 195 0
172 196 0
168 192 0
172 196 0
170 193 0
169 193 0
172 195 0
171 195 0
171 195 0
170 194 0
173 195 0
170 194 0
175 198 0
169 193 0
167 191 0
171 195 0
173 197 0
176 198 0
174 198 0
171 195 0
171 196 0
174 198 0
172 195 0
175 198 0
172 196 0
169 193 25
170 194 0
162 185 25
167 190 57
170 193 36
169 191 51
173 195 51
170 193 51
168 190 67
171 195 62
173 197 62
169 191 62
166 189 44
173 196 80
171 193 86
161 184 72
167 189 67
174 196 88
170 192 57
168 191 57
164 186 84
177 198 95
174 195 95
173 196 92
173 194 105
180 202 108
177 200 102
173 194 114
171 193 114
171 194 80
172 195 102
171 193 88
172 193 88
172 192 95
183 204 120
175 197 114
173 196 72
171 193 95
165 188 80
174 196 102
174 195 120
173 195 102
174 195 88
178 199 125
165 188 80
153 176 36
175 197 108
172 193 125
175 196 102
170 191 125
172 194 88
164 186 72
169 190 102
170 192 80
173 194 88
157 178 80
156 178 62
161 181 80
166 188 80
169 190 80
167 187 108
166 187 102
162 184 80
155 175 62
164 186 80
161 183 72
164 184 88
149 172 62
165 186 80
165 185 80
169 191 95
164 185 72
165 186 80
161 183 36
161 184 0
154 175 36
162 184 36
162 185 0
164 184 62
153 174 0
163 187 0
165 187 0
162 186 0
161 183 0
154 178 0
162 185 0
158 181 0
156 179 0
156 178 0
161 182 0
155 176 0
163 186 0
156 178 0
151 174 0
143 166 0
148 170 0
153 175 0
152 174 0
144 166 0
158 180 0
152 173 0
145 166 0
141 163 0
148 170 0
152 174 0
152 174 0
130 152 0
138 160 0
159 181 0
139 162 0
131 152 0
157 179 0
146 168 0
143 165 0
147 170 0
159 181 0
149 170 0
150 173 0
155 176 0
149 171 0
148 169 0
161 183 0
150 172 0
146 168 0
145 167 0
164 187 0
150 172 0
160 182 0
153 176 0
150 172 0
145 167 0
147 170 0
152 175 0
143 167 0
151 173 0
154 179 0
151 171 0
158 180 0
153 175 0
169 192 0
145 169 0
152 174 0
150 174 0
159 181 0
152 175 0
153 175 0
154 176 0
154 176 0
157 180 0
151 173 0
162 186 0
165 187 0
148 170 0
154 177 0
161 184 0
162 185 0
165 185 0
154 176 0
160 183 0
159 182 0
155 177 0
163 186 0
158 179 0
160 182 0
162 184 0
162 183 0
162 184 0
162 184 0
170 192 0
161 185 0
166 188 0
164 186 0
161 183 0
162 184 0
166 190 0
168 189 0
161 185 0
160 181 0
163 184 0
163 184 0
165 189 0
154 178 0
168 191 0
164 187 0
167 191 0
171 194 0
165 186 0
163 187 0
165 188 0
163 186 0
166 189 0
163 184 0
168 189 0
166 188 0
165 188 0
160 183 0
164 188 0
165 188 0
166 188 0
169 191 0
168 190 0
170 189 0
171 194 0
168 191 0
166 189 0
168 191 0
162 184 0
167 190 0
162 184 0
165 187 0
165 188 0
169 191 0
166 188 0
168 191 0
165 187 0
167 190 0
168 192 0
168 191 0
171 191 0
171 195 0
165 187 0
169 192 0
168 189 0
165 187 0
169 192 0
167 191 0
169 192 0
173 197 0
173 196 0
174 195 0
168 192 0
175 196 0
168 191 0
168 190 0
166 189 0
168 191 0
161 184 0
168 192 0
171 195 0
171 192 0
173 196 0
174 197 0
169 191 0
174 195 0
169 193 0
170 193 0
172 196 0
171 193 0
170 191 0
170 195 0
174 196 0
169 192 0
166 188 0
171 195 0
169 192 0
168 192 0
166 189 0
171 192 0
167 191 0
172 194 0
172 195 0
172 194 0
172 195 0
173 195 0
173 196 0
174 197 0
174 197 0
174 196 0
173 195 0
171 196 0
167 189 0
171 194 0
172 196 0
173 196 0
172 195 0
168 191 0
169 193 0
172 196 0
173 197 0
173 195 0
173 196 0
169 193 0
173 195 0
175 198 0
171 194 0
166 189 0
172 195 0
173 196 0
173 196 0
173 196 0
172 195 0
169 191 0
174 197 0
173 195 0
173 196 0
170 192 0
171 194 0
171 194 0
172 196 0
170 193 0
174 196 0
173 196 0
173 197 0
174 198 0
170 195 0
172 195 0
174 197 0
174 197 0
172 196 0
176 199 0
170 193 0
173 197 0
173 195 0
175 198 0
172 194 0
173 197 0
174 197 0
173 196 0
174 198 0
174 197 0
174 197 0
173 196 0
173 197 0
173 197 0
170 194 0
174 198 0
174 197 0
172 196 0
173 197 0
173 196 0
175 198 0
173 196 0
173 196 0
171 195 0
173 197 0
174 198 0
172 196 0
173 197 0
173 197 0
173 196 0
173 197 0
170 195 0
171 194 0
171 193 0
173 197 0
173 197 0
174 197 0
171 195 0
172 196 0
169 194 0
172 196 0
172 196 0
174 197 0
172 196 0
170 195 0
167 191 0
171 195 0
172 195 0
177 199 0
173 196 0
174 197 0
172 197 0
172 197 0
172 196 0
173 196 0
172 196 0
173 196 0
171 195 0
173 196 0
175 198 0
173 197 0
171 195 0
175 197 0
171 194 0
174 196 0
171 195 0
172 196 0
174 197 0
170 194 0
174 198 0
169 192 0
171 195 0
170 194 0
172 195 0
173 196 0
173 197 0
175 198 0
167 191 0
172 196 0
172 196 0
172 195 0
174 198 0
170 193 0
172 197 0
172 197 0
172 196 0
174 197 0
172 196 0
177 199 0
172 195 36
167 192 0
170 194 0
165 189 0
169 192 0
171 194 0
172 194 51
172 195 51
172 195 72
169 192 72
172 195 67
168 190 72
167 189 76
163 186 51
167 189 44
172 195 92
171 193 88
162 185 60
174 195 76
167 188 86
160 182 67
165 187 67
166 189 62
160 182 92
169 190 54
170 192 88
164 187 57
172 194 88
173 196 102
179 200 125
178 199 130
172 194 72
173 195 95
174 196 102
169 191 102
169 194 120
170 191 108
176 195 88
170 191 72
174 195 108
175 197 102
169 190 95
161 183 95
182 202 114
163 183 102
168 190 88
168 189 62
171 192 102
164 183 102
169 191 95
170 190 72
173 195 80
161 182 88
168 189 108
158 178 80
163 185 72
168 189 72
172 192 88
162 185 72
174 195 114
165 186 95
168 188 108
168 188 36
163 185 72
160 181 62
161 183 102
168 189 88
169 190 80
155 176 51
163 185 62
164 186 51
159 181 72
167 188 72
172 193 80
157 179 36
156 177 51
163 184 36
168 190 36
160 182 62
158 180 0
166 188 0
167 189 62
159 182 0
159 182 0
151 175 0
163 186 0
155 177 0
153 175 0
157 179 0
152 175 0
151 175 0
156 178 0
155 178 0
157 179 0
149 169 0
137 158 0
149 169 0
150 171 0
140 162 0
154 177 0
134 156 0
142 164 0
143 164 0
152 176 0
146 166 0
155 177 0
154 175 0
157 180 0
148 171 0
154 174 0
146 169 0
149 173 0
151 171 0
155 176 0
151 174 0
150 173 0
143 165 0
160 181 0
149 170 0
149 169 0
153 175 0
153 175 0
151 174 0
154 176 0
143 164 0
151 172 0
150 173 0
158 181 0
150 174 0
146 169 0
148 170 0
157 179 0
156 177 0
151 175 0
142 163 0
155 176 0
151 174 0
151 175 0
151 172 0
154 176 0
147 169 0
159 182 0
152 175 0
151 174 0
157 181 0
162 186 0
159 183 0
154 176 0
161 185 0
160 183 0
162 185 0
160 181 0
158 181 0
155 176 0
159 181 0
159 182 0
158 181 0
161 184 0
160 184 0
162 182 0
157 181 0
152 174 0
156 178 0
164 186 0
163 186 0
163 185 0
160 184 0
161 181 0
166 189 0
168 191 0
167 190 0
150 172 0
159 182 0
157 179 0
165 189 0
161 183 0
165 188 0
162 184 0
161 184 0
165 188 0
164 188 0
159 182 0
158 181 0
166 188 0
167 190 0
163 185 0
169 191 0
165 188 0
167 189 0
159 179 0
163 185 0
168 191 0
166 189 0
168 192 0
167 190 0
162 184 0
165 186 0
169 191 0
166 190 0
161 182 0
168 191 0
162 182 0
164 186 0
165 187 0
169 192 0
167 190 0
164 188 0
165 188 0
167 190 0
169 192 0
169 191 0
169 192 0
164 187 0
166 188 0
167 189 0
165 188 0
165 186 0
171 193 0
170 195 0
172 195 0
166 187 0
172 195 0
165 187 0
172 195 0
171 195 0
170 191 0
173 196 0
172 195 0
173 195 0
170 190 0
168 191 0
167 188 0
164 187 0
172 195 0
163 183 0
171 194 0
170 192 0
166 188 0
171 194 0
169 191 0
169 190 0
171 194 0
174 197 0
170 192 0
167 191 0
167 189 0
172 196 0
169 193 0
164 188 0
172 196 0
173 197 0
165 188 0
171 194 0
165 187 0
173 195 0
171 192 0
173 197 0
172 195 0
175 198 0
170 193 0
172 195 0
172 195 0
169 192 0
171 194 0
169 191 0
170 193 0
169 192 0
173 196 0
170 193 0
169 192 0
174 197 0
170 193 0
173 196 0
170 193 0
177 198 0
173 196 0
173 195 0
171 194 0
174 196 0
172 196 0
167 190 0
172 195 0
175 198 0
173 197 0
172 196 0
170 193 0
173 196 0
174 196 0
172 196 0
170 193 0
172 196 0
170 192 0
176 199 0
169 193 0
174 197 0
173 197 0
176 198 0
171 194 0
176 198 0
173 196 0
175 197 0
172 194 0
173 197 0
175 198 0
173 196 0
173 196 0
175 197 0
171 194 0
172 195 0
169 192 0
173 195 0
173 197 0
173 196 0
172 195 0
174 198 0
172 195 0
171 195 0
175 197 0
171 193 0
174 197 0
176 199 0
174 198 0
173 197 0
174 197 0
173 197 0
174 198 0
172 195 0
173 196 0
174 198 0
173 197 0
172 196 0
171 194 0
176 199 0
171 195 0
172 195 0
173 197 0
172 196 0
175 198 0
173 197 0
171 194 0
171 195 0
175 198 0
174 197 0
175 198 0
175 198 0
175 198 0
171 195 0
173 197 0
173 196 0
172 195 0
172 196 0
174 197 0
171 195 0
170 195 0
171 195 0
171 195 0
172 196 0
174 197 0
172 197 0
173 196 0
174 197 0
171 194 0
173 197 0
171 195 0
173 196 0
172 195 0
174 197 0
172 196 0
168 191 0
168 192 0
171 195 0
173 196 0
172 196 0
173 196 0
174 198 0
172 195 0
174 198 0
172 195 0
169 194 0
172 195 0
168 193 0
171 195 0
171 195 0
168 192 0
175 197 0
172 196 0
170 193 0
172 195 0
174 198 0
173 197 0
170 193 0
172 195 0
172 195 0
174 198 0
171 196 0
173 197 0
173 196 0
173 196 0
173 197 0
170 194 0
174 198 0
171 195 36
173 195 36
164 188 25
171 195 0
172 195 0
171 193 25
168 192 51
175 197 57
173 196 0
176 198 72
170 193 57
166 189 80
168 191 76
166 189 62
163 185 44
171 194 67
167 190 54
172 194 36
175 196 92
176 198 84
160 183 57
174 197 72
176 197 84
178 200 99
178 198 84
170 192 62
168 190 95
174 196 102
176 198 114
177 198 88
175 196 72
170 192 102
172 194 102
172 194 80
175 197 125
172 194 108
172 194 95
173 195 102
173 195 114
160 183 80
179 199 88
170 192 80
163 185 108
175 196 102
172 192 102
165 187 95
168 190 88
167 189 62
161 182 72
166 187 72
164 184 88
168 190 95
169 190 114
160 182 80
167 188 51
158 178 88
165 186 36
169 191 95
167 187 114
163 184 62
160 182 62
148 169 36
165 187 36
153 174 80
168 188 72
169 191 88
164 185 62
166 188 72
169 189 108
166 189 72
162 185 72
166 187 88
156 178 62
162 183 80
166 187 62
159 181 0
158 179 0
161 183 51
155 178 36
163 185 0
161 184 36
168 190 0
171 195 0
165 189 0
162 184 0
156 179 0
149 171 0
158 180 0
152 173 0
148 171 0
157 179 0
149 170 0
146 168 0
144 167 0
153 176 0
145 167 0
145 167 0
155 178 0
157 179 0
148 171 0
140 163 0
151 173 0
151 174 0
154 176 0
154 176 0
148 170 0
159 179 0
153 176 0
154 176 0
144 168 0
143 164 0
139 162 0
156 178 0
150 172 0
154 176 0
147 168 0
157 178 0
148 171 0
156 178 0
155 177 0
146 167 0
156 179 0
147 169 0
144 167 0
159 181 0
154 177 0
155 177 0
162 183 0
151 174 0
148 169 0
156 178 0
148 171 0
149 171 0
154 176 0
155 178 0
158 182 0
149 171 0
163 186 0
158 181 0
152 174 0
158 180 0
150 173 0
155 178 0
153 176 0
161 184 0
167 189 0
158 182 0
150 173 0
164 186 0
160 182 0
153 175 0
161 185 0
158 181 0
159 182 0
166 190 0
166 188 0
169 190 0
168 190 0
165 187 0
162 186 0
157 180 0
161 184 0
159 183 0
163 186 0
160 182 0
157 180 0
155 177 0
167 191 0
158 179 0
159 182 0
165 188 0
164 188 0
160 183 0
163 186 0
162 184 0
168 192 0
169 191 0
162 186 0
164 187 0
162 186 0
163 184 0
165 186 0
163 186 0
158 181 0
162 183 0
167 190 0
168 192 0
167 188 0
163 185 0
165 187 0
165 188 0
158 180 0
171 195 0
169 191 0
163 184 0
166 188 0
167 189 0
163 185 0
164 187 0
164 183 0
163 184 0
172 193 0
169 192 0
165 188 0
172 194 0
164 187 0
161 185 0
169 190 0
164 186 0
167 190 0
167 189 0
166 188 0
166 185 0
172 194 0
169 193 0
167 189 0
169 191 0
168 192 0
164 185 0
167 191 0
169 191 0
167 190 0
171 194 0
166 189 0
167 192 0
171 194 0
168 192 0
167 190 0
172 195 0
168 190 0
169 191 0
167 190 0
169 192 0
167 190 0
170 193 0
171 194 0
168 190 0
171 192 0
171 194 0
170 192 0
173 196 0
172 194 0
171 193 0
170 193 0
170 194 0
172 196 0
171 194 0
168 190 0
173 195 0
166 189 0
170 194 0
172 195 0
170 193 0
169 193 0
171 195 0
169 192 0
174 197 0
169 191 0
173 196 0
171 193 0
170 192 0
175 197 0
175 198 0
170 192 0
173 196 0
171 195 0
173 196 0
170 193 0
172 195 0
174 197 0
171 194 0
167 191 0
173 196 0
172 195 0
172 195 0
172 193 0
172 196 0
173 197 0
172 195 0
175 197 0
173 194 0
173 196 0
170 194 0
172 196 0
175 198 0
174 197 0
173 196 0
173 197 0
173 197 0
168 191 0
175 198 0
173 195 0
173 195 0
176 197 0
172 196 0
172 194 0
166 188 0
169 193 0
174 197 0
168 191 0
174 197 0
173 196 0
172 195 0
170 193 0
173 195 0
176 198 0
173 197 0
168 192 0
171 195 0
174 197 0
174 198 0
172 196 0
174 197 0
174 195 0
175 198 0
173 196 0
171 194 0
174 198 0
172 195 0
169 193 0
171 194 0
173 197 0
172 196 0
174 198 0
171 195 0
175 198 0
171 194 0
174 198 0
175 197 0
171 195 0
172 196 0
171 194 0
174 197 0
172 196 0
175 198 0
172 195 0
175 198 0
176 198 0
173 197 0
170 195 0
173 197 0
173 197 0
174 197 0
171 195 0
170 193 0
172 196 0
172 197 0
169 194 0
172 197 0
176 198 0
171 195 0
172 195 0
170 194 0
169 194 0
171 195 0
170 194 0
172 196 0
171 194 0
171 195 0
172 196 0
173 197 0
174 197 0
170 194 0
171 194 0
174 198 0
174 197 0
173 196 0
173 196 0
174 197 0
176 198 0
174 196 0
174 197 0
173 196 0
171 194 0
171 194 0
171 195 0
170 194 0
168 193 0
174 198 0
173 196 0
172 196 0
170 194 0
167 191 0
174 198 0
173 197 0
174 197 0
173 196 0
170 194 0
173 197 0
171 194 0
175 198 0
173 197 0
172 197 0
169 193 0
171 196 0
173 197 0
173 197 0
172 196 0
174 197 0
174 198 0
167 191 0
171 194 0
169 192 0
170 193 25
174 196 0
172 195 0
172 195 0
168 191 0
172 194 62
168 189 57
174 196 72
164 187 44
169 192 88
172 195 76
170 193 67
168 189 67
175 198 57
162 185 72
166 188 80
162 184 67
165 187 72
166 188 86
169 189 72
170 192 108
170 190 99
173 195 51
173 194 102
176 197 76
176 197 76
175 197 72
171 191 72
177 197 95
177 198 80
171 194 108
168 190 80
175 196 80
175 197 88
178 200 102
171 192 88
171 192 62
174 196 120
172 192 95
178 201 120
171 192 72
182 203 125
177 200 130
169 190 102
165 187 80
163 185 72
167 188 88
177 195 36
159 180 62
166 187 72
167 188 51
161 183 102
170 191 114
169 191 114
168 188 95
162 184 95
166 188 95
161 182 72
167 189 95
162 185 62
167 188 62
168 189 88
158 178 62
163 184 80
167 187 88
160 183 80
163 184 36
162 184 80
162 183 36
158 181 0
164 185 36
160 183 0
155 179 0
163 184 0
162 184 0
168 189 0
158 183 51
164 188 0
164 188 0
164 187 0
154 178 0
162 185 0
163 187 0
160 182 0
147 171 0
155 177 0
153 175 0
143 165 0
136 159 0
148 171 0
150 172 0
153 176 0
151 174 0
150 171 0
152 174 0
140 160 0
159 181 0
145 168 0
155 175 0
151 173 0
153 175 0
140 163 0
147 170 0
140 163 0
156 179 0
151 174 0
148 169 0
148 169 0
152 173 0
150 171 0
161 183 0
142 166 0
144 167 0
159 182 0
155 176 0
153 175 0
154 176 0
154 176 0
152 175 0
158 180 0
156 179 0
153 175 0
149 171 0
157 179 0
158 181 0
154 177 0
156 178 0
152 173 0
143 165 0
153 177 0
158 181 0
157 181 0
148 170 0
145 168 0
154 177 0
157 179 0
159 182 0
152 174 0
165 188 0
152 174 0
156 179 0
153 176 0
155 175 0
158 182 0
162 184 0
160 183 0
156 179 0
158 180 0
166 190 0
157 179 0
163 185 0
155 177 0
156 179 0
149 171 0
167 189 0
158 182 0
160 184 0
167 190 0
157 179 0
156 181 0
161 183 0
163 186 0
160 183 0
163 186 0
165 188 0
161 184 0
169 193 0
164 186 0
163 186 0
168 192 0
160 180 0
161 185 0
163 185 0
171 194 0
158 182 0
165 187 0
166 189 0
165 188 0
165 188 0
162 185 0
160 181 0
173 194 0
162 185 0
167 190 0
170 193 0
165 188 0
166 188 0
159 183 0
167 191 0
169 192 0
164 187 0
166 190 0
171 194 0
168 191 0
162 184 0
167 189 0
169 192 0
168 190 0
166 189 0
162 185 0
163 186 0
171 192 0
172 195 0
172 195 0
176 197 0
171 193 0
166 188 0
164 187 0
165 189 0
169 191 0
163 184 0
170 193 0
167 190 0
164 184 0
160 183 0
168 191 0
167 191 0
164 186 0
172 195 0
163 184 0
161 183 0
171 192 0
169 193 0
166 188 0
169 192 0
173 197 0
170 192 0
166 189 0
174 197 0
169 193 0
168 191 0
165 188 0
167 189 0
174 195 0
170 192 0
165 186 0
168 189 0
168 191 0
170 193 0
168 191 0
170 193 0
171 194 0
162 184 0
171 194 0
169 192 0
167 191 0
171 195 0
170 194 0
171 194 0
170 193 0
171 193 0
173 196 0
171 195 0
173 196 0
174 196 0
169 193 0
169 192 0
175 197 0
170 193 0
170 193 0
172 196 0
171 196 0
174 197 0
168 192 0
170 195 0
170 193 0
172 195 0
173 196 0
174 198 0
170 194 0
168 191 0
173 196 0
169 191 0
167 190 0
172 195 0
169 191 0
171 195 0
172 194 0
170 195 0
171 196 0
172 195 0
173 197 0
172 194 0
172 196 0
175 198 0
169 193 0
173 195 0
173 197 0
172 195 0
174 198 0
174 197 0
174 197 0
174 198 0
170 194 0
173 196 0
174 197 0
175 197 0
171 196 0
173 196 0
169 193 0
173 197 0
171 194 0
175 197 0
174 197 0
172 196 0
169 193 0
175 198 0
173 196 0
170 194 0
172 197 0
173 195 0
173 195 0
172 196 0
175 198 0
169 193 0
171 195 0
175 198 0
174 198 0
173 197 0
173 196 0
173 196 0
176 198 0
172 197 0
174 197 0
176 198 0
174 197 0
176 198 0
174 198 0
175 198 0
172 196 0
174 197 0
172 196 0
173 197 0
175 198 0
174 197 0
175 198 0
173 197 0
168 192 0
173 197 0
176 198 0
175 198 0
170 194 0
171 194 0
171 195 0
172 196 0
169 193 0
170 194 0
171 195 0
169 193 0
171 195 0
175 198 0
169 193 0
168 191 0
172 197 0
172 196 0
168 192 0
174 198 0
175 197 0
172 196 0
173 197 0
171 195 0
174 197 0
168 192 0
173 196 0
173 196 0
173 196 0
170 195 0
173 196 0
172 195 0
173 196 0
177 199 0
169 192 0
171 195 0
168 193 0
172 194 0
168 192 0
172 195 0
174 198 0
173 196 0
173 195 0
171 194 0
166 189 0
172 196 0
171 195 0
172 195 0
173 196 0
172 195 0
174 197 0
174 197 0
171 195 0
172 196 0
175 197 0
174 197 0
172 195 0
173 197 0
173 197 0
172 196 0
176 199 0
170 193 0
172 196 0
168 191 0
167 191 25
171 194 0
168 192 0
164 187 0
166 189 36
168 190 44
175 196 88
174 196 36
163 186 25
164 187 25
165 188 57
168 192 25
168 190 62
173 195 76
172 194 67
170 192 72
175 196 84
162 185 67
161 183 44
171 193 84
161 184 57
166 189 67
170 193 76
176 197 117
173 195 95
175 197 125
172 194 72
183 202 125
175 197 80
184 205 120
174 196 114
176 198 88
183 204 130
183 202 120
176 197 120
173 195 108
175 198 102
174 196 114
175 195 62
167 189 80
179 200 80
164 186 88
163 185 88
164 185 62
168 189 80
165 186 72
162 183 95
172 193 95
171 193 120
168 189 51
165 187 80
166 186 72
164 185 36
164 184 88
159 183 72
165 187 80
166 185 72
161 183 51
164 185 72
157 177 0
165 188 62
169 191 72
162 183 51
156 177 51
161 181 62
161 182 62
164 186 51
164 185 72
169 191 72
165 188 36
154 176 36
153 175 0
169 191 0
168 191 62
151 174 36
165 186 0
154 179 0
168 191 0
168 191 0
153 176 0
152 175 0
166 188 0
159 181 0
157 180 0
155 178 0
157 178 0
155 178 0
150 170 0
155 177 0
151 171 0
150 172 0
160 182 0
155 175 0
160 182 0
148 169 0
150 171 0
151 173 0
153 175 0
152 175 0
157 180 0
154 176 0
149 172 0
139 160 0
148 171 0
160 183 0
146 168 0
145 167 0
145 167 0
154 177 0
150 172 0
150 172 0
151 173 0
158 182 0
154 177 0
154 177 0
146 170 0
165 187 0
157 179 0
153 176 0
154 178 0
160 181 0
152 173 0
152 174 0
158 181 0
157 179 0
144 167 0
146 168 0
158 181 0
160 182 0
157 180 0
145 167 0
156 181 0
155 177 0
159 183 0
159 180 0
154 178 0
150 172 0
156 179 0
156 180 0
153 175 0
159 181 0
161 184 0
161 184 0
161 181 0
154 177 0
163 187 0
164 186 0
161 185 0
156 176 0
160 182 0
158 181 0
164 188 0
165 188 0
157 178 0
163 186 0
156 177 0
164 186 0
157 180 0
159 181 0
165 188 0
159 182 0
159 182 0
156 179 0
162 184 0
165 188 0
162 183 0
158 181 0
160 184 0
156 179 0
163 183 0
160 181 0
158 182 0
162 185 0
170 193 0
161 186 0
158 180 0
166 190 0
168 190 0
161 182 0
158 180 0
161 183 0
172 194 0
165 188 0
165 188 0
164 188 0
165 189 0
164 186 0
160 183 0
166 188 0
170 193 0
172 197 0
167 190 0
167 190 0
168 191 0
163 185 0
171 194 0
164 186 0
169 192 0
161 183 0
169 192 0
167 189 0
168 190 0
168 192 0
170 193 0
170 192 0
169 192 0
165 189 0
167 188 0
166 188 0
167 189 0
172 194 0
169 193 0
166 187 0
168 192 0
170 193 0
169 193 0
166 188 0
165 188 0
169 189 0
169 193 0
170 193 0
172 194 0
173 196 0
170 194 0
164 186 0
171 194 0
174 196 0
168 191 0
173 196 0
170 192 0
170 193 0
172 195 0
168 190 0
169 191 0
170 192 0
172 196 0
169 190 0
171 195 0
168 191 0
174 196 0
168 192 0
170 194 0
167 191 0
172 196 0
170 193 0
169 193 0
165 188 0
170 194 0
167 192 0
171 193 0
173 194 0
170 192 0
171 194 0
172 196 0
174 196 0
168 190 0
172 195 0
169 192 0
167 190 0
174 197 0
172 195 0
172 196 0
171 194 0
174 195 0
174 196 0
174 198 0
172 196 0
170 193 0
173 196 0
171 195 0
170 193 0
173 196 0
174 197 0
172 195 0
171 192 0
174 196 0
172 196 0
176 198 0
171 194 0
168 191 0
172 195 0
172 195 0
171 193 0
170 194 0
167 190 0
173 195 0
175 198 0
170 192 0
175 198 0
172 196 0
171 195 0
173 197 0
173 197 0
175 198 0
172 195 0
172 196 0
171 194 0
174 198 0
172 195 0
170 194 0
172 195 0
175 198 0
172 196 0
173 197 0
169 193 0
173 197 0
171 194 0
171 194 0
174 197 0
172 195 0
172 196 0
173 195 0
175 197 0
173 196 0
175 198 0
170 193 0
173 197 0
171 195 0
173 197 0
173 197 0
172 196 0
174 197 0
176 199 0
172 196 0
172 195 0
171 194 0
175 198 0
173 196 0
172 196 0
174 197 0
171 194 0
174 197 0
175 198 0
173 197 0
172 196 0
175 198 0
167 191 0
174 198 0
171 194 0
169 193 0
173 196 0
174 197 0
173 197 0
173 197 0
172 196 0
174 197 0
173 196 0
171 194 0
177 199 0
172 196 0
171 194 0
170 195 0
174 197 0
174 197 0
169 193 0
169 194 0
175 198 0
172 196 0
175 198 0
172 195 0
170 196 0
170 194 0
168 192 0
173 197 0
176 199 0
173 197 0
171 195 0
173 196 0
167 191 0
173 197 0
172 196 0
171 195 0
173 196 0
173 196 0
171 195 0
171 194 0
165 190 0
171 194 0
173 196 0
171 195 0
174 198 0
169 192 0
172 196 0
173 196 0
171 193 0
170 193 0
173 196 0
171 195 0
170 194 0
173 197 0
168 192 0
177 199 0
173 196 0
174 198 0
173 197 0
175 198 0
174 198 0
167 191 0
172 197 0
170 193 0
169 192 0
169 192 0
165 189 0
172 195 0
168 189 36
171 194 0
172 195 0
169 192 36
158 181 25
171 193 84
166 188 51
176 197 57
171 193 62
172 195 36
169 192 72
166 188 57
167 188 76
168 190 62
172 195 67
174 195 36
168 191 36
162 184 99
167 190 72
172 194 76
176 197 99
168 190 62
172 193 72
181 203 108
173 194 80
176 197 114
175 196 80
175 195 88
172 193 80
169 190 80
172 194 102
169 191 72
181 203 114
179 200 108
176 197 102
171 194 72
166 190 95
169 189 62
173 194 62
174 195 88
170 192 125
166 187 51
170 191 95
167 189 62
166 188 80
167 189 80
163 183 62
155 177 36
164 186 102
160 182 88
174 195 80
168 189 36
157 177 80
157 178 51
158 180 51
156 177 51
175 196 62
153 174 62
161 182 72
170 191 72
165 187 51
168 189 80
165 188 0
164 186 0
162 184 36
170 191 36
165 188 36
163 186 51
158 180 0
171 193 51
163 185 0
166 189 0
173 195 0
169 192 0
168 190 0
171 193 0
159 182 0
162 185 0
157 180 0
149 171 0
151 172 0
157 180 0
147 170 0
152 174 0
155 177 0
160 180 0
151 174 0
158 180 0
149 171 0
156 179 0
151 174 0
145 168 0
154 178 0
152 174 0
158 180 0
156 177 0
160 181 0
154 178 0
137 159 0
153 175 0
160 184 0
155 178 0
163 185 0
154 176 0
169 191 0
151 173 0
147 169 0
147 169 0
159 182 0
161 183 0
152 175 0
160 183 0
159 180 0
155 178 0
153 176 0
158 180 0
155 178 0
153 175 0
149 172 0
144 166 0
155 176 0
149 173 0
159 183 0
153 176 0
162 184 0
151 174 0
162 185 0
155 177 0
159 182 0
156 179 0
149 170 0
158 180 0
168 192 0
151 171 0
171 193 0
167 191 0
152 175 0
159 181 0
154 176 0
158 180 0
159 181 0
168 190 0
156 178 0
160 182 0
167 189 0
162 185 0
162 184 0
156 179 0
166 188 0
162 186 0
159 181 0
161 184 0
157 178 0
153 176 0
159 182 0
168 190 0
168 191 0
163 185 0
163 187 0
162 186 0
155 177 0
163 186 0
159 182 0
164 186 0
156 179 0
163 185 0
160 183 0
164 187 0
169 191 0
167 190 0
167 191 0
165 189 0
167 190 0
170 194 0
159 182 0
169 192 0
166 188 0
170 192 0
165 187 0
166 188 0
168 190 0
156 177 0
164 185 0
169 192 0
168 191 0
157 179 0
169 191 0
166 188 0
158 181 0
168 190 0
167 190 0
165 188 0
166 188 0
165 187 0
161 182 0
167 190 0
167 191 0
167 190 0
168 190 0
160 182 0
168 190 0
167 190 0
172 194 0
171 194 0
169 193 0
163 187 0
170 192 0
173 195 0
165 188 0
172 194 0
168 192 0
168 191 0
172 195 0
166 189 0
171 195 0
172 195 0
167 188 0
174 196 0
171 194 0
167 190 0
170 192 0
175 197 0
168 189 0
175 198 0
168 192 0
168 191 0
169 193 0
172 193 0
170 194 0
168 191 0
166 190 0
172 195 0
173 194 0
167 192 0
167 191 0
168 190 0
176 198 0
171 194 0
168 190 0
171 192 0
171 193 0
166 187 0
167 190 0
170 193 0
170 193 0
170 194 0
173 195 0
171 194 0
172 195 0
170 194 0
171 195 0
165 187 0
169 192 0
170 194 0
173 196 0
171 194 0
172 195 0
171 195 0
175 196 0
174 197 0
171 195 0
166 189 0
170 194 0
166 190 0
173 196 0
172 195 0
172 195 0
173 196 0
173 196 0
172 196 0
172 195 0
173 196 0
165 188 0
174 198 0
171 193 0
175 197 0
174 195 0
174 196 0
174 197 0
170 195 0
171 193 0
175 197 0
171 194 0
170 194 0
171 194 0
170 193 0
174 198 0
170 193 0
170 195 0
171 195 0
173 196 0
170 195 0
175 197 0
174 197 0
172 196 0
173 197 0
174 198 0
171 195 0
172 195 0
171 196 0
175 198 0
174 198 0
171 196 0
173 197 0
172 196 0
172 195 0
175 197 0
174 197 0
174 197 0
172 195 0
173 197 0
175 198 0
169 194 0
173 197 0
169 193 0
174 198 0
175 198 0
175 198 0
172 196 0
172 195 0
174 198 0
175 198 0
174 198 0
173 196 0
174 197 0
175 198 0
174 197 0
175 198 0
171 195 0
167 192 0
174 197 0
173 197 0
172 196 0
172 196 0
173 196 0
174 197 0
171 196 0
171 195 0
176 199 0
173 197 0
174 197 0
175 197 0
172 195 0
173 197 0
175 198 0
173 197 0
172 197 0
174 197 0
175 198 0
175 197 0
176 198 0
171 194 0
172 196 0
173 197 0
171 195 0
169 193 0
172 197 0
170 195 0
170 194 0
172 196 0
174 197 0
173 196 0
171 195 0
173 196 0
170 194 0
170 194 0
173 197 0
173 196 0
166 190 0
174 197 0
175 198 0
169 192 0
170 194 0
168 192 0
172 196 0
169 193 0
164 187 0
173 196 0
169 192 0
176 198 0
169 193 0
169 192 0
174 196 0
172 196 0
171 195 0
175 197 0
175 198 0
175 197 0
173 196 0
173 196 0
172 195 0
174 198 0
173 197 0
172 195 0
168 192 0
165 187 0
165 189 0
171 194 0
169 193 0
174 197 0
165 189 0
174 196 0
169 192 36
162 185 0
170 193 0
172 195 36
169 191 57
166 190 36
168 190 67
167 189 80
167 189 57
167 188 44
167 190 51
175 197 72
166 187 62
168 190 36
169 191 72
164 185 51
167 190 62
169 191 44
170 192 62
170 190 57
177 199 88
175 196 62
178 201 88
167 188 80
170 191 51
171 193 102
175 195 80
175 197 62
168 190 88
175 197 114
172 193 72
169 191 88
170 191 62
170 190 102
174 195 95
171 191 80
167 189 95
168 188 88
163 184 88
175 196 88
165 187 72
165 187 36
159 180 72
174 194 51
164 185 72
165 186 51
157 177 36
171 193 95
166 187 72
170 190 62
167 189 102
169 191 72
167 187 62
170 191 72
169 190 62
158 178 51
162 182 51
164 183 62
167 189 80
165 186 62
160 181 36
162 183 80
159 181 36
153 175 0
166 187 36
171 193 36
162 184 51
162 184 36
167 189 0
162 186 0
159 183 0
160 182 0
160 183 0
163 185 0
156 178 0
166 188 0
159 181 0
157 178 0
160 182 0
154 175 0
154 176 0
147 168 0
149 169 0
151 173 0
149 171 0
156 178 0
155 178 0
159 182 0
157 180 0
160 183 0
157 179 0
159 181 0
155 178 0
153 175 0
140 163 0
155 178 0
158 181 0
160 182 0
167 188 0
156 179 0
159 181 0
154 177 0
153 176 0
159 181 0
158 182 0
152 175 0
158 180 0
160 182 0
153 176 0
152 173 0
162 185 0
148 170 0
161 184 0
155 177 0
156 181 0
163 184 0
146 167 0
147 169 0
152 175 0
152 174 0
160 182 0
153 175 0
152 174 0
168 190 0
161 186 0
165 186 0
158 180 0
158 180 0
149 171 0
157 179 0
159 182 0
154 178 0
170 191 0
161 184 0
161 185 0
158 180 0
159 180 0
168 191 0
155 178 0
167 190 0
163 185 0
164 188 0
154 175 0
166 190 0
165 189 0
165 188 0
162 184 0
167 190 0
166 188 0
150 173 0
171 196 0
152 174 0
155 175 0
165 189 0
161 186 0
171 193 0
168 191 0
161 181 0
156 177 0
162 185 0
163 184 0
167 191 0
170 192 0
162 185 0
164 184 0
162 183 0
151 173 0
164 187 0
163 186 0
165 188 0
159 181 0
164 186 0
164 185 0
169 191 0
159 182 0
169 190 0
156 179 0
161 182 0
161 183 0
168 191 0
168 192 0
168 190 0
171 193 0
169 193 0
161 183 0
170 193 0
166 190 0
167 189 0
169 192 0
168 191 0
166 189 0
166 189 0
166 188 0
162 186 0
165 188 0
168 192 0
173 195 0
171 193 0
166 190 0
167 189 0
171 194 0
166 189 0
163 186 0
171 194 0
174 197 0
168 190 0
171 194 0
168 191 0
169 190 0
172 195 0
168 192 0
169 194 0
169 193 0
167 191 0
167 190 0
172 195 0
163 186 0
167 189 0
168 191 0
174 197 0
174 198 0
172 194 0
169 192 0
168 191 0
171 193 0
165 189 0
168 191 0
169 191 0
168 191 0
171 195 0
168 190 0
170 195 0
170 193 0
168 192 0
171 194 0
173 195 0
169 192 0
169 192 0
169 190 0
168 191 0
170 193 0
172 196 0
172 194 0
173 195 0
168 189 0
170 195 0
170 194 0
172 194 0
173 196 0
172 196 0
170 193 0
173 197 0
172 195 0
172 195 0
164 187 0
171 193 0
171 194 0
174 197 0
170 192 0
171 195 0
174 197 0
172 197 0
165 188 0
172 194 0
173 195 0
174 197 0
172 195 0
172 195 0
173 197 0
173 196 0
170 193 0
173 197 0
172 195 0
172 195 0
175 197 0
174 198 0
173 196 0
173 196 0
169 193 0
173 196 0
169 192 0
169 192 0
174 195 0
174 197 0
172 195 0
174 198 0
173 194 0
173 197 0
173 195 0
171 192 0
172 196 0
174 197 0
175 198 0
169 193 0
169 192 0
176 198 0
174 196 0
176 198 0
172 196 0
174 197 0
171 195 0
172 196 0
174 197 0
174 195 0
172 195 0
174 197 0
171 195 0
170 193 0
173 197 0
175 198 0
171 195 0
172 195 0
174 197 0
173 197 0
170 194 0
175 198 0
174 197 0
174 198 0
172 196 0
172 196 0
175 198 0
170 195 0
173 197 0
173 196 0
174 198 0
171 194 0
173 196 0
172 195 0
173 197 0
170 194 0
176 199 0
172 196 0
176 198 0
173 196 0
172 196 0
170 194 0
173 196 0
175 198 0
174 197 0
174 198 0
175 198 0
176 198 0
174 198 0
173 196 0
174 197 0
171 195 0
171 195 0
171 195 0
173 197 0
172 195 0
172 195 0
171 195 0
173 196 0
171 195 0
175 198 0
175 198 0
171 194 0
171 195 0
170 193 0
175 198 0
174 197 0
174 198 0
169 193 0
171 194 0
174 197 0
170 194 0
170 195 0
169 192 0
164 188 0
169 193 0
170 195 0
170 195 0
171 194 0
167 191 0
169 192 0
169 193 0
168 191 0
167 191 0
172 196 0
171 194 0
172 195 0
170 194 0
171 193 0
173 196 0
174 198 0
174 197 0
174 198 0
170 194 0
173 197 0
173 197 0
174 198 0
171 194 0
175 198 0
168 192 0
171 193 0
171 194 25
172 196 0
169 193 36
165 187 25
170 193 0
165 188 0
173 195 0
176 198 25
167 189 44
165 189 51
166 189 25
164 187 0
159 181 44
153 176 62
169 192 31
169 191 44
167 190 60
167 190 62
166 189 44
173 195 67
172 193 76
175 197 76
158 180 62
172 193 36
172 194 76
172 195 72
177 199 95
178 200 108
170 190 88
175 197 80
166 187 72
173 194 80
168 188 51
173 194 88
171 191 36
172 192 72
165 187 62
168 189 72
171 191 62
166 187 80
167 189 51
168 191 51
167 188 51
165 187 72
167 189 80
164 187 72
168 189 51
159 182 51
165 187 51
159 181 36
165 187 80
165 187 51
167 188 72
167 189 80
169 190 80
165 186 62
160 181 80
168 189 62
168 189 62
162 184 72
172 192 88
163 183 62
158 181 51
170 192 62
162 184 51
154 177 0
157 179 36
161 182 0
157 179 51
152 173 51
159 181 0
166 188 51
167 190 0
168 192 0
168 190 0
165 189 0
163 186 0
163 182 0
161 184 0
167 190 0
169 192 0
153 175 0
160 182 0
154 176 0
157 180 0
158 180 0
143 164 0
161 182 0
149 170 0
161 183 0
161 183 0
157 179 0
157 180 0
155 176 0
157 180 0
158 180 0
154 176 0
160 181 0
161 184 0
157 179 0
154 176 0
145 166 0
149 171 0
151 174 0
154 177 0
163 185 0
154 175 0
163 186 0
156 178 0
151 172 0
154 175 0
151 174 0
163 186 0
157 180 0
149 170 0
157 181 0
155 177 0
151 173 0
155 177 0
150 173 0
164 185 0
157 180 0
150 173 0
156 178 0
142 166 0
153 177 0
158 181 0
158 179 0
145 168 0
147 170 0
155 177 0
162 186 0
153 175 0
150 173 0
162 186 0
158 180 0
153 173 0
155 177 0
163 187 0
153 177 0
162 184 0
155 178 0
161 183 0
164 187 0
163 186 0
169 192 0
158 178 0
162 186 0
160 182 0
162 184 0
167 190 0
163 186 0
166 191 0
158 179 0
161 183 0
162 185 0
163 185 0
166 189 0
157 180 0
158 181 0
170 193 0
164 187 0
161 184 0
162 185 0
160 179 0
162 185 0
162 183 0
162 185 0
168 192 0
164 187 0
159 180 0
165 187 0
162 186 0
168 191 0
160 184 0
164 187 0
165 186 0
163 186 0
170 193 0
158 180 0
171 193 0
171 193 0
167 189 0
168 188 0
164 186 0
167 190 0
161 184 0
164 185 0
165 188 0
163 187 0
164 186 0
167 190 0
167 191 0
164 188 0
164 188 0
164 187 0
173 196 0
166 189 0
167 190 0
164 186 0
168 191 0
170 193 0
171 194 0
169 193 0
161 182 0
168 192 0
164 187 0
167 188 0
168 190 0
170 194 0
167 192 0
168 191 0
172 194 0
167 189 0
174 197 0
169 192 0
165 187 0
165 190 0
172 196 0
169 192 0
165 187 0
169 190 0
173 195 0
167 192 0
172 195 0
170 194 0
169 191 0
175 197 0
168 192 0
169 192 0
168 191 0
172 195 0
172 197 0
171 194 0
175 197 0
168 191 0
171 194 0
170 194 0
167 189 0
172 195 0
167 191 0
173 196 0
172 194 0
172 195 0
166 189 0
171 194 0
169 193 0
171 193 0
169 194 0
171 194 0
173 196 0
170 193 0
168 192 0
172 197 0
174 197 0
173 197 0
173 197 0
170 193 0
171 194 0
174 197 0
173 197 0
173 195 0
174 197 0
168 192 0
169 191 0
173 197 0
166 188 0
174 196 0
169 192 0
172 196 0
174 197 0
171 195 0
170 192 0
172 196 0
170 194 0
169 193 0
168 191 0
171 194 0
172 196 0
170 193 0
174 195 0
173 196 0
169 192 0
167 191 0
174 196 0
175 198 0
172 195 0
170 194 0
174 198 0
172 195 0
173 195 0
172 195 0
170 193 0
172 196 0
173 196 0
173 196 0
174 198 0
176 197 0
175 198 0
171 193 0
171 194 0
172 197 0
174 196 0
172 194 0
172 194 0
173 197 0
168 193 0
175 198 0
171 194 0
171 195 0
174 197 0
173 197 0
171 195 0
177 199 0
173 196 0
173 197 0
175 198 0
174 198 0
173 196 0
172 196 0
171 195 0
174 198 0
173 197 0
172 197 0
172 195 0
170 194 0
174 197 0
171 195 0
173 196 0
172 195 0
175 198 0
171 194 0
172 196 0
176 199 0
175 198 0
173 197 0
174 198 0
172 196 0
172 196 0
174 197 0
172 196 0
172 196 0
174 198 0
174 197 0
170 194 0
174 197 0
175 198 0
173 196 0
174 198 0
173 196 0
171 195 0
170 195 0
170 193 0
176 198 0
173 197 0
171 194 0
171 195 0
175 198 0
171 194 0
176 198 0
171 195 0
175 197 0
171 194 0
174 198 0
170 192 0
170 195 0
174 197 0
168 192 0
169 193 0
171 195 0
174 197 0
170 194 0
171 194 0
167 190 0
173 196 0
172 196 0
175 197 0
168 192 0
169 193 0
170 194 0
172 195 0
167 191 0
170 193 0
171 195 0
172 196 0
175 197 0
168 191 0
168 191 0
172 195 0
175 198 0
168 192 0
174 197 0
175 198 0
173 196 0
174 197 0
172 196 0
167 192 0
174 198 0
168 192 0
171 194 0
169 192 0
168 192 25
174 197 0
171 193 0
169 191 0
175 197 0
168 192 25
167 190 0
166 189 0
170 193 0
173 194 25
161 184 25
171 194 0
168 190 25
166 190 36
168 190 44
170 192 51
165 188 62
175 196 72
162 184 51
171 192 25
165 187 67
167 188 57
169 190 51
172 194 72
177 199 72
175 196 84
175 196 88
171 193 88
179 201 108
168 190 62
172 193 51
175 196 62
173 196 108
173 194 114
170 192 102
168 190 36
162 184 36
165 188 72
165 186 88
168 191 80
168 190 88
173 195 88
168 190 62
172 194 72
165 187 51
172 193 62
165 187 62
158 178 51
173 193 51
169 191 95
173 195 51
165 187 51
162 184 62
166 188 36
169 192 51
165 186 72
167 188 95
167 188 62
163 185 62
163 185 36
168 188 62
167 188 62
164 184 51
162 183 62
161 183 36
162 184 36
159 182 36
153 175 36
162 184 0
157 178 36
161 182 36
167 189 36
166 189 0
163 186 0
164 187 0
166 188 0
167 191 0
160 182 0
163 187 0
155 178 0
153 174 0
160 180 0
148 169 0
144 167 0
151 172 0
140 163 0
154 175 0
150 173 0
149 171 0
152 174 0
154 176 0
156 178 0
150 173 0
159 182 0
165 187 0
156 179 0
156 178 0
164 187 0
153 175 0
144 167 0
151 171 0
148 171 0
141 163 0
154 177 0
167 189 0
149 171 0
154 176 0
162 184 0
168 191 0
159 181 0
163 184 0
160 182 0
160 182 0
146 170 0
160 182 0
154 176 0
157 179 0
164 187 0
155 177 0
155 177 0
157 180 0
158 180 0
155 178 0
158 182 0
168 191 0
160 184 0
166 188 0
154 176 0
151 174 0
145 168 0
152 174 0
161 184 0
152 174 0
151 172 0
158 181 0
154 177 0
152 173 0
166 190 0
161 185 0
161 183 0
159 180 0
158 179 0
161 185 0
166 188 0
161 183 0
161 185 0
166 189 0
163 187 0
161 184 0
157 180 0
159 180 0
156 179 0
168 191 0
165 187 0
156 179 0
154 177 0
167 188 0
159 181 0
160 183 0
167 190 0
156 179 0
165 187 0
161 184 0
165 188 0
172 195 0
154 176 0
161 183 0
162 184 0
157 179 0
169 192 0
168 191 0
161 184 0
165 188 0
168 191 0
159 182 0
161 184 0
166 188 0
169 193 0
167 189 0
165 186 0
162 185 0
162 184 0
169 191 0
168 189 0
164 186 0
166 188 0
163 185 0
171 194 0
162 185 0
172 193 0
172 196 0
169 190 0
170 193 0
164 187 0
167 190 0
167 191 0
170 194 0
167 188 0
171 195 0
170 193 0
171 194 0
165 188 0
166 188 0
166 190 0
172 194 0
169 193 0
174 196 0
168 190 0
167 190 0
167 192 0
170 194 0
170 193 0
172 193 0
174 196 0
168 191 0
169 192 0
166 189 0
163 185 0
173 195 0
165 187 0
166 188 0
168 191 0
166 190 0
166 188 0
162 183 0
173 194 0
172 196 0
168 191 0
175 197 0
161 184 0
163 186 0
165 188 0
164 188 0
170 192 0
174 197 0
174 195 0
167 191 0
172 195 0
168 191 0
170 192 0
169 192 0
173 196 0
163 186 0
172 194 0
173 195 0
169 191 0
167 190 0
174 197 0
172 195 0
167 190 0
170 192 0
171 193 0
168 191 0
170 194 0
174 197 0
171 196 0
174 197 0
168 192 0
172 197 0
170 191 0
172 196 0
168 191 0
171 194 0
172 194 0
173 197 0
172 195 0
175 196 0
168 191 0
167 188 0
172 195 0
171 194 0
171 194 0
172 195 0
174 197 0
173 196 0
175 198 0
173 196 0
174 198 0
172 197 0
172 193 0
173 196 0
174 198 0
169 192 0
168 192 0
173 197 0
173 197 0
173 197 0
171 194 0
173 196 0
172 195 0
172 196 0
172 196 0
171 195 0
175 197 0
175 198 0
170 194 0
174 198 0
173 196 0
175 198 0
176 199 0
175 197 0
174 197 0
170 194 0
172 195 0
172 196 0
173 195 0
173 196 0
174 197 0
176 199 0
174 197 0
174 198 0
172 195 0
172 197 0
173 196 0
173 196 0
176 199 0
173 197 0
176 198 0
174 197 0
172 196 0
169 193 0
173 197 0
173 196 0
174 198 0
172 197 0
174 197 0
171 195 0
171 195 0
173 196 0
172 197 0
172 195 0
173 197 0
172 196 0
173 196 0
174 198 0
170 194 0
170 196 0
172 197 0
172 196 0
169 193 0
174 197 0
173 196 0
173 197 0
172 195 0
176 199 0
169 193 0
170 194 0
174 197 0
173 197 0
172 196 0
173 196 0
172 196 0
176 199 0
171 194 0
175 198 0
170 194 0
171 195 0
172 196 0
172 196 0
171 195 0
168 192 0
173 196 0
171 195 0
169 193 0
169 193 0
172 196 0
170 194 0
169 192 0
171 195 0
171 194 0
173 196 0
174 196 0
172 197 0
173 195 0
170 193 0
174 198 0
170 194 0
173 196 0
171 195 0
171 194 0
169 193 0
173 196 0
172 195 0
167 190 0
171 195 0
172 196 0
167 191 0
173 196 0
170 195 0
169 193 0
171 195 0
172 196 0
170 194 0
169 194 0
175 198 0
173 196 0
176 199 0
173 196 0
171 194 36
169 192 0
171 195 0
169 193 0
173 197 0
173 196 0
174 197 0
171 195 25
171 194 36
168 191 25
165 188 25
164 186 25
167 190 25
169 191 0
167 190 25
169 190 36
168 191 0
168 190 44
170 192 0
170 191 0
169 190 51
159 182 51
166 189 25
170 192 57
161 183 57
169 191 57
170 192 51
157 178 62
175 197 80
174 196 62
173 195 80
172 194 51
178 199 80
164 186 51
173 195 80
175 196 80
169 188 36
170 192 62
165 187 36
172 193 72
172 193 80
171 193 80
165 187 62
173 194 72
169 192 72
165 185 51
168 190 72
170 191 72
162 184 62
162 183 51
167 189 80
169 190 51
162 184 62
159 181 36
164 186 62
157 178 51
168 190 72
166 187 51
177 197 114
170 191 62
169 190 62
162 183 95
162 184 72
158 178 0
171 193 36
172 194 51
161 183 36
170 192 51
172 193 72
168 191 62
165 187 36
163 186 36
164 188 0
167 191 0
155 177 0
164 188 0
163 186 0
159 183 0
161 185 0
163 186 0
157 179 0
166 188 0
163 185 0
156 179 0
154 177 0
156 179 0
146 168 0
147 170 0
158 179 0
156 178 0
156 177 0
160 183 0
143 166 0
153 176 0
153 177 0
162 185 0
156 179 0
164 187 0
160 181 0
159 182 0
159 182 0
159 180 0
155 178 0
162 185 0
159 181 0
146 169 0
153 176 0
156 178 0
146 169 0
156 179 0
159 180 0
159 181 0
155 178 0
155 178 0
165 187 0
152 175 0
154 177 0
162 185 0
152 175 0
156 178 0
149 171 0
151 174 0
160 182 0
157 180 0
153 175 0
151 173 0
159 183 0
152 174 0
161 184 0
165 188 0
150 174 0
157 180 0
161 185 0
154 177 0
156 178 0
159 182 0
149 171 0
162 185 0
168 190 0
163 186 0
162 185 0
162 185 0
158 179 0
161 184 0
159 183 0
168 188 0
161 182 0
158 180 0
155 177 0
158 180 0
159 183 0
167 190 0
163 186 0
159 181 0
163 186 0
162 185 0
164 187 0
161 183 0
165 188 0
167 189 0
165 187 0
166 190 0
160 181 0
166 190 0
162 185 0
168 191 0
157 178 0
164 186 0
168 191 0
166 189 0
167 190 0
167 190 0
164 188 0
162 185 0
167 190 0
164 188 0
162 185 0
165 187 0
173 195 0
162 186 0
161 184 0
166 189 0
162 185 0
161 185 0
170 194 0
169 191 0
170 194 0
167 190 0
172 194 0
168 192 0
163 187 0
163 186 0
172 194 0
162 184 0
160 183 0
173 195 0
163 186 0
170 193 0
170 194 0
167 191 0
163 186 0
161 185 0
168 191 0
171 193 0
166 189 0
170 192 0
167 190 0
167 189 0
172 193 0
166 189 0
167 190 0
169 192 0
168 190 0
167 190 0
169 192 0
168 191 0
169 193 0
170 193 0
172 194 0
173 196 0
170 193 0
170 194 0
170 194 0
169 192 0
169 192 0
165 188 0
169 192 0
167 190 0
171 193 0
168 191 0
168 190 0
174 197 0
172 197 0
168 191 0
172 195 0
170 193 0
170 192 0
171 195 0
169 193 0
170 193 0
170 192 0
173 197 0
169 190 0
174 197 0
168 190 0
170 195 0
171 193 0
172 196 0
167 192 0
172 195 0
170 193 0
168 192 0
168 192 0
173 196 0
169 192 0
174 196 0
169 191 0
168 192 0
173 196 0
173 197 0
171 194 0
172 194 0
170 192 0
168 191 0
172 195 0
172 194 0
173 194 0
173 197 0
171 193 0
174 197 0
173 195 0
172 195 0
170 194 0
172 195 0
170 193 0
174 197 0
172 196 0
167 190 0
172 196 0
169 193 0
171 192 0
171 194 0
175 198 0
175 198 0
173 194 0
176 198 0
173 197 0
173 197 0
173 196 0
171 196 0
170 194 0
173 194 0
171 195 0
174 197 0
174 196 0
170 192 0
173 195 0
173 196 0
177 199 0
172 195 0
171 195 0
172 193 0
170 193 0
174 198 0
175 197 0
172 194 0
174 197 0
174 198 0
171 194 0
173 196 0
171 195 0
173 196 0
171 195 0
175 198 0
171 196 0
173 197 0
172 196 0
173 196 0
171 195 0
174 197 0
174 197 0
173 197 0
175 198 0
170 193 0
173 197 0
176 199 0
175 198 0
172 196 0
169 193 0
172 195 0
173 197 0
170 194 0
175 198 0
174 195 0
170 193 0
174 197 0
171 194 0
174 197 0
175 198 0
171 195 0
170 194 0
172 195 0
173 196 0
174 197 0
173 196 0
174 197 0
175 198 0
175 198 0
173 196 0
174 197 0
173 196 0
170 194 0
170 194 0
167 190 0
171 194 0
172 196 0
172 195 0
172 196 0
172 196 0
171 195 0
170 194 0
176 199 0
174 198 0
171 195 0
174 198 0
171 195 0
172 195 0
174 197 0
170 193 0
169 192 0
174 197 0
170 194 0
170 194 0
173 197 0
170 193 0
174 197 0
172 196 0
175 198 0
170 195 0
168 191 0
172 195 0
170 193 0
174 197 0
166 190 0
169 193 0
169 192 0
169 192 0
172 196 0
169 193 0
172 196 0
172 195 0
170 195 0
176 199 0
173 197 0
171 194 0
175 198 0
171 195 0
177 199 0
174 197 0
173 197 0
174 197 0
173 196 36
173 197 0
165 188 25
168 191 0
171 195 0
163 187 25
174 196 25
169 192 0
166 189 0
165 188 36
168 191 25
171 193 0
159 181 25
170 193 36
166 189 25
173 195 36
157 179 72
167 190 0
164 186 36
169 191 44
171 193 51
172 194 0
168 191 57
170 192 44
172 195 0
170 191 0
169 191 80
170 193 95
173 196 72
170 192 80
165 188 62
171 193 72
172 195 51
169 190 62
178 199 51
174 197 88
169 191 72
167 190 88
172 193 62
169 190 62
172 194 80
166 187 62
162 183 62
178 198 62
164 186 72
177 197 88
165 187 108
169 190 88
163 184 72
171 192 51
167 189 36
171 193 72
159 181 88
170 193 108
169 192 95
169 190 62
166 188 62
165 186 80
172 195 80
171 192 62
178 199 80
159 181 36
167 189 36
169 192 36
171 192 62
166 187 0
165 186 51
168 189 36
166 189 0
161 184 36
165 189 0
170 192 0
165 187 0
161 184 0
164 185 0
160 181 0
149 172 0
164 185 0
146 170 0
162 185 0
156 177 0
156 178 0
153 175 0
162 184 0
157 179 0
154 174 0
152 173 0
154 177 0
155 177 0
152 174 0
153 175 0
162 186 0
155 178 0
149 171 0
153 175 0
158 180 0
155 178 0
162 184 0
163 186 0
158 181 0
156 180 0
163 186 0
160 182 0
165 188 0
154 177 0
161 184 0
155 178 0
155 177 0
150 172 0
149 172 0
154 176 0
162 184 0
158 181 0
155 178 0
159 182 0
161 184 0
161 183 0
159 183 0
163 186 0
156 179 0
163 186 0
159 182 0
162 184 0
157 180 0
155 177 0
160 183 0
164 187 0
158 180 0
158 181 0
165 187 0
164 187 0
152 176 0
160 181 0
155 178 0
151 171 0
161 183 0
162 184 0
158 181 0
156 177 0
159 182 0
161 184 0
167 190 0
157 180 0
167 190 0
160 183 0
156 181 0
163 186 0
163 185 0
168 191 0
151 173 0
163 185 0
165 188 0
158 181 0
157 180 0
165 188 0
167 191 0
162 185 0
165 187 0
161 183 0
161 184 0
163 186 0
168 190 0
161 183 0
165 188 0
160 183 0
164 188 0
162 185 0
163 187 0
158 179 0
160 183 0
163 186 0
168 191 0
166 190 0
163 186 0
168 190 0
173 196 0
168 192 0
167 191 0
164 187 0
169 194 0
169 191 0
168 190 0
165 187 0
171 194 0
168 190 0
169 191 0
168 191 0
169 191 0
168 192 0
167 190 0
162 184 0
169 192 0
168 192 0
168 193 0
166 189 0
162 183 0
169 192 0
168 191 0
167 191 0
164 187 0
166 190 0
174 198 0
166 190 0
173 196 0
169 192 0
163 188 0
163 186 0
168 191 0
170 193 0
172 195 0
164 189 0
166 189 0
171 193 0
170 194 0
167 190 0
172 194 0
171 195 0
167 190 0
166 190 0
173 195 0
171 194 0
168 191 0
167 191 0
173 197 0
169 192 0
171 193 0
169 193 0
171 192 0
171 194 0
168 188 0
170 193 0
170 192 0
172 194 0
170 192 0
170 193 0
172 195 0
166 189 0
168 192 0
171 194 0
171 194 0
168 191 0
174 197 0
171 194 0
173 197 0
173 195 0
174 198 0
170 193 0
168 191 0
168 190 0
169 193 0
172 195 0
173 195 0
172 196 0
165 187 0
171 194 0
173 197 0
170 193 0
167 190 0
169 192 0
167 191 0
171 195 0
170 193 0
169 192 0
172 195 0
175 197 0
174 198 0
169 193 0
170 193 0
174 196 0
171 194 0
170 194 0
165 186 0
173 197 0
171 194 0
168 191 0
171 192 0
173 196 0
170 193 0
172 196 0
170 193 0
173 197 0
172 193 0
171 195 0
173 197 0
173 196 0
174 197 0
174 196 0
171 194 0
174 197 0
174 197 0
176 198 0
175 197 0
177 199 0
175 197 0
171 195 0
173 195 0
169 194 0
172 196 0
172 196 0
169 192 0
172 195 0
174 197 0
172 194 0
174 198 0
171 194 0
173 195 0
173 195 0
176 198 0
173 194 0
172 195 0
174 197 0
173 196 0
175 198 0
174 198 0
175 198 0
172 197 0
171 195 0
173 197 0
171 195 0
174 198 0
176 199 0
171 194 0
174 197 0
172 195 0
173 197 0
170 194 0
174 197 0
174 198 0
172 196 0
174 198 0
166 189 0
175 197 0
173 197 0
171 195 0
173 196 0
174 197 0
173 197 0
173 197 0
169 194 0
171 194 0
172 195 0
173 196 0
170 195 0
174 197 0
174 198 0
169 193 0
171 195 0
174 198 0
171 195 0
172 196 0
173 197 0
173 197 0
168 192 0
169 193 0
177 199 0
174 198 0
166 190 0
169 192 0
168 192 0
173 197 0
172 195 0
171 194 0
169 193 0
172 196 0
170 194 0
169 192 0
171 194 0
174 198 0
172 196 0
171 195 0
171 194 0
169 193 0
174 197 0
174 197 0
173 197 0
175 197 0
171 193 0
174 197 0
168 192 0
166 189 0
173 197 0
168 192 0
171 195 0
173 196 0
173 196 0
173 196 0
174 196 0
172 194 0
169 193 0
174 198 0
171 194 0
172 196 0
174 197 0
174 198 0
172 195 0
173 197 0
173 197 0
172 196 0
172 196 0
171 194 0
172 195 0
172 196 0
168 192 25
164 188 25
171 193 0
168 192 36
171 194 25
175 197 0
164 188 44
174 197 0
172 194 0
168 191 0
170 194 57
174 196 62
168 191 57
176 197 25
161 184 57
169 192 25
161 184 44
166 188 44
167 188 44
169 191 36
162 184 57
167 188 36
163 185 44
170 192 57
175 197 67
172 194 67
177 197 51
170 193 51
169 191 62
165 186 62
169 191 72
170 193 36
169 191 72
171 192 62
168 189 62
175 196 80
170 192 72
168 189 80
171 190 36
172 194 62
170 191 62
160 181 0
168 191 80
163 186 80
162 182 72
163 184 51
180 200 72
162 184 72
167 189 51
168 191 0
169 191 80
173 194 80
175 195 102
164 183 51
171 192 80
172 193 95
158 180 72
165 185 62
174 195 80
161 183 51
163 185 36
170 191 51
167 189 51
164 186 36
163 185 36
154 176 51
160 183 0
166 190 0
157 180 0
164 187 0
160 183 0
164 187 0
155 178 0
170 192 0
152 175 0
162 183 0
159 181 0
158 180 0
159 183 0
157 178 0
153 174 0
150 173 0
161 182 0
156 177 0
162 184 0
143 165 0
155 176 0
158 180 0
163 186 0
155 178 0
161 183 0
165 188 0
165 188 0
152 175 0
156 178 0
159 181 0
153 177 0
158 182 0
156 178 0
158 180 0
155 178 0
163 187 0
159 181 0
165 187 0
161 185 0
156 179 0
156 180 0
152 173 0
161 183 0
152 175 0
161 183 0
155 177 0
155 176 0
153 175 0
157 178 0
155 177 0
154 177 0
157 180 0
161 182 0
157 180 0
157 180 0
160 183 0
163 186 0
167 191 0
160 182 0
161 184 0
164 187 0
154 177 0
163 185 0
161 185 0
163 185 0
159 182 0
163 186 0
154 177 0
153 177 0
162 186 0
152 176 0
167 190 0
156 180 0
156 177 0
150 175 0
164 186 0
163 187 0
167 189 0
162 184 0
152 176 0
159 184 0
162 185 0
162 184 0
170 192 0
165 186 0
165 188 0
160 183 0
167 190 0
161 185 0
163 187 0
170 192 0
160 184 0
163 186 0
163 186 0
163 186 0
165 187 0
163 186 0
166 188 0
162 186 0
167 190 0
163 186 0
158 181 0
163 187 0
169 192 0
166 190 0
170 192 0
166 189 0
157 181 0
166 189 0
165 187 0
167 190 0
167 189 0
170 192 0
171 195 0
169 191 0
165 188 0
172 195 0
173 194 0
164 187 0
166 191 0
163 186 0
166 189 0
170 194 0
173 196 0
167 191 0
167 190 0
167 191 0
165 187 0
163 185 0
169 193 0
166 189 0
172 193 0
168 191 0
165 188 0
165 187 0
172 196 0
174 196 0
169 191 0
166 191 0
167 189 0
170 191 0
163 187 0
166 188 0
163 186 0
170 193 0
170 194 0
167 190 0
169 193 0
171 194 0
170 192 0
173 196 0
167 190 0
170 195 0
170 192 0
165 188 0
168 192 0
167 189 0
169 193 0
172 194 0
169 191 0
171 193 0
168 191 0
169 192 0
169 192 0
171 194 0
171 194 0
171 195 0
168 192 0
173 196 0
169 192 0
170 193 0
169 191 0
168 190 0
173 195 0
170 194 0
173 197 0
168 191 0
166 187 0
174 198 0
167 191 0
171 194 0
173 196 0
168 191 0
173 196 0
173 196 0
171 192 0
171 194 0
172 195 0
169 191 0
171 195 0
170 193 0
171 194 0
174 197 0
172 197 0
172 196 0
173 196 0
172 196 0
172 195 0
173 197 0
173 197 0
171 193 0
168 190 0
169 192 0
176 198 0
171 194 0
170 193 0
172 195 0
170 193 0
169 193 0
174 197 0
171 195 0
169 193 0
173 194 0
172 194 0
170 192 0
173 197 0
168 191 0
175 198 0
176 199 0
172 197 0
171 194 0
170 195 0
172 197 0
170 194 0
173 197 0
173 197 0
171 192 0
173 196 0
174 197 0
174 197 0
174 198 0
172 195 0
174 197 0
175 198 0
176 199 0
172 196 0
172 195 0
172 195 0
174 196 0
168 192 0
173 197 0
174 197 0
171 195 0
170 194 0
172 196 0
174 198 0
174 198 0
174 198 0
178 200 0
172 196 0
171 195 0
174 198 0
173 197 0
173 196 0
174 197 0
172 196 0
169 194 0
173 196 0
173 196 0
173 197 0
171 194 0
167 192 0
173 197 0
172 196 0
172 196 0
172 194 0
173 197 0
172 196 0
171 196 0
173 196 0
172 196 0
174 197 0
171 196 0
175 198 0
174 197 0
173 197 0
171 195 0
173 197 0
169 194 0
173 197 0
169 192 0
176 199 0
167 190 0
173 196 0
173 197 0
170 194 0
177 199 0
171 195 0
173 197 0
165 189 0
176 199 0
168 192 0
170 193 0
176 198 0
174 197 0
173 197 0
169 194 0
170 194 0
171 195 0
174 198 0
172 195 0
172 196 0
173 197 0
170 193 0
173 196 0
171 195 0
169 193 0
173 196 0
168 191 0
175 198 0
170 193 0
173 196 0
171 195 0
171 195 0
173 195 0
173 197 0
175 198 0
170 193 0
173 196 0
172 196 0
170 195 0
171 195 0
171 195 0
174 197 0
177 199 0
174 198 0
175 197 0
175 198 0
176 199 0
172 196 0
171 194 0
171 196 0
173 197 0
167 191 0
174 196 0
171 194 0
170 193 25
172 195 0
169 191 18
171 194 25
173 195 0
172 194 0
174 196 62
166 190 25
172 194 0
167 190 57
174 196 36
167 189 36
165 187 51
159 181 25
167 191 36
169 191 57
173 194 25
170 191 44
174 196 0
166 188 51
164 186 44
164 186 57
169 190 67
171 192 51
177 199 72
174 196 88
175 196 80
168 191 51
178 200 88
170 191 62
171 192 62
173 194 51
175 196 95
170 192 88
168 190 80
172 195 62
171 194 36
171 194 88
169 191 80
158 181 72
161 182 88
162 184 51
174 196 108
162 183 36
169 193 80
168 189 51
172 192 51
159 180 51
164 184 62
176 197 72
170 192 80
173 194 80
163 185 51
163 185 36
175 196 51
169 191 51
164 185 72
170 191 36
165 188 62
169 193 0
165 188 0
158 180 36
166 189 0
166 188 36
168 191 36
167 190 0
168 191 0
169 192 0
170 194 0
167 191 0
167 189 0
163 185 0
160 183 0
160 183 0
166 190 0
160 182 0
167 190 0
159 180 0
152 175 0
157 180 0
161 183 0
165 188 0
153 175 0
142 164 0
158 180 0
161 184 0
163 185 0
162 185 0
149 172 0
155 178 0
160 183 0
160 182 0
168 190 0
159 182 0
155 176 0
161 183 0
162 183 0
159 181 0
156 179 0
158 181 0
166 188 0
162 184 0
158 181 0
156 180 0
161 185 0
167 190 0
152 174 0
156 179 0
159 182 0
152 175 0
159 181 0
168 190 0
162 184 0
160 183 0
153 177 0
159 184 0
156 178 0
154 176 0
153 176 0
151 174 0
156 179 0
157 180 0
160 184 0
156 179 0
158 180 0
149 172 0
161 184 0
157 181 0
167 190 0
153 176 0
163 185 0
162 184 0
162 186 0
166 189 0
160 182 0
161 184 0
168 189 0
159 182 0
161 185 0
154 175 0
150 173 0
163 185 0
155 177 0
158 181 0
160 184 0
162 184 0
159 181 0
156 179 0
168 191 0
164 188 0
163 186 0
161 185 0
162 186 0
160 183 0
156 180 0
160 183 0
161 184 0
167 191 0
162 185 0
165 187 0
164 185 0
161 184 0
166 188 0
168 189 0
167 189 0
162 183 0
169 192 0
167 190 0
166 188 0
167 190 0
173 196 0
164 188 0
168 190 0
164 188 0
170 194 0
169 192 0
166 188 0
164 186 0
164 186 0
168 190 0
168 192 0
161 185 0
164 187 0
164 188 0
167 190 0
166 189 0
163 187 0
165 188 0
168 190 0
166 190 0
164 186 0
168 190 0
173 194 0
174 196 0
172 195 0
169 192 0
165 189 0
167 189 0
166 190 0
163 187 0
168 191 0
174 195 0
165 188 0
165 187 0
168 191 0
170 193 0
171 195 0
171 194 0
172 193 0
161 185 0
165 189 0
167 189 0
171 194 0
171 193 0
169 192 0
171 193 0
167 191 0
171 195 0
166 188 0
164 186 0
169 191 0
169 193 0
173 196 0
172 194 0
169 193 0
170 193 0
172 196 0
173 197 0
170 192 0
171 195 0
168 189 0
172 196 0
169 193 0
171 193 0
174 196 0
171 194 0
171 194 0
172 194 0
172 195 0
169 193 0
174 197 0
173 196 0
168 191 0
171 195 0
169 192 0
173 197 0
172 196 0
168 190 0
168 193 0
174 196 0
170 191 0
170 193 0
171 194 0
166 189 0
170 192 0
170 193 0
174 198 0
167 191 0
172 196 0
170 194 0
171 195 0
173 196 0
173 197 0
173 196 0
173 197 0
172 197 0
171 194 0
169 192 0
171 195 0
172 195 0
172 196 0
173 197 0
172 196 0
169 193 0
172 197 0
170 194 0
171 196 0
173 196 0
176 199 0
171 196 0
171 195 0
173 196 0
173 196 0
173 196 0
171 194 0
175 198 0
172 196 0
174 198 0
175 198 0
173 197 0
174 197 0
174 198 0
170 193 0
172 196 0
173 197 0
171 195 0
170 195 0
175 197 0
173 196 0
171 195 0
173 196 0
171 196 0
174 196 0
175 198 0
173 196 0
172 197 0
173 196 0
172 196 0
173 196 0
172 196 0
174 197 0
173 197 0
174 197 0
171 195 0
173 196 0
175 198 0
174 198 0
172 195 0
172 196 0
175 197 0
172 197 0
172 196 0
174 197 0
172 195 0
172 196 0
174 197 0
175 198 0
169 194 0
174 198 0
175 198 0
171 194 0
175 198 0
173 197 0
175 197 0
171 194 0
169 193 0
172 196 0
170 194 0
171 195 0
173 197 0
170 194 0
169 192 0
172 195 0
172 195 0
175 198 0
170 195 0
169 192 0
176 199 0
171 196 0
172 196 0
173 197 0
175 198 0
173 196 0
177 199 0
174 197 0
174 197 0
172 197 0
172 196 0
171 194 0
173 197 0
175 198 0
169 193 0
171 194 0
171 195 0
173 197 0
173 196 0
168 191 0
171 195 0
168 191 0
172 196 0
166 190 0
171 195 0
171 196 0
171 195 0
173 196 0
174 196 0
169 192 0
173 195 0
171 195 0
171 195 0
171 195 0
172 196 0
173 194 0
167 191 0
175 198 0
174 197 0
170 195 0
174 197 0
170 195 0
175 198 0
173 197 0
172 196 0
174 197 0
173 197 0
170 196 0
172 195 0
168 191 0
172 197 0
173 196 0
165 189 0
167 192 0
171 193 0
164 187 0
173 195 36
162 186 18
169 191 0
164 187 0
167 190 44
171 193 51
174 197 57
171 193 36
180 201 72
171 193 25
173 194 67
158 179 51
169 190 25
163 185 25
170 192 51
175 196 36
166 187 67
166 189 57
169 190 67
169 191 57
176 198 62
172 194 72
173 194 62
173 194 36
171 192 51
171 193 88
171 193 62
177 198 72
170 193 62
172 194 72
171 193 88
171 192 62
165 188 62
161 182 72
163 185 36
171 192 62
161 183 51
169 191 62
170 191 51
170 192 80
166 186 62
170 191 80
168 187 62
166 188 51
169 191 88
164 187 72
170 190 88
174 194 95
168 188 72
171 191 51
167 188 36
168 191 51
168 190 36
172 193 36
169 191 0
170 191 51
172 192 36
160 180 36
151 174 51
165 187 51
168 191 0
170 194 0
169 192 0
167 189 0
162 185 0
170 193 0
166 189 0
161 184 0
156 178 0
164 186 0
166 188 0
160 183 0
167 189 0
146 168 0
163 185 0
162 183 0
161 182 0
162 184 0
157 179 0
161 183 0
159 181 0
160 183 0
155 177 0
163 186 0
156 177 0
166 189 0
153 175 0
159 181 0
153 176 0
167 188 0
152 174 0
156 178 0
159 182 0
155 176 0
162 186 0
158 179 0
159 181 0
159 182 0
163 185 0
164 186 0
149 172 0
163 186 0
151 173 0
153 175 0
162 185 0
153 175 0
159 183 0
164 188 0
159 180 0
155 177 0
164 188 0
155 178 0
153 176 0
163 186 0
157 179 0
161 185 0
158 182 0
154 177 0
160 182 0
157 180 0
157 180 0
171 194 0
155 178 0
154 174 0
166 188 0
164 187 0
163 186 0
168 189 0
168 189 0
167 191 0
160 184 0
157 180 0
156 179 0
167 188 0
157 181 0
160 184 0
162 186 0
164 188 0
162 184 0
164 187 0
165 188 0
159 182 0
163 186 0
157 180 0
165 188 0
157 180 0
155 177 0
166 188 0
170 194 0
168 190 0
164 186 0
159 183 0
168 193 0
165 188 0
165 186 0
166 189 0
160 183 0
168 191 0
159 183 0
172 194 0
168 192 0
167 190 0
165 187 0
170 191 0
169 193 0
164 186 0
168 190 0
165 187 0
168 191 0
163 186 0
167 190 0
168 191 0
165 189 0
163 188 0
162 184 0
163 186 0
162 185 0
169 190 0
165 190 0
168 191 0
161 185 0
172 195 0
169 190 0
167 188 0
169 193 0
171 193 0
164 186 0
165 188 0
166 189 0
168 191 0
166 190 0
167 190 0
170 193 0
167 191 0
168 191 0
167 191 0
170 193 0
169 190 0
171 193 0
167 191 0
161 183 0
169 191 0
175 197 0
167 190 0
168 191 0
165 186 0
170 194 0
169 193 0
168 191 0
165 188 0
171 193 0
167 191 0
169 193 0
171 194 0
166 190 0
175 198 0
167 191 0
170 193 0
172 195 0
167 189 0
174 197 0
177 198 0
157 179 0
172 195 0
168 192 0
174 198 0
171 196 0
170 193 0
169 192 0
169 192 0
171 193 0
169 193 0
171 195 0
171 195 0
174 197 0
174 198 0
167 189 0
166 189 0
173 195 0
174 197 0
171 193 0
169 192 0
167 191 0
172 196 0
172 196 0
170 194 0
173 195 0
172 196 0
165 187 0
171 194 0
175 198 0
172 195 0
168 192 0
171 193 0
168 191 0
172 195 0
174 196 0
176 199 0
172 196 0
171 194 0
173 197 0
175 198 0
175 198 0
172 196 0
172 196 0
171 195 0
171 195 0
172 195 0
175 197 0
173 197 0
173 194 0
171 194 0
171 195 0
174 197 0
169 193 0
169 192 0
173 196 0
170 193 0
170 193 0
172 195 0
173 197 0
176 199 0
175 197 0
170 192 0
172 195 0
173 197 0
174 198 0
170 193 0
173 196 0
174 197 0
171 195 0
173 197 0
169 192 0
174 195 0
173 196 0
171 194 0
172 195 0
174 197 0
173 197 0
174 197 0
169 192 0
174 196 0
174 196 0
173 197 0
175 197 0
172 196 0
175 198 0
171 195 0
169 193 0
175 198 0
173 197 0
173 196 0
175 198 0
176 199 0
174 197 0
173 197 0
174 197 0
175 198 0
171 193 0
173 197 0
175 198 0
175 198 0
174 198 0
174 198 0
172 196 0
172 195 0
173 196 0
175 198 0
172 196 0
172 195 0
170 193 0
172 195 0
176 198 0
171 195 0
173 196 0
172 196 0
170 194 0
171 195 0
173 197 0
174 198 0
172 196 0
168 192 0
173 197 0
175 197 0
167 190 0
172 196 0
172 196 0
174 198 0
172 195 0
175 198 0
172 196 0
175 198 0
176 199 0
173 197 0
171 195 0
170 193 0
170 194 0
172 196 0
173 196 0
171 195 0
171 194 0
171 194 0
174 197 0
168 192 0
170 192 0
171 195 0
173 196 0
173 197 0
172 196 0
173 197 0
174 197 0
173 196 0
169 192 0
170 193 0
169 192 0
172 196 0
172 195 0
173 195 0
173 197 0
175 198 0
169 193 0
171 195 0
174 196 0
169 191 0
176 199 0
171 195 0
171 195 0
174 197 0
172 195 0
176 198 0
172 196 0
173 196 0
170 194 0
172 196 0
174 197 0
170 194 0
174 197 0
169 192 0
171 193 25
172 195 0
174 197 57
169 192 25
169 192 18
162 184 0
173 197 0
172 196 0
171 194 0
172 194 25
171 193 0
174 196 88
174 196 67
169 192 36
165 188 44
154 176 84
170 190 51
174 196 25
165 188 57
165 188 51
169 190 44
167 189 57
178 199 95
173 195 95
179 200 51
172 193 80
176 197 102
178 199 72
169 190 51
174 195 80
169 190 72
172 191 51
163 185 62
172 194 80
171 193 95
169 192 102
173 195 72
173 193 72
173 195 72
171 194 72
170 192 51
169 189 62
170 192 80
171 193 62
176 196 95
171 193 72
169 191 88
174 196 72
173 194 72
172 194 62
174 195 95
156 177 36
157 178 0
169 190 51
169 191 36
168 189 36
164 187 36
158 179 36
164 186 51
166 189 0
163 186 0
168 190 0
163 185 0
171 195 0
172 194 0
168 191 0
159 181 0
157 180 0
162 184 0
150 173 0
165 188 0
164 187 0
167 188 0
169 191 0
173 193 0
161 182 0
159 182 0
164 187 0
149 170 0
165 187 0
153 176 0
159 181 0
162 184 0
169 190 0
159 181 0
165 188 0
161 183 0
160 183 0
145 167 0
160 182 0
151 174 0
160 183 0
162 185 0
159 181 0
159 181 0
158 181 0
158 180 0
162 186 0
150 173 0
155 178 0
153 176 0
148 170 0
160 183 0
164 186 0
153 176 0
160 183 0
157 179 0
159 182 0
156 179 0
152 175 0
168 191 0
159 182 0
158 182 0
163 188 0
159 182 0
167 189 0
163 184 0
166 190 0
158 180 0
170 191 0
162 185 0
161 183 0
157 179 0
158 181 0
162 185 0
147 170 0
161 184 0
164 187 0
167 190 0
161 183 0
168 191 0
158 181 0
159 181 0
164 187 0
165 187 0
168 192 0
165 188 0
156 179 0
155 177 0
159 183 0
168 191 0
156 179 0
170 193 0
165 187 0
163 186 0
159 182 0
165 188 0
163 184 0
166 189 0
166 188 0
165 186 0
155 177 0
166 188 0
165 188 0
160 184 0
165 187 0
171 192 0
168 190 0
159 182 0
165 188 0
169 191 0
167 190 0
165 188 0
166 189 0
167 189 0
164 187 0
164 185 0
170 194 0
170 194 0
161 184 0
168 191 0
161 183 0
164 187 0
168 192 0
169 193 0
164 188 0
168 189 0
171 195 0
167 191 0
165 188 0
168 190 0
171 194 0
168 192 0
166 189 0
169 190 0
165 188 0
167 189 0
166 189 0
171 195 0
167 190 0
170 192 0
158 181 0
167 189 0
171 196 0
168 191 0
170 194 0
166 188 0
168 189 0
170 194 0
170 192 0
169 192 0
170 193 0
172 194 0
167 191 0
169 192 0
167 190 0
177 198 0
167 191 0
172 193 0
168 192 0
164 188 0
173 195 0
170 193 0
171 194 0
166 188 0
169 192 0
167 190 0
172 196 0
167 191 0
170 193 0
171 195 0
171 194 0
169 192 0
171 194 0
169 192 0
169 194 0
172 195 0
171 194 0
173 197 0
170 194 0
167 191 0
169 193 0
171 194 0
174 197 0
174 196 0
171 195 0
168 191 0
170 195 0
172 194 0
174 198 0
171 193 0
171 192 0
170 193 0
172 196 0
172 193 0
172 195 0
172 196 0
168 191 0
171 195 0
170 192 0
173 196 0
172 195 0
173 195 0
171 194 0
174 198 0
172 195 0
170 194 0
172 196 0
173 195 0
164 186 0
171 195 0
174 196 0
172 197 0
171 195 0
172 196 0
173 195 0
174 197 0
172 194 0
167 190 0
171 195 0
170 194 0
169 192 0
174 197 0
174 197 0
172 195 0
173 196 0
172 195 0
173 195 0
174 197 0
171 193 0
174 198 0
173 196 0
170 193 0
170 193 0
170 192 0
173 196 0
173 196 0
175 198 0
173 196 0
172 196 0
174 197 0
174 197 0
173 196 0
171 195 0
171 194 0
173 196 0
169 191 0
169 193 0
172 196 0
173 196 0
171 195 0
169 193 0
174 197 0
174 197 0
173 195 0
173 197 0
171 193 0
171 195 0
176 198 0
172 196 0
174 197 0
174 197 0
174 197 0
173 196 0
172 196 0
174 197 0
173 197 0
173 195 0
173 196 0
172 194 0
171 195 0
176 198 0
169 193 0
174 197 0
172 196 0
172 196 0
172 196 0
170 194 0
170 193 0
174 198 0
173 196 0
173 197 0
175 198 0
168 192 0
174 197 0
172 195 0
172 195 0
175 198 0
170 193 0
172 195 0
174 197 0
172 196 0
170 195 0
170 194 0
170 195 0
173 197 0
172 197 0
173 196 0
169 192 0
172 197 0
173 197 0
174 197 0
172 196 0
171 195 0
173 197 0
174 197 0
173 197 0
173 196 0
170 194 0
170 193 0
173 196 0
169 193 0
174 197 0
175 198 0
173 195 0
168 191 0
173 196 0
170 195 0
170 193 0
173 196 0
170 195 0
169 193 0
171 195 0
170 194 0
172 195 0
169 193 0
172 195 0
173 196 0
174 197 0
171 195 0
174 195 0
173 196 0
171 194 0
169 193 0
171 194 0
168 191 0
171 195 0
174 198 0
173 197 0
172 196 0
172 196 0
171 193 0
173 197 0
174 198 0
174 197 0
173 196 0
175 198 0
174 197 0
171 194 0
174 197 0
171 194 36
171 195 0
168 191 0
172 195 0
171 195 0
172 194 0
172 196 0
172 194 0
176 198 0
171 193 25
174 197 0
171 194 44
169 192 36
166 189 25
180 201 80
175 197 62
167 189 67
174 195 92
169 191 62
175 196 67
175 197 62
171 192 92
176 198 95
177 198 62
172 192 51
174 194 36
171 194 62
177 198 72
169 191 51
178 198 72
171 192 80
179 199 80
171 193 80
171 193 72
168 188 72
169 191 62
167 189 72
173 194 72
171 192 62
174 194 95
168 189 51
172 194 80
169 189 51
175 195 88
170 191 51
172 192 88
165 188 36
169 189 80
169 191 80
173 196 72
168 189 62
169 190 36
171 193 36
164 185 36
163 185 0
172 192 0
166 187 36
165 187 36
163 185 36
160 183 0
166 189 51
170 194 0
170 193 0
163 186 0
167 190 0
167 189 0
170 194 0
165 187 0
168 189 0
163 185 0
165 187 0
164 186 0
159 180 0
152 174 0
162 183 0
158 180 0
150 172 0
151 173 0
152 175 0
156 178 0
159 181 0
166 188 0
163 186 0
155 177 0
164 186 0
150 173 0
158 180 0
158 179 0
163 185 0
165 186 0
158 180 0
156 180 0
167 189 0
163 185 0
150 174 0
162 185 0
162 185 0
161 182 0
163 186 0
155 177 0
161 183 0
158 181 0
157 179 0
165 188 0
160 182 0
169 191 0
160 183 0
150 172 0
156 180 0
158 182 0
161 184 0
163 185 0
162 184 0
164 187 0
163 184 0
160 183 0
156 179 0
164 187 0
164 185 0
155 177 0
162 185 0
163 184 0
159 184 0
159 181 0
166 189 0
164 188 0
164 186 0
164 187 0
162 185 0
164 188 0
164 186 0
168 190 0
167 191 0
168 190 0
164 187 0
152 175 0
168 191 0
162 186 0
164 186 0
166 191 0
153 175 0
164 186 0
168 190 0
167 188 0
173 197 0
157 180 0
163 186 0
161 184 0
169 192 0
163 186 0
157 180 0
162 185 0
157 180 0
164 187 0
162 185 0
163 185 0
168 191 0
166 189 0
169 192 0
163 186 0
163 187 0
161 185 0
164 188 0
157 179 0
167 191 0
166 188 0
165 188 0
164 187 0
166 189 0
166 190 0
170 193 0
163 186 0
170 194 0
168 192 0
166 188 0
165 189 0
166 190 0
170 194 0
168 190 0
165 187 0
167 189 0
166 188 0
162 185 0
166 189 0
162 185 0
163 183 0
169 193 0
167 190 0
172 194 0
169 192 0
167 190 0
171 193 0
168 192 0
169 192 0
172 195 0
170 194 0
166 189 0
166 189 0
168 191 0
169 192 0
166 188 0
166 188 0
171 194 0
170 194 0
166 190 0
167 191 0
169 193 0
169 192 0
173 195 0
170 192 0
170 192 0
163 188 0
170 192 0
169 192 0
170 194 0
169 192 0
168 191 0
168 191 0
171 194 0
172 193 0
169 193 0
170 193 0
168 190 0
169 193 0
172 196 0
168 188 0
170 194 0
172 196 0
171 194 0
173 196 0
169 192 0
167 190 0
172 194 0
170 194 0
171 195 0
172 194 0
172 196 0
171 193 0
174 197 0
171 193 0
168 190 0
173 195 0
167 189 0
172 196 0
171 195 0
170 193 0
172 195 0
173 195 0
171 193 0
174 197 0
173 195 0
172 195 0
171 194 0
173 197 0
174 197 0
174 196 0
171 192 0
170 194 0
175 198 0
171 194 0
170 194 0
174 198 0
175 198 0
171 194 0
174 197 0
171 195 0
172 196 0
171 194 0
172 197 0
172 195 0
172 194 0
171 193 0
174 196 0
170 193 0
166 190 0
170 192 0
171 195 0
174 196 0
171 195 0
171 194 0
174 197 0
174 196 0
174 197 0
172 196 0
171 194 0
174 198 0
174 198 0
170 194 0
171 194 0
172 195 0
173 197 0
174 198 0
170 193 0
173 196 0
173 197 0
169 193 0
173 197 0
177 199 0
172 196 0
172 196 0
176 199 0
171 195 0
173 197 0
175 196 0
167 191 0
173 196 0
171 194 0
170 193 0
175 197 0
172 196 0
175 198 0
170 194 0
174 197 0
175 198 0
174 197 0
173 197 0
174 197 0
174 197 0
172 195 0
174 198 0
169 193 0
173 196 0
172 195 0
173 197 0
174 197 0
172 197 0
176 199 0
176 198 0
172 196 0
172 195 0
172 195 0
174 197 0
177 199 0
168 192 0
172 196 0
171 195 0
173 197 0
175 198 0
172 196 0
171 195 0
173 196 0
172 195 0
173 197 0
176 198 0
172 196 0
172 195 0
173 197 0
169 193 0
173 197 0
172 196 0
170 195 0
173 197 0
172 196 0
166 190 0
173 196 0
168 192 0
171 194 0
171 195 0
170 194 0
171 194 0
170 193 0
171 194 0
172 195 0
173 196 0
170 193 0
172 195 0
171 195 0
171 195 0
172 195 0
168 191 0
172 196 0
170 194 0
167 190 0
176 198 0
172 194 0
172 196 0
174 197 0
173 196 0
172 195 0
171 195 0
171 195 0
168 191 0
171 195 0
169 193 0
168 192 0
173 197 0
175 197 0
174 197 0
170 194 0
172 196 0
171 195 0
171 194 0
174 197 0
173 197 0
168 192 0
172 196 0
173 197 0
173 197 0
174 197 0
175 198 0
174 197 36
172 196 0
175 197 36
172 194 0
171 193 51
175 197 0
169 192 36
172 193 0
172 195 25
166 190 44
173 195 0
174 195 44
178 198 80
177 198 72
175 196 44
169 191 0
173 194 36
170 191 62
172 194 44
177 199 51
172 195 51
176 197 88
172 194 80
174 194 36
177 198 62
178 200 88
175 196 80
170 194 108
173 193 72
178 199 88
176 197 62
171 193 62
177 199 88
169 190 51
169 191 95
177 198 88
165 188 51
170 192 36
170 192 51
178 197 62
172 193 80
170 193 51
179 200 102
171 191 36
178 198 80
172 193 72
174 195 88
175 197 80
171 192 88
172 192 0
179 199 62
162 183 62
168 190 0
160 181 0
168 190 0
166 188 51
164 187 0
171 193 36
170 192 0
168 191 0
168 190 0
167 190 0
169 191 0
169 192 0
171 192 0
163 186 0
165 189 0
167 190 0
161 184 0
164 185 0
159 181 0
160 182 0
162 184 0
156 177 0
155 177 0
154 177 0
166 189 0
158 181 0
159 181 0
162 185 0
161 184 0
165 186 0
162 184 0
161 184 0
160 183 0
157 180 0
165 187 0
153 176 0
168 190 0
157 179 0
159 182 0
155 177 0
161 182 0
157 180 0
156 177 0
157 179 0
162 184 0
160 184 0
162 184 0
157 180 0
167 189 0
158 181 0
152 175 0
156 177 0
159 181 0
163 186 0
168 193 0
165 187 0
158 182 0
161 185 0
164 186 0
162 186 0
161 184 0
165 188 0
154 178 0
157 180 0
157 181 0
158 181 0
156 178 0
165 190 0
159 181 0
152 175 0
159 180 0
157 180 0
167 189 0
161 183 0
164 189 0
168 191 0
161 185 0
165 189 0
160 183 0
158 182 0
164 187 0
165 188 0
158 182 0
153 176 0
162 186 0
161 184 0
165 187 0
167 191 0
165 189 0
157 181 0
161 185 0
158 181 0
163 186 0
165 189 0
167 189 0
164 188 0
158 181 0
166 189 0
157 180 0
167 190 0
170 193 0
167 190 0
173 196 0
164 187 0
165 188 0
165 190 0
159 182 0
163 185 0
159 181 0
166 188 0
164 187 0
164 188 0
157 179 0
163 185 0
168 191 0
161 183 0
166 189 0
173 195 0
159 182 0
162 184 0
164 185 0
171 193 0
164 188 0
164 187 0
169 192 0
167 189 0
166 190 0
167 190 0
168 190 0
167 190 0
169 191 0
165 189 0
170 194 0
167 189 0
168 190 0
170 194 0
170 194 0
170 192 0
169 193 0
169 192 0
176 198 0
167 191 0
170 193 0
169 191 0
167 190 0
171 195 0
170 194 0
173 196 0
168 191 0
170 193 0
171 193 0
163 185 0
167 188 0
169 193 0
170 193 0
173 195 0
162 185 0
171 193 0
172 195 0
171 194 0
169 192 0
169 191 0
171 194 0
172 194 0
172 195 0
172 196 0
170 194 0
168 190 0
168 191 0
166 190 0
164 186 0
170 194 0
174 197 0
171 193 0
169 193 0
170 193 0
173 195 0
170 193 0
170 192 0
175 198 0
173 194 0
172 196 0
170 192 0
165 186 0
171 195 0
168 191 0
171 194 0
172 195 0
173 196 0
172 194 0
171 193 0
168 191 0
172 195 0
170 193 0
167 190 0
173 195 0
169 192 0
171 195 0
169 191 0
170 194 0
173 196 0
173 196 0
171 194 0
175 197 0
174 196 0
169 192 0
173 194 0
172 197 0
175 198 0
171 195 0
177 199 0
171 195 0
174 197 0
172 195 0
166 189 0
175 198 0
172 197 0
174 196 0
167 191 0
171 194 0
172 194 0
175 198 0
172 196 0
173 196 0
173 197 0
173 197 0
173 196 0
172 196 0
170 192 0
174 197 0
171 194 0
174 198 0
169 193 0
173 197 0
171 195 0
166 189 0
173 196 0
172 196 0
170 193 0
174 196 0
175 197 0
175 198 0
172 196 0
173 196 0
170 193 0
171 195 0
175 198 0
174 197 0
173 196 0
174 198 0
172 196 0
173 196 0
172 196 0
173 195 0
176 198 0
174 197 0
175 198 0
171 195 0
175 198 0
175 198 0
172 197 0
172 196 0
173 196 0
173 196 0
173 197 0
173 196 0
174 197 0
176 198 0
169 192 0
174 198 0
174 198 0
175 198 0
169 194 0
173 197 0
170 194 0
173 196 0
176 198 0
169 192 0
171 194 0
172 196 0
169 194 0
174 197 0
171 195 0
176 199 0
175 198 0
171 195 0
172 195 0
173 196 0
172 197 0
172 197 0
173 197 0
174 198 0
169 194 0
175 198 0
175 198 0
170 194 0
169 193 0
172 195 0
170 193 0
175 198 0
172 195 0
172 196 0
172 195 0
171 195 0
172 195 0
174 197 0
172 195 0
171 195 0
170 194 0
175 198 0
171 195 0
172 194 0
170 193 0
170 194 0
171 195 0
172 196 0
173 197 0
174 198 0
172 196 0
173 196 0
173 196 0
175 198 0
171 195 0
175 198 0
172 196 0
170 194 0
175 198 0
169 193 0
174 197 0
173 195 0
163 187 0
174 197 0
171 193 0
168 191 0
167 190 0
176 198 0
177 198 0
175 198 0
175 198 0
174 197 0
173 197 0
171 195 0
172 195 0
170 193 0
172 195 0
176 198 0
174 197 0
171 194 0
176 198 0
171 193 0
171 194 25
173 197 36
169 192 51
175 198 0
172 194 36
171 192 0
170 192 36
166 188 0
169 190 25
174 196 36
177 199 0
177 198 72
178 199 62
171 195 51
179 200 72
174 195 51
174 196 57
173 195 51
168 190 51
179 199 72
175 198 88
173 194 88
176 196 62
173 194 72
172 193 62
172 193 36
171 192 88
171 193 36
176 198 62
175 196 80
172 193 51
171 193 80
173 196 80
174 196 88
169 191 80
174 194 72
174 194 72
177 197 36
174 195 62
179 200 95
169 189 51
168 190 51
176 196 88
175 195 80
174 195 62
173 195 62
168 187 51
171 192 36
168 189 36
168 190 36
165 186 0
173 194 51
171 192 51
171 192 0
166 189 62
169 191 0
163 186 0
165 187 0
164 188 0
173 196 0
171 193 0
164 189 0
163 185 0
162 184 0
165 189 0
164 186 0
167 190 0
168 190 0
167 189 0
163 185 0
164 185 0
166 188 0
150 171 0
157 177 0
155 177 0
160 181 0
150 172 0
160 184 0
153 176 0
155 178 0
159 181 0
163 185 0
164 187 0
157 180 0
165 187 0
157 180 0
159 183 0
160 183 0
162 184 0
152 175 0
160 184 0
162 185 0
156 179 0
172 195 0
156 179 0
159 183 0
166 188 0
166 189 0
166 189 0
159 184 0
157 180 0
158 180 0
162 185 0
165 188 0
153 177 0
164 188 0
155 180 0
162 186 0
156 180 0
167 189 0
165 188 0
162 186 0
165 187 0
151 174 0
164 187 0
159 180 0
158 181 0
171 194 0
160 184 0
163 186 0
163 185 0
168 191 0
156 178 0
158 182 0
166 189 0
162 185 0
162 185 0
165 189 0
157 181 0
160 184 0
166 188 0
166 189 0
165 188 0
162 185 0
166 189 0
166 187 0
168 191 0
170 194 0
161 185 0
160 182 0
161 183 0
158 181 0
160 182 0
167 190 0
166 187 0
169 192 0
163 186 0
170 192 0
162 185 0
163 187 0
170 193 0
166 188 0
165 189 0
159 181 0
164 187 0
167 192 0
169 192 0
167 190 0
167 190 0
166 190 0
166 189 0
164 188 0
162 184 0
166 189 0
164 187 0
160 184 0
165 188 0
170 194 0
164 187 0
167 191 0
169 190 0
165 188 0
167 191 0
165 186 0
173 196 0
165 188 0
170 193 0
165 188 0
169 193 0
167 188 0
170 194 0
169 192 0
160 183 0
170 193 0
165 187 0
171 193 0
172 196 0
169 191 0
165 187 0
169 191 0
168 191 0
165 187 0
167 190 0
174 197 0
168 190 0
171 195 0
169 192 0
172 195 0
171 193 0
163 186 0
169 192 0
171 194 0
162 184 0
170 193 0
171 194 0
169 192 0
170 193 0
171 195 0
171 193 0
170 193 0
170 194 0
170 193 0
170 194 0
167 189 0
163 185 0
170 192 0
169 193 0
167 191 0
170 193 0
173 197 0
168 192 0
173 195 0
170 194 0
172 196 0
169 192 0
171 194 0
165 188 0
172 196 0
169 192 0
170 192 0
170 193 0
166 190 0
168 191 0
170 194 0
173 196 0
171 194 0
172 194 0
172 194 0
171 195 0
170 194 0
171 193 0
175 197 0
176 196 0
173 196 0
172 195 0
175 196 0
170 194 0
167 192 0
171 194 0
172 195 0
171 194 0
173 196 0
171 194 0
175 198 0
171 195 0
172 196 0
169 193 0
173 196 0
173 196 0
173 195 0
172 195 0
174 197 0
174 197 0
170 193 0
172 195 0
175 197 0
175 198 0
174 198 0
175 197 0
171 194 0
169 191 0
172 195 0
172 196 0
173 195 0
171 194 0
172 195 0
176 199 0
170 195 0
174 195 0
175 197 0
171 195 0
172 193 0
171 195 0
173 196 0
174 198 0
177 199 0
173 197 0
172 196 0
173 197 0
169 192 0
175 198 0
171 195 0
170 195 0
169 193 0
174 196 0
173 196 0
171 195 0
170 194 0
175 197 0
172 195 0
173 196 0
172 196 0
172 196 0
168 191 0
172 195 0
173 195 0
174 198 0
174 197 0
174 197 0
175 198 0
173 197 0
171 194 0
175 198 0
170 194 0
173 197 0
170 194 0
171 195 0
174 197 0
172 196 0
175 198 0
175 198 0
174 198 0
173 196 0
174 197 0
172 196 0
171 195 0
173 196 0
174 197 0
173 196 0
169 191 0
176 199 0
172 195 0
175 198 0
171 195 0
173 197 0
170 194 0
174 198 0
172 195 0
174 198 0
173 197 0
175 198 0
171 195 0
173 196 0
174 198 0
175 198 0
170 194 0
175 198 0
174 197 0
172 196 0
169 192 0
173 196 0
169 194 0
174 198 0
172 194 0
171 195 0
174 198 0
173 197 0
174 197 0
173 196 0
172 197 0
171 194 0
171 195 0
168 192 0
173 196 0
166 192 0
172 195 0
172 197 0
175 198 0
171 193 0
172 195 0
169 191 0
174 198 0
169 193 0
170 194 0
171 195 0
171 194 0
170 194 0
174 198 0
170 194 0
174 197 0
172 196 0
174 198 0
172 194 0
165 189 36
172 195 0
173 196 0
168 193 0
170 194 0
171 195 0
173 197 0
171 194 0
172 196 0
176 199 0
172 195 0
173 197 0
172 196 0
169 193 0
173 197 0
175 198 0
174 197 0
175 197 0
174 197 0
171 193 25
175 198 0
170 193 0
171 194 0
169 191 0
163 185 25
172 193 25
174 197 0
174 196 36
170 191 44
171 193 36
173 195 0
174 196 36
168 189 36
177 199 51
172 192 51
173 195 51
180 202 102
182 202 95
173 195 51
177 197 62
171 193 62
177 199 114
174 196 72
180 201 102
172 193 51
179 200 80
179 200 95
178 200 88
174 195 80
174 194 62
176 198 80
178 198 62
179 199 72
170 191 62
173 193 62
172 192 0
173 194 80
173 194 88
172 191 95
171 192 36
171 191 51
173 195 0
173 194 36
175 195 51
169 190 62
170 191 51
169 191 0
162 183 0
172 193 36
168 190 51
159 180 0
166 189 0
169 191 0
169 193 0
176 196 0
167 187 0
162 185 0
167 191 0
172 194 0
160 183 0
160 182 0
163 186 0
159 182 0
157 180 0
162 184 0
163 185 0
161 182 0
157 180 0
165 186 0
153 175 0
149 171 0
155 176 0
156 179 0
164 186 0
155 177 0
163 185 0
156 179 0
167 189 0
155 178 0
159 181 0
165 188 0
164 188 0
157 180 0
157 180 0
160 183 0
161 184 0
161 184 0
157 180 0
163 185 0
158 182 0
156 178 0
155 178 0
161 184 0
156 179 0
150 174 0
163 185 0
165 188 0
169 192 0
163 187 0
160 183 0
163 185 0
161 185 0
162 185 0
165 190 0
163 186 0
160 183 0
169 193 0
156 179 0
157 181 0
164 187 0
157 181 0
165 189 0
166 190 0
159 182 0
159 183 0
163 186 0
158 181 0
157 180 0
164 187 0
163 187 0
156 179 0
162 184 0
166 189 0
163 186 0
159 182 0
163 186 0
161 186 0
161 184 0
170 195 0
162 184 0
173 196 0
160 184 0
170 193 0
164 187 0
162 185 0
167 192 0
165 189 0
167 190 0
165 189 0
170 193 0
167 190 0
163 187 0
166 190 0
159 184 0
157 180 0
166 189 0
164 187 0
159 183 0
167 190 0
167 190 0
166 191 0
166 189 0
166 189 0
169 192 0
166 189 0
170 193 0
159 180 0
166 188 0
167 189 0
169 191 0
172 195 0
167 190 0
174 197 0
169 192 0
167 189 0
165 186 0
158 182 0
163 186 0
174 197 0
168 191 0
170 192 0
164 186 0
171 195 0
166 190 0
164 188 0
168 191 0
169 191 0
170 193 0
162 185 0
166 188 0
173 197 0
168 192 0
165 188 0
169 192 0
167 190 0
171 194 0
166 190 0
168 191 0
165 188 0
167 190 0
164 188 0
170 192 0
171 193 0
168 192 0
170 192 0
167 191 0
166 189 0
171 193 0
170 192 0
174 196 0
173 196 0
170 192 0
170 192 0
171 195 0
168 191 0
170 194 0
167 190 0
166 190 0
170 194 0
174 197 0
171 195 0
168 192 0
171 195 0
170 192 0
175 197 0
168 192 0
175 197 0
168 191 0
172 194 0
171 193 0
174 198 0
172 196 0
170 193 0
172 197 0
169 192 0
171 193 0
168 192 0
169 192 0
170 193 0
172 195 0
169 192 0
172 196 0
169 192 0
175 198 0
175 198 0
171 195 0
174 197 0
172 195 0
170 194 0
172 194 0
174 197 0
172 194 0
167 190 0
175 198 0
170 194 0
170 193 0
172 195 0
174 197 0
174 197 0
171 196 0
170 195 0
171 195 0
174 197 0
173 196 0
171 194 0
171 194 0
167 190 0
167 190 0
174 197 0
173 196 0
170 193 0
172 196 0
169 192 0
172 196 0
173 196 0
175 197 0
172 195 0
171 195 0
173 196 0
175 196 0
169 193 0
172 196 0
174 197 0
173 195 0
175 198 0
170 195 0
172 196 0
174 196 0
174 196 0
177 199 0
171 194 0
173 197 0
172 196 0
172 194 0
170 193 0
175 197 0
173 196 0
170 194 0
176 198 0
173 196 0
174 197 0
173 196 0
175 197 0
170 193 0
172 197 0
173 195 0
171 193 0
175 197 0
175 197 0
173 196 0
174 197 0
172 196 0
174 197 0
172 196 0
171 194 0
173 197 0
172 196 0
175 198 0
171 195 0
174 197 0
172 196 0
173 196 0
173 197 0
172 196 0
174 197 0
174 198 0
172 196 0
169 193 0
176 199 0
173 197 0
171 196 0
172 196 0
173 197 0
176 199 0
173 197 0
176 199 0
174 197 0
173 196 0
173 196 0
173 196 0
173 197 0
171 195 0
174 197 0
172 196 0
172 195 0
174 197 0
172 196 0
173 197 0
170 194 0
174 197 0
173 196 0
175 198 0
168 192 0
175 198 0
170 194 0
169 193 0
175 198 0
172 196 0
172 195 0
168 193 0
172 195 0
174 196 0
167 190 0
173 197 0
169 193 0
174 197 0
171 194 0
173 196 0
171 195 0
177 199 0
171 195 0
172 195 0
172 195 0
170 194 0
173 196 0
171 195 0
172 196 0
174 196 0
171 195 0
170 193 0
172 195 0
171 194 0
173 196 0
170 193 0
172 196 0
170 194 0
174 197 0
168 191 0
168 191 0
171 194 0
168 191 0
174 196 0
172 195 0
171 194 0
171 195 0
173 197 0
173 196 0
173 196 0
174 198 0
175 198 0
171 193 0
172 196 0
176 199 0
174 197 0
174 196 0
169 193 0
175 198 0
174 198 0
176 198 0
169 192 36
171 193 25
174 196 0
173 195 44
172 194 44
170 192 0
168 191 0
175 197 0
170 193 0
173 195 25
174 196 44
177 198 80
178 199 51
178 199 72
175 196 51
172 194 72
177 200 72
180 201 80
173 196 72
161 182 51
177 198 51
171 191 51
176 198 62
171 192 51
179 200 80
172 194 36
171 194 88
180 201 114
178 199 72
171 192 51
176 196 72
177 197 72
181 201 62
172 193 62
176 197 88
175 195 72
174 194 62
177 198 95
169 189 62
165 186 36
174 196 36
179 200 62
177 197 62
174 195 72
169 189 36
167 189 51
167 190 62
166 188 0
169 192 36
164 186 36
164 187 0
168 190 36
171 194 0
170 193 0
170 193 0
172 196 0
168 191 0
169 193 0
169 191 0
168 191 0
168 190 0
168 190 0
164 186 0
164 187 0
158 179 0
167 191 0
161 182 0
164 187 0
155 179 0
165 187 0
147 169 0
160 182 0
163 186 0
164 187 0
163 185 0
158 181 0
164 186 0
153 176 0
160 182 0
169 191 0
165 187 0
166 188 0
157 178 0
160 181 0
153 175 0
166 188 0
155 178 0
162 184 0
172 196 0
152 174 0
152 176 0
164 187 0
162 186 0
161 184 0
157 180 0
166 190 0
156 178 0
160 183 0
167 189 0
160 183 0
164 185 0
161 184 0
166 189 0
161 184 0
154 177 0
159 184 0
166 188 0
163 187 0
161 184 0
170 193 0
167 190 0
164 186 0
163 187 0
159 183 0
162 186 0
165 187 0
164 186 0
169 191 0
154 177 0
156 177 0
162 185 0
168 190 0
164 187 0
165 189 0
170 193 0
165 188 0
156 179 0
157 179 0
162 185 0
162 185 0
165 188 0
162 185 0
168 191 0
164 188 0
162 184 0
169 192 0
167 190 0
163 185 0
159 180 0
165 188 0
168 190 0
171 194 0
168 191 0
164 186 0
165 188 0
163 187 0
168 190 0
166 188 0
166 188 0
172 195 0
165 189 0
168 191 0
165 189 0
168 191 0
161 185 0
169 192 0
161 183 0
164 187 0
173 195 0
166 188 0
162 183 0
169 193 0
168 191 0
172 195 0
166 189 0
168 191 0
162 184 0
166 191 0
165 187 0
169 192 0
166 188 0
163 186 0
168 192 0
162 185 0
169 193 0
162 184 0
169 192 0
161 184 0
168 191 0
163 185 0
164 185 0
168 191 0
171 194 0
167 190 0
171 193 0
168 191 0
155 177 0
172 195 0
168 192 0
170 193 0
170 193 0
175 198 0
167 190 0
166 189 0
170 192 0
173 195 0
172 196 0
168 192 0
168 192 0
170 192 0
163 185 0
163 185 0
169 192 0
169 193 0
166 188 0
168 191 0
165 189 0
170 193 0
171 194 0
167 190 0
172 195 0
168 193 0
174 196 0
168 192 0
172 194 0
170 193 0
169 190 0
172 196 0
173 196 0
171 194 0
168 190 0
174 196 0
168 191 0
171 193 0
169 193 0
169 193 0
169 191 0
170 194 0
167 191 0
169 192 0
173 196 0
175 198 0
167 190 0
173 197 0
170 193 0
174 198 0
172 196 0
171 195 0
173 196 0
171 193 0
170 194 0
168 192 0
170 194 0
171 193 0
173 195 0
174 197 0
171 195 0
172 194 0
172 196 0
175 198 0
173 197 0
171 194 0
173 196 0
169 193 0
174 196 0
175 197 0
174 197 0
173 197 0
169 193 0
172 196 0
171 194 0
171 193 0
172 196 0
172 195 0
168 189 0
172 195 0
170 194 0
174 196 0
174 197 0
175 198 0
171 194 0
173 195 0
172 195 0
173 197 0
169 193 0
171 194 0
172 195 0
174 195 0
174 198 0
173 196 0
174 197 0
174 197 0
174 197 0
174 198 0
172 196 0
173 196 0
170 193 0
174 196 0
172 196 0
173 196 0
174 197 0
173 195 0
173 196 0
172 195 0
173 196 0
170 194 0
173 196 0
172 195 0
173 197 0
174 198 0
172 197 0
173 197 0
174 198 0
172 194 0
169 194 0
175 198 0
173 197 0
174 197 0
175 198 0
173 197 0
174 198 0
172 196 0
172 196 0
173 197 0
173 197 0
174 198 0
171 195 0
173 196 0
172 196 0
173 197 0
172 197 0
175 198 0
173 197 0
173 196 0
175 198 0
172 195 0
174 198 0
174 197 0
171 194 0
172 195 0
173 196 0
173 196 0
174 197 0
173 197 0
170 194 0
172 196 0
170 193 0
170 194 0
176 199 0
173 196 0
172 197 0
174 197 0
172 195 0
172 196 0
166 189 0
173 196 0
170 193 0
170 195 0
173 197 0
172 196 0
173 196 0
168 192 0
172 196 0
172 195 0
166 189 0
174 196 0
173 196 0
175 198 0
174 198 0
172 196 0
174 198 0
169 193 0
175 198 0
175 198 0
170 194 0
173 196 0
167 191 0
174 197 0
171 195 0
172 195 0
167 190 0
172 196 0
169 192 0
171 194 0
170 193 0
172 196 0
172 196 0
168 192 0
174 196 0
175 198 0
173 196 0
167 191 0
171 194 0
170 193 0
171 193 0
172 195 0
171 194 0
172 196 0
173 196 0
173 197 0
171 194 0
170 195 0
175 198 0
173 197 0
169 193 0
172 195 0
173 196 0
173 197 0
177 199 0
170 194 0
173 197 0
176 198 36
174 196 51
172 194 0
172 194 0
174 195 25
167 189 25
174 195 51
175 197 51
174 196 25
169 192 25
171 193 0
175 197 36
169 191 0
171 193 0
174 195 62
173 195 51
174 196 62
171 192 0
174 196 72
176 198 72
176 197 51
171 194 36
182 203 88
176 198 80
177 197 51
175 197 88
184 204 102
173 193 80
171 192 80
179 200 108
174 194 80
176 196 72
175 195 72
175 196 88
177 197 36
175 195 36
173 195 36
173 194 36
176 195 36
177 199 36
174 195 51
168 191 36
175 196 51
176 197 36
167 188 36
164 185 51
168 191 0
172 192 36
177 199 51
170 191 0
166 189 0
169 193 0
168 191 0
167 189 0
168 192 0
166 189 0
170 193 0
170 193 0
165 187 0
161 184 0
161 184 0
164 188 0
171 192 0
165 187 0
158 180 0
162 184 0
161 182 0
162 184 0
160 183 0
163 186 0
171 193 0
166 189 0
165 186 0
167 190 0
164 187 0
156 179 0
163 186 0
164 187 0
162 185 0
157 180 0
160 184 0
161 184 0
154 177 0
160 182 0
166 189 0
159 182 0
162 184 0
158 182 0
163 185 0
169 191 0
150 173 0
164 187 0
158 180 0
156 180 0
164 187 0
148 171 0
162 186 0
159 182 0
157 180 0
159 182 0
160 184 0
163 186 0
167 191 0
164 186 0
157 179 0
162 184 0
161 183 0
169 192 0
160 183 0
162 185 0
167 189 0
163 186 0
169 193 0
170 193 0
165 188 0
166 187 0
160 183 0
155 178 0
161 183 0
167 190 0
163 187 0
163 187 0
160 184 0
164 187 0
168 192 0
169 191 0
167 191 0
167 189 0
167 189 0
160 183 0
155 178 0
169 192 0
157 181 0
166 189 0
166 188 0
169 191 0
166 188 0
165 187 0
163 186 0
160 182 0
168 191 0
170 193 0
171 194 0
165 188 0
166 189 0
161 185 0
175 196 0
166 190 0
165 188 0
156 179 0
165 188 0
167 190 0
166 188 0
168 190 0
166 188 0
167 192 0
166 189 0
165 188 0
169 192 0
168 192 0
165 189 0
165 188 0
167 191 0
173 196 0
161 184 0
165 188 0
167 190 0
163 186 0
166 189 0
166 189 0
165 189 0
167 191 0
172 193 0
164 188 0
166 188 0
166 188 0
164 186 0
171 191 0
169 193 0
160 183 0
170 193 0
167 189 0
165 190 0
168 192 0
168 193 0
172 196 0
167 188 0
171 194 0
170 193 0
167 191 0
167 190 0
172 197 0
173 196 0
168 191 0
170 193 0
173 196 0
168 190 0
166 191 0
170 193 0
167 189 0
168 191 0
173 196 0
166 188 0
171 194 0
169 190 0
173 196 0
169 192 0
171 195 0
168 191 0
171 192 0
173 197 0
169 191 0
170 193 0
171 194 0
166 190 0
170 193 0
170 193 0
173 195 0
171 194 0
168 191 0
174 197 0
171 194 0
169 191 0
169 193 0
173 196 0
169 193 0
169 192 0
171 194 0
170 192 0
171 194 0
172 194 0
173 196 0
174 196 0
168 191 0
173 196 0
171 194 0
171 194 0
171 195 0
169 193 0
170 195 0
172 197 0
174 197 0
172 194 0
173 196 0
172 196 0
173 197 0
171 194 0
172 196 0
169 191 0
172 195 0
174 196 0
168 191 0
172 195 0
171 194 0
168 193 0
176 197 0
173 196 0
174 196 0
172 196 0
169 190 0
170 194 0
173 197 0
173 195 0
172 195 0
172 196 0
172 196 0
172 196 0
168 192 0
173 196 0
171 195 0
173 196 0
171 195 0
172 195 0
175 198 0
168 191 0
172 195 0
169 192 0
170 193 0
172 194 0
173 196 0
171 193 0
169 190 0
174 197 0
172 195 0
173 197 0
174 198 0
174 196 0
174 198 0
171 194 0
169 192 0
171 194 0
171 194 0
174 196 0
171 195 0
173 197 0
171 193 0
177 199 0
171 194 0
175 198 0
171 195 0
174 198 0
172 195 0
176 199 0
174 198 0
176 199 0
173 197 0
173 197 0
176 198 0
175 198 0
174 198 0
173 195 0
174 196 0
171 195 0
173 197 0
173 197 0
171 195 0
173 197 0
174 197 0
171 194 0
172 196 0
171 195 0
172 195 0
173 197 0
177 199 0
172 196 0
172 197 0
173 197 0
172 196 0
172 195 0
169 193 0
177 199 0
173 197 0
175 198 0
173 196 0
168 192 0
174 198 0
172 196 0
174 197 0
171 194 0
174 197 0
175 198 0
168 193 0
171 195 0
171 195 0
168 192 0
175 198 0
168 192 0
174 197 0
170 194 0
174 197 0
172 195 0
173 196 0
173 196 0
171 195 0
173 196 0
170 193 0
173 196 0
178 200 0
173 197 0
173 196 0
173 196 0
172 196 0
174 198 0
173 197 0
173 197 0
175 197 0
174 197 0
174 196 0
167 191 0
172 195 0
172 196 0
174 196 0
172 195 0
173 197 0
174 197 0
176 198 0
173 196 0
174 197 0
172 195 0
172 194 0
172 196 0
169 192 0
170 193 0
165 189 0
175 198 0
173 196 0
173 196 0
174 197 0
173 196 0
175 198 0
173 196 0
172 197 0
175 198 0
172 195 0
175 197 0
177 199 0
169 193 0
176 198 0
173 196 0
171 195 0
171 195 0
172 195 0
172 195 0
169 192 0
170 193 36
173 195 0
175 197 0
176 198 51
168 190 25
173 195 25
168 190 51
166 188 0
170 193 51
175 196 25
174 196 62
177 199 62
177 198 51
174 195 0
176 197 51
177 198 0
175 197 51
175 197 36
166 188 62
171 192 51
176 197 51
177 199 72
181 200 72
173 195 62
175 195 62
168 190 36
171 192 51
167 188 0
169 191 36
174 194 51
166 188 0
168 189 36
169 190 51
176 197 80
167 188 0
162 183 0
172 192 36
173 193 51
169 191 0
167 189 36
171 193 0
169 191 36
176 196 0
177 199 36
169 191 0
172 195 0
164 188 0
172 193 0
164 187 0
163 186 0
170 194 0
173 196 0
161 183 0
172 195 0
168 190 0
160 182 0
158 181 0
166 187 0
159 182 0
169 191 0
167 187 0
165 188 0
159 181 0
156 178 0
163 186 0
166 188 0
172 194 0
166 188 0
169 191 0
159 181 0
163 186 0
163 187 0
164 186 0
168 191 0
162 185 0
164 187 0
168 190 0
163 186 0
165 187 0
159 182 0
158 180 0
156 178 0
151 174 0
161 184 0
164 188 0
159 180 0
160 182 0
163 186 0
167 190 0
167 191 0
159 183 0
167 190 0
166 187 0
163 185 0
156 180 0
168 192 0
158 180 0
161 184 0
160 184 0
160 182 0
160 182 0
160 185 0
151 174 0
162 186 0
154 177 0
168 191 0
167 191 0
162 187 0
156 178 0
170 194 0
164 188 0
161 184 0
163 185 0
161 185 0
167 190 0
158 182 0
157 182 0
160 185 0
160 184 0
157 180 0
162 185 0
163 186 0
158 180 0
160 184 0
159 180 0
159 182 0
158 184 0
172 196 0
159 181 0
164 186 0
169 191 0
168 192 0
169 192 0
162 186 0
161 185 0
164 188 0
167 191 0
165 189 0
165 189 0
167 189 0
168 191 0
170 194 0
154 177 0
173 195 0
159 183 0
161 185 0
164 186 0
163 186 0
169 192 0
163 185 0
172 195 0
168 189 0
163 186 0
154 176 0
163 186 0
162 184 0
157 181 0
168 192 0
167 189 0
165 187 0
164 187 0
167 190 0
168 192 0
168 190 0
167 190 0
166 190 0
165 189 0
164 188 0
166 190 0
170 193 0
168 193 0
169 191 0
167 191 0
168 191 0
167 190 0
170 193 0
169 192 0
168 192 0
173 197 0
168 192 0
170 193 0
165 189 0
168 193 0
173 197 0
172 196 0
172 195 0
174 197 0
170 194 0
172 194 0
168 191 0
169 192 0
170 193 0
172 195 0
171 194 0
172 196 0
169 193 0
174 196 0
169 192 0
163 187 0
169 193 0
173 195 0
170 192 0
169 193 0
169 192 0
173 197 0
174 197 0
173 197 0
169 192 0
173 197 0
171 193 0
168 190 0
167 192 0
175 196 0
172 195 0
164 188 0
171 193 0
172 194 0
171 195 0
171 194 0
168 190 0
167 191 0
166 189 0
170 194 0
172 196 0
172 195 0
176 199 0
171 195 0
172 196 0
171 195 0
175 197 0
168 192 0
170 193 0
172 194 0
173 196 0
170 194 0
172 196 0
168 190 0
172 196 0
170 192 0
170 193 0
172 194 0
170 194 0
171 194 0
169 192 0
174 197 0
169 194 0
172 196 0
171 193 0
172 196 0
173 196 0
174 196 0
171 194 0
175 198 0
171 195 0
174 197 0
173 196 0
175 198 0
168 191 0
175 198 0
171 195 0
171 195 0
174 196 0
172 196 0
172 197 0
172 195 0
173 195 0
170 193 0
169 193 0
172 196 0
173 197 0
175 198 0
174 196 0
170 195 0
171 192 0
174 198 0
174 197 0
173 196 0
173 196 0
173 197 0
176 199 0
175 198 0
175 198 0
172 196 0
173 195 0
171 194 0
171 195 0
176 198 0
174 197 0
172 196 0
176 198 0
170 195 0
173 196 0
171 193 0
172 196 0
171 195 0
172 196 0
171 193 0
172 195 0
172 193 0
173 197 0
173 197 0
174 198 0
174 197 0
175 198 0
172 196 0
174 197 0
171 195 0
174 197 0
173 197 0
171 195 0
174 197 0
173 197 0
174 197 0
175 198 0
168 192 0
173 197 0
172 195 0
169 193 0
173 196 0
174 197 0
172 196 0
172 196 0
170 194 0
166 190 0
170 194 0
175 198 0
170 194 0
171 195 0
175 198 0
174 197 0
175 198 0
175 198 0
175 198 0
171 195 0
174 198 0
173 196 0
174 198 0
176 199 0
170 194 0
176 199 0
174 197 0
172 196 0
174 197 0
172 196 0
171 194 0
168 192 0
173 197 0
170 193 0
170 193 0
168 192 0
173 197 0
174 197 0
170 193 0
172 194 0
170 195 0
174 198 0
168 191 0
169 193 0
168 192 0
170 194 0
168 191 0
167 192 0
172 195 0
169 193 0
174 197 0
172 196 0
175 197 0
169 191 0
175 198 0
172 194 0
170 192 0
173 196 0
171 194 0
171 194 0
173 197 0
176 199 0
172 196 0
170 193 0
175 197 0
168 192 0
172 195 0
173 196 0
175 198 0
170 194 0
171 194 0
173 194 0
173 196 0
175 198 0
176 198 0
173 196 0
173 196 0
175 198 0
171 195 0
175 198 0
173 195 0
175 197 0
175 198 0
175 198 0
173 197 0
172 195 25
171 194 0
172 196 25
175 197 36
175 197 25
173 196 44
176 198 36
175 197 0
175 195 0
171 194 44
173 195 62
174 197 51
171 193 0
173 194 0
175 196 0
174 194 51
172 194 36
180 200 51
170 190 0
171 193 36
174 196 51
174 197 51
178 199 62
176 196 72
178 197 36
169 191 51
175 196 36
174 196 62
175 196 72
166 187 51
166 189 51
175 195 51
166 188 36
172 194 36
172 194 51
171 192 36
168 191 36
167 189 36
172 194 51
171 193 72
172 193 0
172 194 0
169 192 0
169 192 0
168 190 0
173 195 0
171 194 0
169 192 0
172 195 0
169 192 0
165 188 0
165 187 0
172 194 0
165 188 0
165 188 0
167 189 0
167 190 0
163 186 0
162 184 0
167 188 0
161 182 0
170 191 0
165 188 0
169 191 0
163 185 0
167 189 0
165 187 0
164 187 0
167 190 0
160 181 0
163 186 0
162 184 0
170 193 0
167 189 0
157 181 0
155 178 0
165 188 0
156 179 0
160 183 0
160 183 0
158 180 0
161 185 0
167 192 0
162 184 0
162 184 0
161 183 0
163 185 0
161 185 0
160 183 0
164 187 0
157 180 0
163 186 0
156 178 0
166 190 0
166 188 0
170 192 0
166 188 0
163 185 0
161 185 0
163 186 0
161 184 0
153 176 0
170 193 0
166 189 0
157 179 0
159 183 0
164 187 0
169 192 0
162 186 0
159 182 0
173 195 0
165 187 0
166 190 0
164 187 0
162 185 0
168 190 0
160 184 0
169 193 0
170 193 0
166 190 0
154 176 0
168 192 0
168 192 0
165 188 0
164 188 0
163 188 0
164 186 0
164 187 0
164 186 0
161 185 0
166 189 0
166 190 0
164 187 0
162 185 0
163 187 0
165 189 0
164 187 0
168 192 0
169 192 0
161 184 0
160 183 0
162 185 0
165 189 0
167 189 0
162 184 0
165 188 0
164 187 0
163 186 0
162 185 0
168 191 0
167 191 0
166 190 0
163 186 0
166 187 0
167 190 0
169 192 0
166 190 0
169 191 0
166 190 0
168 192 0
171 193 0
166 188 0
166 189 0
165 187 0
165 189 0
164 187 0
164 188 0
169 191 0
168 190 0
167 190 0
168 190 0
175 197 0
169 192 0
163 187 0
168 190 0
166 189 0
167 190 0
160 184 0
172 195 0
167 190 0
175 197 0
169 192 0
167 191 0
166 189 0
167 190 0
169 192 0
167 189 0
165 188 0
169 193 0
171 195 0
172 195 0
164 188 0
167 191 0
167 188 0
169 192 0
174 197 0
166 189 0
170 193 0
170 195 0
171 194 0
170 193 0
169 193 0
168 192 0
169 191 0
170 193 0
168 192 0
172 196 0
166 188 0
168 191 0
168 190 0
169 191 0
169 191 0
168 191 0
169 192 0
165 188 0
174 196 0
169 193 0
171 194 0
172 195 0
172 195 0
168 192 0
170 191 0
168 191 0
170 195 0
171 194 0
171 194 0
174 198 0
174 196 0
169 192 0
171 193 0
170 193 0
175 198 0
173 196 0
165 188 0
168 191 0
174 197 0
170 193 0
163 186 0
171 194 0
172 195 0
175 196 0
176 198 0
169 194 0
166 190 0
169 193 0
174 197 0
175 198 0
167 190 0
171 194 0
171 195 0
173 195 0
171 195 0
172 195 0
174 197 0
174 196 0
170 194 0
170 193 0
167 191 0
170 195 0
172 197 0
174 197 0
168 191 0
173 196 0
172 196 0
171 194 0
170 194 0
169 193 0
172 194 0
175 198 0
167 192 0
173 196 0
175 198 0
174 198 0
174 198 0
176 198 0
172 196 0
173 197 0
173 197 0
171 193 0
174 197 0
173 197 0
170 193 0
172 196 0
172 194 0
171 196 0
171 195 0
172 196 0
172 196 0
169 194 0
175 197 0
172 196 0
174 198 0
170 191 0
172 197 0
175 198 0
173 196 0
173 195 0
174 197 0
173 197 0
173 197 0
175 197 0
172 197 0
174 198 0
170 195 0
173 196 0
174 197 0
172 196 0
173 197 0
173 196 0
174 197 0
168 192 0
169 193 0
169 192 0
177 199 0
172 195 0
168 192 0
173 196 0
171 196 0
169 193 0
174 198 0
171 195 0
171 195 0
174 197 0
172 196 0
173 197 0
173 196 0
175 198 0
171 195 0
172 196 0
174 197 0
173 196 0
173 196 0
174 197 0
168 192 0
171 195 0
173 197 0
169 193 0
174 197 0
172 195 0
169 194 0
169 193 0
172 196 0
171 194 0
174 198 0
174 198 0
169 193 0
172 196 0
173 196 0
175 198 0
176 198 0
171 195 0
171 195 0
174 196 0
170 195 0
171 195 0
171 195 0
169 192 0
176 199 0
170 195 0
172 195 0
170 193 0
172 195 0
171 196 0
175 198 0
171 195 0
174 198 0
175 198 0
171 195 0
176 199 0
174 198 0
174 197 0
169 192 0
171 193 0
174 197 0
169 194 0
173 197 0
174 196 0
172 195 0
173 195 0
174 197 0
174 197 0
170 193 0
174 195 0
173 197 0
171 194 0
175 198 0
175 198 0
173 197 0
173 196 0
173 196 0
174 196 0
175 197 0
176 198 0
174 197 0
172 195 0
171 194 0
176 198 0
174 198 0
174 197 0
172 196 0
175 198 0
175 198 0
167 190 0
175 198 0
174 196 0
172 194 0
176 199 0
171 192 0
177 199 0
175 196 44
173 194 51
171 193 62
172 193 36
170 192 36
175 196 36
169 191 0
169 191 51
174 196 0
174 196 36
177 198 36
172 194 62
177 198 0
174 195 51
176 197 62
177 198 0
173 194 36
164 186 0
175 196 51
171 192 36
171 192 0
175 197 51
163 186 36
170 191 36
172 194 51
171 192 36
170 191 0
166 187 51
174 196 0
161 182 0
169 191 0
170 193 0
165 188 0
168 191 0
168 192 0
170 193 0
174 196 0
167 189 0
163 185 0
167 190 0
171 193 0
166 189 0
165 187 0
171 193 0
169 191 0
171 193 0
172 194 0
168 189 0
160 182 0
160 182 36
166 188 0
163 185 0
161 183 0
162 184 0
166 189 0
166 188 0
163 186 0
156 178 0
165 186 0
162 185 0
163 186 0
162 184 0
169 192 0
162 185 0
154 176 0
160 182 0
163 186 0
164 186 0
157 179 0
164 186 0
153 176 0
159 180 0
146 169 0
168 190 0
158 181 0
162 185 0
161 184 0
151 174 0
165 188 0
166 190 0
166 189 0
162 185 0
169 192 0
157 182 0
163 186 0
157 179 0
165 188 0
162 185 0
161 184 0
164 185 0
156 178 0
166 190 0
168 191 0
169 192 0
167 190 0
165 189 0
161 182 0
166 189 0
162 185 0
167 189 0
169 191 0
160 183 0
163 185 0
169 192 0
162 185 0
167 189 0
166 189 0
164 188 0
168 192 0
168 190 0
163 187 0
163 187 0
159 180 0
160 184 0
167 190 0
164 187 0
166 187 0
167 191 0
167 190 0
148 173 0
165 189 0
168 192 0
170 193 0
158 180 0
154 178 0
168 191 0
162 183 0
167 190 0
162 185 0
163 186 0
166 189 0
166 188 0
170 193 0
165 188 0
162 183 0
171 194 0
173 195 0
165 188 0
166 189 0
166 188 0
168 191 0
168 190 0
171 193 0
165 188 0
160 182 0
166 189 0
167 189 0
165 186 0
168 190 0
172 194 0
166 189 0
166 189 0
166 188 0
168 190 0
171 193 0
169 192 0
168 191 0
169 193 0
165 188 0
172 196 0
169 191 0
164 186 0
167 190 0
168 191 0
171 194 0
167 189 0
168 190 0
161 184 0
172 196 0
167 190 0
170 193 0
171 194 0
171 193 0
174 197 0
169 191 0
170 193 0
158 181 0
167 189 0
170 193 0
167 190 0
166 189 0
173 195 0
169 192 0
168 191 0
172 195 0
172 195 0
167 189 0
171 194 0
171 194 0
170 192 0
171 194 0
165 188 0
168 191 0
173 195 0
172 195 0
172 195 0
170 193 0
169 192 0
166 189 0
168 190 0
168 191 0
171 196 0
169 192 0
172 196 0
173 197 0
169 192 0
170 193 0
168 190 0
172 195 0
166 190 0
174 197 0
170 194 0
173 197 0
173 196 0
171 194 0
171 195 0
168 190 0
168 189 0
174 197 0
171 194 0
171 194 0
170 194 0
170 193 0
172 194 0
170 194 0
174 196 0
169 192 0
169 192 0
173 195 0
173 195 0
172 196 0
174 197 0
165 188 0
172 195 0
166 189 0
169 192 0
174 196 0
174 198 0
171 194 0
175 197 0
169 192 0
172 195 0
172 194 0
172 194 0
172 196 0
173 196 0
175 198 0
173 197 0
171 195 0
172 195 0
170 192 0
172 195 0
173 196 0
172 195 0
170 193 0
171 193 0
172 196 0
174 197 0
174 198 0
170 194 0
171 195 0
171 195 0
173 197 0
174 196 0
171 195 0
171 195 0
172 197 0
173 196 0
171 195 0
174 196 0
172 196 0
174 196 0
174 197 0
173 197 0
171 193 0
175 198 0
171 194 0
175 198 0
170 194 0
174 197 0
175 198 0
172 194 0
175 198 0
171 193 0
178 198 0
173 196 0
173 196 0
172 196 0
174 196 0
172 195 0
175 198 0
175 198 0
172 196 0
170 194 0
174 197 0
173 197 0
171 195 0
173 196 0
173 196 0
174 197 0
175 198 0
175 198 0
176 198 0
174 197 0
173 196 0
175 198 0
173 197 0
173 196 0
176 199 0
173 196 0
169 192 0
172 196 0
174 197 0
172 196 0
172 196 0
174 198 0
174 198 0
170 193 0
175 198 0
174 197 0
175 198 0
169 193 0
174 197 0
174 197 0
174 198 0
170 195 0
172 196 0
174 197 0
173 197 0
169 194 0
172 195 0
175 198 0
174 196 0
173 197 0
168 192 0
174 198 0
172 196 0
173 196 0
168 192 0
174 197 0
177 199 0
170 193 0
173 195 0
172 196 0
171 195 0
172 195 0
172 196 0
174 197 0
174 198 0
173 195 0
165 188 0
172 197 0
171 194 0
170 194 0
173 196 0
174 197 0
173 196 0
173 197 0
175 198 0
172 195 0
171 193 0
175 198 0
172 195 0
175 198 0
166 190 0
171 194 0
168 191 0
173 197 0
172 195 0
174 198 0
174 197 0
171 194 0
172 195 0
177 198 0
169 193 0
176 198 0
167 191 0
166 190 0
169 192 0
177 199 0
175 198 0
165 188 0
172 195 0
174 196 0
174 197 0
173 197 0
173 197 0
173 197 0
172 195 0
176 198 0
176 198 0
170 195 0
174 197 0
171 195 0
172 196 25
173 196 36
171 193 36
172 195 0
174 196 57
168 191 0
174 197 0
173 195 51
172 194 51
175 197 62
174 196 0
174 196 0
173 194 51
170 193 51
175 197 36
172 194 36
177 198 51
174 194 51
169 190 0
174 195 51
172 193 0
179 200 51
175 197 36
177 198 0
169 192 51
174 195 36
172 192 51
171 192 51
175 197 62
171 193 36
169 190 36
172 194 36
174 195 62
168 190 0
173 195 36
173 195 0
174 196 0
171 194 0
174 197 0
168 190 0
168 192 0
163 187 0
169 193 0
171 194 0
168 191 0
173 195 0
160 182 0
160 183 0
172 192 0
174 196 0
164 186 0
165 186 0
162 183 0
160 182 0
161 184 0
165 187 0
169 192 0
161 182 0
169 190 0
166 188 0
168 190 0
161 183 0
165 187 0
168 189 0
161 183 0
163 186 0
157 178 0
167 188 0
170 192 0
165 188 0
156 178 0
161 183 0
164 186 0
166 189 0
158 180 0
161 184 0
163 186 0
166 190 0
162 184 0
166 189 0
161 183 0
153 175 0
159 182 0
160 184 0
162 185 0
166 188 0
168 191 0
161 184 0
163 184 0
159 182 0
162 185 0
160 183 0
168 191 0
157 180 0
166 190 0
168 191 0
160 184 0
171 195 0
157 179 0
161 184 0
164 186 0
171 193 0
166 188 0
156 179 0
162 185 0
155 179 0
165 188 0
164 188 0
165 188 0
163 187 0
164 187 0
164 188 0
167 189 0
154 177 0
156 179 0
165 188 0
165 188 0
163 187 0
164 187 0
167 191 0
156 180 0
163 187 0
167 192 0
165 187 0
163 186 0
167 189 0
168 191 0
168 192 0
159 181 0
170 193 0
163 186 0
169 191 0
166 189 0
164 187 0
161 186 0
167 190 0
169 191 0
167 192 0
165 189 0
157 180 0
169 192 0
167 191 0
163 185 0
166 190 0
171 194 0
164 187 0
166 190 0
163 188 0
169 190 0
170 191 0
167 191 0
165 188 0
164 188 0
171 195 0
163 186 0
166 189 0
168 190 0
161 183 0
163 186 0
165 188 0
169 191 0
170 193 0
174 195 0
168 192 0
172 196 0
167 189 0
167 190 0
168 191 0
167 190 0
163 188 0
164 189 0
171 194 0
166 190 0
168 191 0
171 194 0
165 188 0
169 192 0
170 193 0
169 192 0
172 194 0
172 195 0
171 194 0
169 191 0
168 190 0
168 192 0
168 191 0
171 195 0
159 183 0
166 188 0
172 196 0
172 194 0
169 192 0
169 191 0
169 191 0
171 196 0
170 194 0
171 193 0
168 191 0
171 194 0
172 195 0
168 192 0
166 189 0
168 190 0
167 190 0
167 190 0
172 195 0
169 192 0
172 195 0
167 190 0
168 190 0
173 197 0
170 193 0
174 198 0
166 190 0
169 192 0
171 193 0
171 195 0
168 192 0
174 197 0
172 196 0
171 194 0
171 195 0
170 193 0
170 194 0
174 196 0
169 192 0
166 190 0
173 195 0
174 198 0
168 191 0
168 192 0
171 194 0
172 195 0
173 197 0
170 193 0
173 195 0
173 195 0
171 195 0
175 198 0
166 190 0
174 198 0
174 197 0
172 195 0
172 197 0
174 198 0
172 195 0
176 199 0
169 192 0
170 193 0
173 196 0
171 195 0
173 196 0
171 195 0
176 198 0
169 194 0
169 192 0
171 196 0
170 194 0
174 197 0
174 197 0
170 194 0
174 196 0
174 197 0
174 196 0
173 196 0
173 196 0
173 196 0
172 194 0
171 196 0
175 197 0
172 196 0
173 196 0
172 195 0
173 197 0
171 194 0
169 193 0
172 196 0
170 194 0
170 194 0
173 196 0
171 194 0
176 199 0
173 196 0
172 195 0
172 195 0
174 197 0
175 198 0
172 196 0
172 194 0
172 195 0
172 195 0
174 197 0
172 195 0
173 196 0
171 195 0
175 198 0
175 197 0
171 193 0
173 197 0
171 195 0
174 197 0
174 197 0
175 197 0
174 197 0
174 198 0
176 199 0
172 196 0
171 195 0
173 197 0
173 196 0
173 196 0
176 199 0
172 195 0
173 196 0
173 196 0
175 197 0
172 196 0
177 199 0
171 195 0
173 197 0
172 196 0
173 197 0
173 197 0
172 196 0
174 198 0
174 197 0
173 197 0
174 198 0
169 193 0
171 195 0
173 196 0
168 192 0
176 199 0
173 197 0
171 196 0
171 195 0
173 196 0
173 196 0
176 199 0
173 197 0
176 198 0
172 196 0
171 195 0
175 198 0
174 196 0
170 194 0
175 198 0
170 194 0
173 197 0
174 197 0
174 198 0
174 198 0
172 196 0
172 196 0
173 196 0
173 196 0
171 195 0
170 193 0
174 197 0
173 197 0
169 193 0
174 198 0
173 196 0
169 193 0
172 196 0
172 195 0
171 193 0
171 194 0
175 197 0
173 196 0
170 193 0
173 196 0
173 197 0
171 195 0
176 198 0
174 197 0
169 193 0
170 193 0
171 194 0
169 192 0
171 194 0
172 195 0
172 194 0
175 197 0
172 196 0
174 197 0
171 193 0
172 197 0
173 196 0
173 195 0
173 197 0
175 198 0
172 195 0
173 197 0
173 197 0
174 197 0
174 197 0
175 198 0
176 198 0
174 197 0
169 193 0
176 199 0
175 197 0
171 196 0
172 195 0
173 195 36
174 197 0
173 195 36
167 189 0
174 196 0
173 195 0
177 198 0
170 191 0
167 189 0
177 198 36
171 193 0
170 193 36
177 198 51
174 195 36
172 195 72
171 192 72
175 195 51
176 196 51
170 190 36
172 194 0
166 188 36
171 193 36
175 197 0
170 193 0
172 193 36
177 198 51
173 195 0
174 195 36
169 191 0
171 194 0
173 195 0
169 193 0
166 188 0
169 192 0
164 187 0
174 197 0
169 192 0
168 191 0
170 193 0
163 187 0
169 191 0
170 192 0
170 192 0
167 190 0
168 190 0
169 191 0
167 188 0
166 188 0
168 190 0
166 190 0
168 190 0
156 179 0
166 189 0
168 190 0
162 184 0
168 189 0
169 192 0
154 175 0
167 190 0
160 183 0
167 190 0
165 187 0
164 186 0
160 182 0
165 187 0
161 183 0
166 188 0
164 186 0
165 187 0
164 186 0
164 185 0
152 175 0
166 189 0
163 187 0
164 187 0
169 192 0
171 194 0
160 181 0
160 183 0
160 183 0
172 194 0
165 188 0
162 185 0
164 188 0
165 189 0
166 190 0
164 187 0
159 182 0
161 185 0
154 176 0
163 188 0
163 186 0
169 192 0
166 190 0
161 185 0
166 188 0
168 190 0
162 184 0
166 190 0
170 194 0
161 184 0
172 196 0
172 195 0
162 186 0
161 185 0
165 189 0
160 183 0
166 190 0
170 193 0
159 183 0
163 186 0
171 195 0
164 188 0
158 181 0
168 191 0
163 188 0
164 186 0
152 175 0
166 187 0
168 191 0
168 191 0
160 184 0
156 180 0
167 191 0
170 193 0
166 190 0
164 187 0
167 192 0
166 189 0
167 190 0
162 186 0
165 188 0
171 194 0
169 190 0
169 193 0
163 188 0
167 190 0
173 197 0
169 192 0
168 191 0
167 190 0
173 197 0
170 191 0
173 195 0
165 189 0
165 187 0
167 190 0
164 189 0
167 191 0
163 187 0
162 185 0
172 195 0
169 192 0
165 188 0
171 194 0
160 183 0
167 190 0
172 194 0
165 189 0
166 190 0
166 190 0
171 193 0
169 192 0
170 193 0
166 190 0
170 194 0
173 196 0
164 187 0
167 191 0
171 195 0
167 190 0
165 189 0
169 191 0
169 192 0
169 193 0
168 191 0
170 193 0
171 195 0
168 192 0
166 189 0
168 191 0
168 191 0
170 193 0
172 195 0
166 189 0
171 194 0
164 186 0
175 198 0
170 193 0
162 186 0
170 194 0
168 191 0
173 197 0
172 196 0
170 195 0
165 186 0
170 194 0
167 191 0
167 190 0
172 196 0
162 184 0
169 191 0
169 191 0
172 194 0
169 192 0
167 191 0
171 193 0
175 197 0
173 196 0
168 191 0
162 184 0
167 192 0
171 195 0
175 198 0
171 193 0
170 194 0
174 198 0
173 194 0
168 190 0
171 195 0
168 191 0
172 195 0
171 194 0
171 194 0
175 197 0
175 198 0
170 194 0
167 190 0
170 193 0
166 190 0
172 196 0
167 190 0
170 193 0
171 195 0
168 190 0
172 197 0
171 194 0
173 195 0
171 195 0
175 196 0
174 197 0
172 195 0
171 193 0
174 197 0
169 192 0
175 198 0
172 196 0
176 199 0
172 195 0
169 193 0
169 191 0
172 197 0
173 196 0
173 197 0
172 196 0
173 195 0
173 194 0
172 194 0
171 195 0
170 193 0
173 196 0
170 193 0
173 196 0
177 199 0
173 196 0
173 197 0
172 195 0
172 195 0
173 197 0
175 198 0
169 193 0
172 195 0
177 198 0
171 194 0
172 195 0
174 196 0
173 197 0
174 198 0
172 196 0
173 196 0
174 197 0
172 196 0
175 198 0
173 196 0
173 197 0
171 195 0
176 199 0
171 195 0
172 195 0
173 197 0
172 196 0
174 198 0
174 198 0
171 194 0
175 197 0
173 196 0
172 195 0
171 196 0
172 196 0
175 198 0
173 197 0
173 196 0
174 198 0
173 196 0
171 195 0
173 197 0
173 197 0
171 195 0
174 198 0
174 198 0
169 193 0
174 197 0
175 198 0
172 196 0
172 196 0
173 197 0
174 197 0
172 195 0
173 196 0
170 195 0
175 198 0
173 197 0
173 197 0
172 196 0
169 194 0
174 197 0
174 197 0
174 198 0
174 197 0
173 197 0
176 199 0
173 196 0
173 197 0
172 195 0
171 195 0
173 197 0
173 196 0
175 198 0
171 196 0
172 196 0
172 196 0
172 196 0
173 197 0
173 196 0
174 197 0
171 195 0
172 195 0
171 195 0
172 196 0
172 196 0
171 195 0
168 191 0
173 196 0
173 197 0
174 198 0
178 200 0
174 197 0
173 197 0
172 196 0
173 196 0
172 195 0
173 195 0
173 196 0
172 195 0
171 195 0
175 198 0
171 195 0
173 197 0
172 196 0
175 198 0
171 194 0
170 191 0
172 195 0
169 192 0
169 193 0
175 197 0
172 195 0
171 194 0
173 196 0
168 191 0
174 197 0
168 191 0
175 197 0
176 198 0
174 196 0
172 195 0
169 193 0
171 194 0
174 198 0
172 196 0
173 196 0
173 196 0
174 196 0
172 195 0
170 194 0
170 194 0
172 196 0
170 193 0
176 198 0
168 192 0
174 196 0
172 197 0
172 196 0
171 194 0
173 194 36
173 195 51
168 190 51
174 197 36
177 198 72
169 191 51
177 198 36
176 198 51
169 192 0
172 194 51
176 197 36
173 194 36
173 195 36
172 195 36
174 196 36
178 198 51
170 191 62
174 196 36
168 190 0
171 194 0
175 197 36
172 194 0
171 193 0
167 189 0
170 193 0
174 198 0
172 194 0
171 194 0
169 191 0
169 193 0
170 194 0
177 199 0
172 195 0
169 190 0
172 195 0
165 186 0
169 190 0
170 192 0
168 189 0
160 183 0
168 190 0
169 191 0
161 183 0
170 192 0
171 193 36
169 190 0
168 189 0
162 184 0
161 183 0
164 186 0
165 188 0
166 188 0
166 188 0
170 192 0
168 190 0
161 182 0
170 193 0
166 185 0
164 186 0
164 187 0
169 191 0
165 187 0
170 193 0
162 186 0
164 188 0
165 189 0
162 186 0
164 188 0
159 181 0
161 185 0
173 195 0
161 185 0
162 185 0
165 188 0
162 186 0
164 187 0
163 186 0
163 187 0
164 188 0
164 187 0
164 187 0
164 187 0
163 186 0
155 178 0
163 185 0
165 190 0
171 193 0
164 186 0
164 186 0
162 187 0
154 177 0
159 183 0
158 181 0
163 185 0
159 183 0
154 177 0
163 185 0
161 184 0
157 182 0
168 191 0
159 182 0
158 179 0
163 187 0
163 186 0
165 189 0
164 188 0
170 194 0
165 187 0
159 181 0
163 187 0
171 194 0
169 192 0
168 191 0
169 193 0
159 182 0
166 188 0
163 187 0
175 198 0
163 185 0
163 188 0
162 186 0
168 191 0
165 188 0
169 192 0
169 192 0
169 192 0
165 188 0
167 190 0
168 191 0
167 191 0
159 180 0
168 190 0
167 188 0
157 181 0
159 181 0
168 191 0
168 192 0
163 187 0
164 188 0
167 190 0
166 189 0
170 192 0
167 188 0
170 194 0
171 194 0
167 191 0
173 193 0
165 189 0
168 192 0
164 187 0
168 190 0
167 191 0
167 190 0
166 189 0
170 192 0
170 194 0
169 193 0
163 187 0
169 193 0
171 194 0
166 189 0
167 191 0
168 191 0
166 190 0
170 193 0
170 192 0
168 190 0
166 190 0
169 192 0
165 188 0
169 192 0
171 195 0
167 189 0
168 190 0
173 196 0
169 192 0
174 195 0
165 189 0
168 192 0
169 191 0
173 197 0
171 193 0
173 195 0
166 190 0
169 193 0
170 193 0
168 192 0
164 188 0
170 193 0
170 194 0
170 194 0
172 196 0
170 192 0
169 192 0
167 191 0
170 194 0
171 194 0
171 195 0
167 190 0
174 196 0
173 196 0
174 197 0
175 197 0
172 194 0
169 193 0
172 194 0
169 193 0
171 194 0
171 194 0
167 191 0
170 193 0
172 195 0
174 196 0
171 193 0
171 195 0
170 193 0
165 189 0
171 195 0
172 195 0
168 192 0
175 198 0
174 197 0
172 195 0
173 197 0
169 191 0
172 196 0
174 197 0
171 194 0
170 194 0
170 195 0
169 192 0
170 194 0
171 193 0
169 192 0
168 192 0
165 189 0
173 197 0
173 195 0
173 196 0
169 191 0
173 196 0
169 194 0
171 195 0
170 193 0
176 198 0
171 192 0
172 194 0
173 197 0
175 198 0
175 197 0
173 196 0
174 196 0
172 195 0
172 196 0
173 195 0
168 192 0
171 195 0
171 194 0
173 196 0
173 197 0
169 193 0
170 193 0
170 193 0
173 197 0
171 194 0
172 196 0
171 194 0
171 195 0
173 197 0
173 196 0
174 196 0
173 196 0
172 195 0
171 195 0
174 197 0
174 197 0
172 195 0
173 195 0
173 196 0
171 196 0
176 198 0
174 197 0
173 197 0
174 197 0
176 199 0
169 193 0
172 194 0
173 196 0
171 194 0
173 197 0
175 198 0
172 196 0
172 196 0
175 197 0
173 196 0
173 197 0
172 195 0
176 199 0
171 195 0
174 198 0
173 197 0
173 197 0
172 196 0
173 197 0
172 196 0
175 198 0
171 195 0
170 193 0
173 196 0
174 197 0
175 198 0
173 196 0
174 197 0
167 191 0
174 197 0
174 198 0
172 195 0
167 190 0
174 198 0
172 196 0
173 197 0
170 194 0
170 194 0
178 199 0
176 198 0
171 195 0
171 195 0
174 198 0
171 196 0
172 195 0
174 197 0
173 197 0
174 197 0
173 195 0
172 196 0
173 197 0
172 195 0
171 195 0
172 195 0
174 197 0
176 199 0
172 195 0
173 196 0
165 190 0
172 196 0
172 195 0
173 196 0
172 196 0
173 195 0
174 197 0
173 197 0
173 197 0
174 198 0
174 197 0
169 193 0
173 196 0
173 196 0
174 197 0
173 196 0
173 195 0
175 198 0
172 194 0
173 196 0
173 196 0
175 198 0
172 195 0
173 197 0
170 193 0
176 198 0
174 196 0
170 193 0
173 196 0
171 194 0
172 193 0
173 196 0
171 194 0
172 196 0
175 198 0
177 199 0
174 197 0
171 193 0
173 196 0
171 195 0
175 198 0
169 193 0
171 194 0
174 197 0
170 194 0
173 196 0
175 198 0
175 196 0
173 196 0
171 194 0
173 197 0
175 198 0
171 194 0
175 198 0
175 198 0
171 194 0
169 192 0
170 193 0
173 197 0
173 196 36
176 199 51
175 198 36
168 192 0
172 194 0
172 195 0
171 193 62
168 192 0
175 198 0
166 189 0
173 196 0
173 196 0
170 193 0
173 196 36
174 196 0
175 197 0
173 195 0
168 191 0
174 198 0
172 194 0
168 192 0
161 183 0
171 194 0
173 194 0
171 194 0
173 196 0
174 196 0
170 193 0
163 185 0
173 195 0
170 192 0
170 192 0
169 191 0
160 182 0
167 190 0
176 198 0
170 193 0
166 187 0
172 193 0
168 189 0
172 193 0
158 179 0
166 189 0
169 191 0
174 196 0
169 191 0
175 196 0
161 184 0
169 191 0
160 182 0
165 187 0
167 190 0
166 189 0
159 180 0
161 184 0
158 179 0
163 186 0
161 184 0
167 191 0
171 193 0
162 185 0
160 182 0
156 179 0
167 190 0
170 192 0
161 183 0
162 183 0
163 185 0
165 187 0
160 184 0
165 187 0
168 190 0
166 190 0
167 190 0
157 181 0
169 194 0
162 185 0
164 187 0
174 196 0
166 189 0
160 184 0
164 187 0
167 190 0
161 183 0
163 188 0
160 183 0
158 181 0
170 194 0
167 190 0
166 188 0
160 182 0
166 189 0
168 191 0
167 190 0
161 184 0
158 181 0
166 189 0
166 189 0
168 191 0
167 190 0
165 188 0
160 183 0
167 190 0
163 187 0
164 188 0
166 189 0
165 188 0
169 192 0
171 194 0
168 190 0
167 189 0
163 185 0
167 191 0
167 189 0
165 189 0
162 184 0
167 190 0
166 189 0
164 184 0
165 188 0
162 187 0
160 184 0
165 187 0
165 188 0
171 194 0
172 194 0
172 195 0
165 188 0
169 192 0
166 190 0
161 185 0
168 192 0
169 192 0
169 192 0
171 195 0
167 191 0
172 195 0
168 191 0
162 185 0
167 189 0
165 188 0
168 191 0
165 188 0
167 190 0
165 187 0
164 188 0
173 196 0
172 195 0
170 193 0
166 188 0
168 190 0
169 191 0
169 193 0
164 186 0
166 189 0
170 193 0
169 191 0
165 189 0
169 191 0
165 189 0
168 191 0
172 196 0
169 193 0
171 194 0
167 190 0
173 196 0
164 187 0
171 195 0
168 191 0
169 193 0
173 196 0
173 196 0
167 190 0
172 195 0
168 192 0
170 194 0
171 195 0
165 189 0
170 191 0
171 195 0
172 194 0
173 196 0
173 196 0
171 193 0
175 197 0
169 192 0
168 191 0
171 195 0
167 190 0
169 193 0
166 189 0
172 195 0
170 194 0
173 196 0
171 194 0
172 195 0
168 192 0
171 195 0
172 195 0
167 189 0
171 193 0
173 196 0
169 192 0
172 195 0
169 190 0
170 194 0
168 190 0
173 195 0
168 192 0
171 194 0
171 195 0
168 192 0
170 195 0
170 194 0
175 197 0
170 193 0
176 198 0
172 195 0
172 196 0
170 194 0
168 191 0
171 194 0
169 192 0
171 195 0
174 195 0
174 196 0
175 198 0
173 195 0
173 197 0
174 196 0
172 195 0
174 197 0
171 195 0
171 194 0
172 196 0
171 195 0
174 196 0
171 194 0
170 194 0
172 195 0
170 194 0
171 195 0
171 194 0
173 196 0
173 196 0
171 195 0
176 197 0
172 195 0
170 194 0
171 194 0
168 190 0
173 197 0
172 194 0
171 195 0
173 195 0
176 198 0
173 197 0
168 191 0
174 197 0
171 194 0
171 195 0
172 194 0
171 195 0
171 195 0
169 193 0
174 197 0
174 197 0
172 196 0
173 197 0
173 197 0
174 198 0
173 196 0
176 199 0
171 195 0
169 192 0
171 195 0
172 194 0
173 197 0
169 193 0
175 197 0
177 199 0
170 193 0
174 197 0
175 197 0
169 193 0
172 196 0
172 196 0
173 197 0
172 196 0
174 198 0
174 198 0
172 195 0
175 197 0
172 197 0
174 197 0
174 198 0
172 196 0
176 198 0
172 196 0
174 198 0
174 197 0
175 198 0
175 197 0
170 194 0
170 195 0
175 198 0
172 197 0
174 198 0
171 193 0
174 198 0
172 195 0
172 196 0
169 193 0
169 193 0
173 196 0
169 194 0
176 198 0
173 196 0
171 195 0
174 196 0
172 196 0
176 198 0
174 197 0
173 197 0
173 196 0
176 199 0
174 197 0
174 197 0
176 199 0
173 197 0
172 197 0
172 196 0
172 196 0
172 195 0
174 197 0
173 196 0
176 199 0
172 195 0
170 194 0
173 195 0
170 194 0
174 197 0
172 195 0
171 194 0
172 195 0
172 195 0
174 196 0
174 197 0
174 197 0
173 196 0
172 196 0
175 198 0
171 196 0
174 196 0
172 195 0
173 196 0
172 196 0
176 198 0
175 198 0
169 193 0
174 197 0
168 192 0
170 194 0
171 194 0
173 197 0
171 194 0
174 197 0
173 196 0
174 197 0
169 192 0
171 194 0
168 192 0
172 196 0
174 197 0
170 193 0
171 195 0
173 196 0
173 196 0
175 198 0
173 196 0
175 197 0
173 196 0
170 192 0
171 194 0
173 195 0
173 195 0
172 195 0
172 195 0
176 199 0
175 197 0
177 198 0
172 196 0
176 199 0
175 198 0
173 196 0
175 198 0
170 192 0
177 199 0
169 193 0
174 197 0
169 192 0
175 198 0
172 195 0
174 197 0
173 196 0
176 199 0
172 195 0
173 196 0
170 193 0
170 195 0
172 195 0
170 194 0
168 191 0
171 194 0
175 197 0
170 192 0
174 197 0
174 197 0
174 196 0
176 197 0
173 196 0
173 195 0
172 195 0
171 194 0
170 192 0
171 194 0
168 191 0
168 191 0
173 195 0
172 194 0
167 189 0
169 191 0
167 189 0
167 188 0
170 191 0
171 194 0
170 192 0
163 185 0
171 192 0
168 190 0
170 190 0
173 194 0
174 196 0
167 189 0
172 192 0
166 188 0
174 196 0
162 185 0
166 188 0
159 181 0
167 189 0
167 189 0
169 191 0
162 184 0
153 175 0
158 181 0
171 192 0
162 184 0
165 185 0
170 192 0
175 197 0
166 188 0
166 189 0
160 183 0
165 188 0
164 186 0
170 192 0
166 188 0
166 190 0
163 185 0
160 183 0
164 187 0
167 190 0
168 191 0
166 188 0
170 193 0
172 195 0
162 185 0
166 189 0
171 193 0
167 190 0
163 186 0
166 188 0
169 191 0
156 178 0
160 183 0
167 190 0
172 196 0
163 188 0
165 189 0
164 187 0
159 183 0
170 194 0
163 187 0
166 189 0
166 189 0
160 184 0
171 196 0
164 187 0
164 186 0
168 192 0
166 189 0
167 189 0
167 189 0
159 183 0
167 192 0
166 188 0
165 187 0
164 188 0
167 189 0
165 188 0
165 189 0
167 190 0
164 187 0
164 187 0
170 191 0
166 189 0
168 191 0
157 180 0
169 191 0
165 189 0
166 190 0
167 190 0
163 186 0
164 186 0
167 191 0
168 191 0
166 190 0
164 188 0
169 191 0
168 192 0
170 193 0
163 186 0
170 194 0
171 195 0
165 188 0
167 191 0
170 192 0
169 193 0
169 192 0
165 188 0
172 196 0
163 187 0
168 191 0
170 193 0
172 195 0
169 192 0
170 193 0
165 188 0
168 192 0
173 196 0
167 190 0
168 191 0
161 184 0
169 193 0
167 190 0
166 190 0
172 195 0
169 192 0
168 193 0
170 193 0
174 197 0
167 189 0
166 190 0
172 194 0
170 193 0
174 196 0
173 195 0
170 193 0
163 186 0
171 194 0
166 189 0
166 189 0
172 195 0
171 194 0
169 191 0
172 195 0
170 194 0
170 193 0
167 190 0
171 194 0
171 194 0
174 196 0
169 191 0
166 188 0
172 196 0
163 186 0
170 194 0
170 194 0
169 193 0
170 193 0
170 193 0
169 193 0
172 194 0
168 192 0
172 195 0
173 197 0
172 195 0
171 196 0
170 193 0
170 194 0
172 195 0
171 194 0
174 196 0
170 193 0
169 192 0
168 193 0
173 196 0
174 197 0
174 196 0
170 194 0
174 197 0
170 192 0
169 193 0
175 196 0
172 197 0
172 196 0
174 198 0
165 188 0
173 196 0
170 192 0
172 196 0
169 192 0
173 196 0
172 194 0
172 196 0
171 192 0
173 196 0
170 193 0
171 193 0
173 195 0
173 195 0
172 195 0
170 193 0
170 192 0
169 192 0
175 198 0
172 194 0
170 194 0
166 189 0
173 196 0
172 196 0
173 195 0
170 192 0
170 193 0
173 197 0
169 192 0
173 196 0
173 196 0
168 193 0
174 198 0
172 196 0
170 194 0
174 197 0
172 196 0
171 194 0
173 195 0
173 197 0
171 194 0
173 196 0
170 194 0
173 197 0
170 194 0
169 193 0
174 198 0
174 198 0
171 193 0
171 195 0
172 194 0
172 195 0
174 198 0
170 194 0
172 196 0
174 198 0
175 198 0
174 198 0
170 195 0
173 197 0
171 195 0
166 191 0
172 195 0
176 198 0
172 196 0
171 196 0
172 197 0
172 197 0
173 197 0
173 197 0
172 196 0
172 196 0
173 197 0
173 197 0
170 194 0
170 194 0
174 197 0
171 195 0
173 196 0
174 198 0
174 198 0
173 197 0
173 197 0
174 197 0
169 193 0
174 197 0
173 197 0
173 197 0
172 196 0
171 196 0
171 196 0
173 197 0
172 196 0
170 194 0
172 196 0
173 196 0
171 195 0
173 196 0
172 195 0
175 198 0
175 197 0
171 194 0
174 197 0
171 195 0
172 196 0
173 197 0
175 198 0
172 196 0
175 197 0
174 197 0
171 195 0
173 196 0
173 196 0
171 195 0
175 198 0
174 197 0
174 197 0
173 197 0
173 197 0
174 196 0
175 198 0
173 195 0
172 195 0
171 195 0
168 192 0
171 195 0
169 191 0
173 197 0
174 197 0
176 198 0
173 197 0
175 198 0
167 192 0
174 197 0
174 197 0
171 194 0
171 194 0
175 197 0
169 193 0
173 197 0
173 196 0
171 194 0
173 196 0
170 193 0
175 197 0
173 197 0
173 197 0
173 197 0
169 192 0
170 192 0
176 198 0
172 195 0
171 194 0
173 196 0
174 196 0
172 194 0
171 194 0
172 195 0
173 196 0
172 195 0
170 193 0
171 195 0
173 197 0
172 195 0
174 198 0
170 194 0
175 198 0
169 192 0
176 199 0
173 196 0
169 192 0
175 197 0
173 197 0
175 198 0
175 198 0
171 195 0
172 196 0
170 194 0
171 194 0
173 195 0
170 193 0
176 197 0
172 194 0
176 199 0
172 194 0
174 196 0
172 194 0
173 196 0
165 188 0
174 196 0
175 198 0
169 193 0
172 195 0
176 199 0
172 195 0
173 197 0
174 197 0
172 195 0
169 191 0
174 196 0
173 196 0
170 193 0
175 198 0
171 194 0
175 197 0
172 194 0
174 196 0
167 190 0
168 190 0
169 192 0
174 195 0
172 194 0
174 195 0
172 193 0
168 190 0
167 189 0
168 191 0
166 188 0
167 189 0
168 190 0
164 187 0
163 185 0
164 186 0
166 186 0
170 192 0
168 189 0
161 181 0
163 185 0
160 181 0
168 191 0
160 182 0
161 183 0
171 193 0
156 179 0
161 184 0
164 187 0
169 191 0
164 188 0
166 188 0
164 187 0
155 178 0
159 182 0
163 184 0
160 185 0
167 190 0
158 181 0
165 188 0
164 187 0
163 186 0
162 185 0
164 187 0
172 195 0
162 185 0
168 191 0
164 187 0
159 183 0
161 185 0
164 187 0
162 186 0
158 180 0
166 190 0
165 189 0
168 191 0
159 182 0
154 178 0
168 190 0
156 179 0
165 188 0
161 184 0
169 190 0
163 186 0
161 184 0
166 189 0
160 184 0
164 188 0
166 190 0
165 188 0
162 186 0
158 181 0
165 188 0
165 190 0
166 189 0
158 181 0
167 190 0
165 189 0
170 194 0
161 185 0
169 192 0
167 192 0
164 188 0
163 185 0
164 187 0
169 193 0
164 187 0
163 186 0
163 186 0
168 193 0
163 187 0
164 187 0
166 188 0
160 183 0
174 197 0
172 195 0
159 182 0
169 193 0
165 190 0
167 191 0
173 197 0
165 189 0
168 191 0
166 189 0
170 192 0
158 183 0
170 193 0
167 192 0
172 195 0
160 184 0
166 190 0
171 193 0
170 193 0
169 193 0
165 188 0
169 192 0
166 190 0
162 187 0
164 186 0
169 193 0
174 197 0
169 192 0
166 188 0
165 188 0
165 188 0
172 196 0
166 189 0
164 187 0
169 193 0
170 192 0
168 191 0
168 192 0
163 187 0
174 197 0
167 191 0
166 189 0
173 196 0
170 193 0
169 192 0
171 193 0
171 193 0
173 195 0
173 195 0
167 189 0
165 189 0
171 195 0
170 194 0
168 192 0
170 193 0
168 192 0
163 186 0
172 195 0
171 194 0
170 193 0
172 195 0
166 189 0
172 196 0
170 193 0
164 188 0
171 195 0
167 190 0
166 189 0
169 193 0
173 195 0
169 191 0
168 190 0
169 191 0
173 196 0
172 195 0
166 189 0
174 198 0
171 194 0
166 190 0
171 194 0
167 192 0
169 192 0
173 197 0
167 191 0
173 196 0
172 196 0
170 194 0
166 187 0
173 196 0
171 194 0
172 195 0
169 194 0
175 198 0
169 192 0
170 193 0
174 195 0
173 196 0
168 190 0
171 195 0
173 197 0
171 195 0
168 192 0
172 195 0
177 198 0
174 197 0
171 195 0
175 197 0
169 191 0
174 198 0
173 194 0
175 197 0
171 194 0
170 195 0
170 194 0
168 192 0
172 196 0
173 196 0
174 198 0
173 196 0
174 197 0
173 197 0
168 191 0
175 197 0
171 195 0
169 193 0
170 196 0
174 197 0
165 188 0
171 195 0
172 194 0
174 197 0
173 197 0
174 197 0
173 196 0
171 193 0
174 198 0
173 197 0
175 198 0
171 195 0
173 196 0
173 196 0
173 196 0
174 198 0
174 198 0
172 194 0
176 198 0
172 197 0
174 196 0
173 195 0
171 193 0
173 197 0
174 197 0
174 198 0
173 197 0
169 194 0
172 197 0
171 196 0
172 196 0
171 194 0
175 198 0
173 197 0
173 197 0
170 195 0
173 197 0
172 194 0
174 197 0
171 195 0
175 198 0
176 199 0
170 193 0
173 196 0
172 196 0
174 197 0
173 197 0
176 199 0
175 197 0
174 197 0
172 195 0
175 198 0
171 195 0
168 192 0
172 196 0
173 197 0
169 194 0
173 196 0
177 199 0
174 198 0
173 195 0
174 197 0
173 196 0
171 195 0
171 195 0
175 197 0
171 196 0
172 196 0
174 197 0
173 196 0
170 194 0
172 196 0
172 196 0
173 197 0
172 196 0
170 194 0
172 197 0
175 198 0
173 196 0
173 197 0
174 196 0
173 197 0
173 197 0
173 197 0
175 197 0
173 197 0
175 198 0
172 195 0
173 197 0
174 196 0
171 195 0
173 197 0
173 196 0
172 195 0
169 192 0
170 194 0
170 194 0
172 196 0
168 192 0
169 194 0
169 193 0
169 192 0
171 195 0
171 196 0
171 195 0
175 198 0
173 195 0
170 194 0
169 192 0
173 197 0
173 196 0
174 196 0
172 196 0
174 197 0
167 191 0
170 193 0
172 195 0
173 196 0
175 197 0
175 198 0
169 193 0
173 196 0
170 191 0
177 199 0
175 197 0
176 198 0
172 195 0
174 196 0
173 195 0
172 195 0
172 195 0
167 190 0
176 199 0
174 198 0
171 194 0
171 194 0
172 195 0
176 198 0
178 200 0
175 197 0
177 199 0
174 197 0
171 193 0
174 195 0
177 198 0
175 198 0
167 190 0
174 197 0
174 197 0
170 192 0
173 196 0
176 198 0
174 197 0
173 196 0
173 195 0
167 190 0
174 197 0
169 193 0
173 197 0
173 196 0
171 194 0
169 192 0
171 195 0
176 198 0
174 197 0
166 189 0
174 198 0
172 195 0
168 191 0
174 197 0
174 197 0
175 198 0
175 198 0
173 195 0
170 192 0
170 193 0
173 196 0
175 196 0
174 196 0
172 196 0
174 195 0
172 195 0
167 189 0
168 190 0
174 195 0
167 189 0
175 197 0
168 190 0
169 192 0
170 192 0
167 189 0
173 194 0
168 190 0
171 192 0
173 193 0
170 193 0
159 181 0
170 193 0
165 187 0
163 185 0
170 192 0
164 186 0
165 187 0
167 188 0
166 188 0
174 196 0
161 182 0
166 189 0
164 186 0
174 195 0
168 190 0
168 191 0
172 195 0
166 188 0
169 192 0
157 179 0
170 193 0
163 186 0
160 182 0
169 191 0
167 189 0
164 186 0
166 189 0
167 190 0
166 190 0
163 188 0
159 183 0
160 183 0
164 186 0
161 183 0
166 190 0
163 187 0
170 192 0
169 192 0
161 183 0
159 184 0
168 191 0
163 186 0
163 187 0
161 185 0
159 182 0
168 192 0
167 191 0
160 182 0
169 191 0
167 190 0
163 187 0
161 185 0
167 190 0
170 193 0
167 190 0
169 193 0
166 188 0
166 188 0
174 196 0
163 187 0
168 192 0
171 194 0
167 191 0
163 186 0
166 189 0
161 185 0
164 187 0
169 192 0
166 189 0
166 189 0
167 190 0
168 189 0
158 182 0
162 185 0
170 194 0
163 187 0
164 189 0
168 191 0
162 184 0
166 189 0
168 192 0
165 188 0
173 196 0
164 188 0
168 190 0
171 194 0
170 194 0
164 186 0
172 197 0
169 193 0
167 191 0
166 188 0
166 189 0
164 187 0
169 191 0
169 192 0
168 190 0
168 192 0
166 189 0
163 186 0
168 192 0
164 186 0
172 194 0
167 190 0
173 196 0
171 193 0
165 189 0
171 194 0
168 190 0
169 192 0
165 188 0
171 193 0
168 191 0
170 192 0
167 190 0
171 195 0
167 191 0
170 193 0
171 195 0
171 194 0
171 194 0
168 191 0
169 193 0
167 190 0
169 193 0
171 194 0
171 194 0
167 189 0
170 192 0
172 196 0
174 197 0
169 193 0
170 193 0
175 198 0
170 191 0
170 192 0
171 194 0
169 193 0
168 191 0
170 193 0
171 195 0
169 192 0
167 191 0
168 192 0
174 198 0
168 191 0
167 190 0
172 194 0
162 183 0
168 189 0
173 196 0
167 190 0
171 194 0
172 196 0
169 192 0
173 196 0
172 194 0
165 189 0
168 191 0
171 194 0
168 192 0
167 192 0
174 197 0
173 196 0
171 196 0
175 198 0
171 195 0
170 193 0
170 193 0
171 194 0
172 195 0
168 192 0
172 194 0
170 194 0
172 196 0
169 192 0
171 194 0
171 194 0
171 193 0
173 197 0
172 194 0
176 198 0
168 190 0
170 193 0
168 191 0
169 192 0
171 193 0
172 195 0
173 197 0
170 192 0
172 196 0
173 195 0
172 195 0
175 198 0
174 198 0
173 196 0
171 195 0
172 194 0
172 195 0
171 195 0
173 196 0
171 195 0
177 199 0
173 195 0
173 196 0
173 197 0
172 196 0
175 198 0
172 196 0
174 197 0
172 195 0
170 193 0
170 193 0
175 198 0
174 197 0
172 195 0
176 197 0
172 195 0
175 198 0
173 197 0
176 199 0
175 198 0
173 196 0
172 195 0
171 195 0
173 195 0
171 195 0
171 194 0
174 198 0
174 197 0
173 196 0
175 197 0
171 194 0
171 196 0
174 198 0
174 196 0
170 194 0
169 190 0
173 196 0
175 198 0
173 197 0
174 198 0
173 196 0
170 191 0
173 197 0
170 194 0
172 196 0
172 196 0
173 196 0
174 197 0
174 197 0
175 198 0
174 197 0
175 198 0
176 199 0
175 198 0
173 197 0
174 197 0
174 198 0
170 195 0
172 196 0
173 197 0
174 198 0
173 196 0
173 197 0
170 195 0
173 197 0
174 197 0
171 195 0
174 197 0
174 198 0
173 196 0
175 198 0
175 197 0
173 196 0
172 195 0
169 194 0
170 194 0
173 197 0
172 196 0
171 194 0
173 196 0
171 195 0
169 193 0
173 197 0
171 195 0
171 196 0
170 193 0
174 198 0
175 197 0
174 198 0
173 196 0
174 197 0
174 198 0
174 198 0
173 196 0
176 198 0
176 198 0
172 196 0
169 193 0
174 197 0
176 198 0
173 197 0
171 193 0
174 197 0
168 192 0
174 197 0
171 195 0
175 197 0
171 195 0
168 191 0
171 195 0
174 197 0
169 192 0
175 198 0
171 195 0
174 197 0
171 194 0
171 194 0
175 198 0
169 193 0
172 195 0
174 198 0
173 196 0
171 194 0
171 194 0
172 195 0
171 193 0
175 198 0
172 195 0
173 196 0
171 193 0
174 197 0
172 196 0
175 198 0
170 192 0
176 198 0
172 196 36
170 194 0
174 197 0
169 191 0
174 197 0
170 193 0
167 189 0
174 196 0
173 195 0
171 191 0
175 198 0
174 197 0
170 192 0
176 198 0
170 193 0
170 193 0
169 192 0
169 194 0
172 195 0
170 193 0
168 192 0
173 197 0
171 194 0
174 197 0
172 195 0
174 197 0
168 191 0
173 197 0
173 195 0
173 195 0
176 197 0
172 195 0
172 194 0
173 195 0
174 196 0
176 198 0
173 195 0
171 194 0
173 194 0
168 191 0
178 200 0
175 197 0
172 194 0
171 194 0
174 196 0
172 194 0
170 192 0
171 194 0
167 189 0
172 194 0
163 186 0
176 197 0
171 193 0
174 196 0
172 193 0
169 191 0
169 190 0
169 190 0
170 192 0
164 186 0
164 186 0
168 189 0
167 190 0
161 184 0
176 196 0
168 190 0
174 196 0
172 194 0
169 191 0
171 193 0
168 190 0
162 185 0
162 185 0
162 184 0
160 183 0
166 188 0
169 191 0
163 187 0
162 185 0
163 186 0
165 186 0
163 187 0
170 192 0
165 187 0
163 186 0
170 192 0
165 188 0
170 194 0
168 191 0
154 176 0
166 189 0
159 183 0
170 193 0
166 188 0
165 188 0
169 192 0
164 188 0
167 191 0
168 191 0
164 187 0
167 190 0
158 181 0
166 188 0
162 185 0
169 191 0
169 192 0
167 190 0
167 189 0
162 185 0
162 185 0
169 193 0
159 183 0
160 184 0
155 179 0
173 196 0
165 189 0
167 191 0
158 182 0
166 189 0
163 184 0
160 184 0
165 187 0
163 187 0
170 192 0
167 192 0
168 191 0
161 185 0
165 189 0
161 184 0
163 187 0
167 191 0
167 191 0
163 186 0
164 186 0
167 190 0
162 186 0
163 187 0
168 191 0
168 192 0
164 188 0
171 194 0
162 186 0
172 195 0
170 192 0
168 190 0
171 194 0
166 188 0
170 193 0
163 185 0
164 188 0
157 179 0
168 191 0
163 188 0
167 191 0
168 191 0
170 194 0
166 189 0
169 191 0
165 188 0
165 188 0
169 193 0
170 195 0
169 191 0
172 194 0
169 191 0
167 190 0
171 195 0
169 192 0
167 191 0
169 193 0
169 194 0
166 190 0
170 194 0
167 191 0
167 190 0
171 194 0
171 194 0
171 194 0
169 192 0
169 192 0
172 196 0
172 196 0
155 179 0
168 191 0
168 189 0
168 192 0
167 190 0
171 195 0
166 189 0
169 192 0
169 192 0
166 189 0
165 187 0
173 196 0
173 197 0
171 195 0
167 190 0
168 192 0
171 195 0
170 195 0
166 190 0
171 195 0
165 188 0
170 194 0
172 195 0
171 194 0
170 193 0
167 191 0
171 193 0
172 195 0
173 195 0
169 191 0
170 195 0
173 197 0
172 196 0
171 194 0
173 195 0
173 196 0
175 197 0
169 193 0
169 191 0
165 189 0
170 193 0
175 197 0
171 194 0
168 192 0
176 198 0
174 196 0
174 196 0
170 194 0
172 196 0
176 199 0
165 188 0
172 195 0
173 197 0
172 196 0
171 194 0
171 195 0
174 195 0
175 198 0
173 197 0
174 198 0
171 195 0
170 193 0
173 195 0
172 195 0
176 199 0
169 194 0
170 194 0
173 196 0
173 195 0
171 195 0
175 197 0
174 196 0
171 194 0
171 194 0
171 195 0
171 195 0
173 196 0
174 197 0
169 192 0
171 193 0
176 198 0
174 197 0
171 195 0
173 197 0
173 196 0
172 195 0
173 196 0
170 193 0
175 198 0
170 193 0
175 198 0
169 194 0
171 194 0
175 198 0
172 194 0
174 197 0
173 197 0
172 195 0
174 198 0
177 199 0
173 196 0
170 194 0
173 197 0
174 197 0
168 192 0
172 195 0
172 196 0
174 197 0
170 194 0
172 196 0
172 196 0
171 194 0
171 193 0
173 196 0
170 192 0
172 196 0
172 196 0
175 198 0
171 194 0
176 198 0
175 198 0
174 197 0
175 197 0
173 196 0
172 196 0
173 197 0
170 195 0
173 197 0
173 196 0
173 197 0
177 199 0
174 197 0
175 198 0
173 197 0
174 197 0
172 196 0
173 197 0
173 197 0
172 195 0
172 196 0
174 197 0
174 197 0
174 198 0
173 196 0
170 195 0
172 197 0
176 198 0
173 197 0
173 196 0
176 198 0
171 194 0
174 197 0
174 197 0
173 197 0
174 197 0
172 196 0
174 198 0
174 196 0
172 196 0
171 194 0
173 196 0
176 199 0
175 197 0
173 197 0
174 197 0
174 198 0
173 196 0
174 197 0
172 194 0
172 196 0
173 197 0
173 196 0
172 196 0
174 197 0
169 193 0
175 198 0
171 195 0
173 197 0
174 197 0
174 197 0
171 194 0
174 197 0
171 194 0
171 194 0
173 196 0
172 194 0
171 195 0
170 193 0
172 195 0
171 195 0
172 195 0
170 195 0
169 192 0
172 194 0
173 196 0
170 193 0
173 197 0
174 197 0
175 198 0
171 194 0
167 190 0
174 197 0
171 194 0
169 192 0
172 195 0
175 198 0
174 197 0
174 197 0
172 196 0
171 194 0
172 196 0
175 198 0
174 197 0
172 194 0
173 196 0
173 195 0
175 198 0
169 192 0
172 194 0
175 198 0
173 195 0
170 193 0
170 193 0
170 193 0
167 190 0
173 196 0
172 194 0
173 196 0
172 196 0
173 196 0
175 197 0
173 197 0
174 196 0
173 194 0
175 197 0
173 196 0
175 197 0
177 199 0
174 197 0
174 195 0
171 193 0
172 194 0
175 198 0
168 192 0
174 196 0
172 195 0
170 193 0
170 193 0
173 196 0
174 196 0
170 191 0
172 193 0
172 194 0
172 195 0
171 195 0
172 195 0
174 197 0
172 194 0
173 196 0
171 193 0
168 191 0
171 193 0
171 192 0
168 190 0
170 192 0
170 191 0
172 194 0
171 193 0
176 197 0
170 191 0
173 194 0
172 194 0
168 190 0
171 194 0
167 188 0
173 195 0
167 190 0
169 190 0
163 185 0
167 188 0
168 190 0
159 182 0
169 191 0
171 192 0
173 195 0
165 187 0
173 194 0
169 192 0
164 185 0
165 188 0
168 191 0
166 189 0
169 191 0
164 187 0
166 189 0
166 190 0
164 187 0
171 194 0
168 191 0
162 186 0
167 191 0
168 191 0
169 191 0
167 188 0
152 176 0
158 180 0
171 193 0
166 189 0
160 184 0
167 189 0
158 180 0
167 190 0
163 188 0
161 185 0
163 186 0
164 188 0
162 185 0
169 193 0
170 193 0
164 187 0
159 182 0
162 186 0
167 188 0
166 189 0
159 183 0
166 189 0
165 188 0
164 188 0
165 187 0
169 192 0
161 184 0
167 190 0
174 196 0
164 188 0
167 191 0
156 179 0
168 190 0
166 189 0
168 191 0
168 192 0
164 188 0
169 192 0
169 192 0
169 192 0
169 193 0
167 191 0
163 186 0
168 192 0
165 189 0
162 186 0
163 188 0
170 192 0
169 191 0
171 195 0
172 196 0
163 186 0
167 191 0
168 192 0
162 185 0
167 191 0
165 186 0
166 191 0
169 192 0
165 187 0
168 192 0
170 193 0
166 188 0
164 187 0
169 191 0
168 191 0
169 194 0
162 186 0
175 197 0
167 190 0
171 195 0
172 195 0
166 188 0
164 188 0
160 182 0
171 194 0
169 192 0
171 195 0
168 191 0
168 189 0
172 195 0
166 189 0
171 194 0
165 188 0
166 188 0
170 192 0
173 196 0
172 195 0
174 197 0
163 186 0
166 188 0
169 192 0
166 189 0
165 189 0
171 195 0
172 195 0
175 198 0
171 194 0
165 188 0
168 191 0
171 195 0
169 192 0
165 188 0
167 190 0
173 196 0
171 194 0
168 191 0
169 194 0
166 189 0
169 193 0
168 192 0
172 195 0
168 192 0
170 195 0
169 193 0
170 193 0
171 195 0
174 196 0
171 195 0
169 194 0
169 193 0
169 192 0
170 192 0
169 191 0
169 194 0
167 190 0
170 193 0
168 191 0
172 196 0
170 195 0
170 193 0
170 193 0
170 194 0
166 189 0
169 191 0
168 192 0
174 197 0
173 197 0
167 189 0
167 188 0
170 193 0
171 195 0
173 196 0
167 190 0
171 194 0
168 191 0
174 197 0
175 198 0
173 195 0
176 198 0
169 192 0
171 194 0
169 193 0
173 196 0
173 195 0
171 194 0
173 196 0
169 193 0
172 196 0
174 197 0
172 195 0
171 195 0
168 191 0
172 195 0
171 194 0
172 196 0
172 196 0
172 196 0
176 197 0
170 193 0
167 190 0
172 195 0
170 194 0
172 195 0
174 197 0
173 196 0
174 196 0
169 192 0
175 198 0
170 194 0
174 197 0
170 193 0
172 196 0
171 193 0
170 193 0
174 197 0
174 197 0
174 198 0
171 194 0
172 196 0
174 198 0
172 196 0
167 191 0
167 191 0
173 195 0
176 198 0
173 195 0
171 194 0
174 198 0
174 198 0
174 198 0
173 197 0
169 191 0
174 198 0
172 196 0
172 195 0
174 196 0
172 195 0
173 196 0
173 197 0
170 194 0
174 196 0
174 197 0
174 196 0
169 192 0
172 195 0
174 197 0
171 194 0
174 198 0
172 197 0
174 197 0
175 198 0
173 196 0
173 196 0
175 198 0
174 198 0
176 199 0
172 196 0
174 197 0
171 195 0
175 197 0
173 196 0
174 197 0
174 198 0
172 196 0
176 198 0
175 198 0
174 198 0
171 194 0
176 199 0
173 196 0
176 199 0
171 195 0
170 194 0
173 196 0
174 198 0
172 196 0
173 196 0
172 197 0
172 196 0
175 198 0
175 198 0
176 199 0
174 197 0
174 197 0
173 195 0
171 195 0
172 196 0
173 197 0
170 195 0
175 197 0
175 198 0
174 197 0
170 194 0
171 194 0
172 196 0
171 194 0
174 197 0
173 197 0
173 196 0
171 194 0
171 194 0
172 195 0
175 198 0
174 198 0
173 197 0
173 197 0
173 197 0
174 198 0
173 197 0
174 197 0
173 197 0
173 196 0
173 196 0
170 193 0
177 199 0
171 196 0
173 196 0
174 197 0
174 197 0
175 198 0
170 194 0
172 195 0
171 194 0
170 193 0
173 196 0
170 193 0
167 190 0
171 194 0
173 196 0
173 196 0
168 192 0
176 199 0
174 197 0
169 193 0
174 197 0
170 193 0
173 195 0
175 197 0
173 196 0
168 191 0
173 195 0
173 196 0
174 197 0
177 199 0
171 195 0
171 194 0
172 195 0
172 195 0
171 194 0
173 195 0
173 195 0
171 193 0
174 195 0
174 196 0
169 192 0
170 192 0
171 193 0
170 193 0
176 199 0
171 193 0
168 191 0
173 196 0
174 196 0
178 199 0
172 194 0
171 194 0
172 195 0
176 198 0
168 191 0
172 194 0
174 196 0
169 192 0
177 199 0
172 195 0
172 195 0
171 193 0
169 193 0
176 199 0
169 190 0
176 199 0
175 197 0
169 191 0
169 191 0
173 195 0
176 198 0
172 194 0
171 192 0
171 193 0
168 189 0
172 193 0
169 191 0
165 187 0
174 195 0
171 192 0
171 192 0
175 196 0
172 193 0
172 194 0
169 192 0
173 195 0
164 185 0
171 192 0
164 185 0
174 196 0
168 190 0
169 192 0
161 184 0
167 189 0
167 190 0
168 190 0
166 188 0
161 182 0
167 190 0
164 187 0
163 187 0
171 193 0
172 195 0
164 187 0
170 192 0
170 192 0
163 185 0
165 189 0
165 188 0
162 183 0
170 192 0
169 190 0
166 188 0
160 184 0
168 191 0
170 194 0
166 189 0
171 195 0
166 189 0
166 188 0
172 195 0
161 186 0
163 188 0
165 189 0
174 197 0
167 191 0
163 186 0
167 190 0
168 191 0
157 181 0
167 191 0
163 185 0
164 187 0
169 192 0
163 187 0
169 193 0
162 184 0
170 193 0
165 188 0
164 188 0
169 192 0
162 185 0
170 194 0
164 188 0
166 189 0
166 190 0
169 192 0
158 181 0
167 190 0
160 183 0
165 189 0
170 194 0
163 187 0
166 190 0
165 187 0
167 191 0
166 189 0
166 189 0
169 192 0
168 191 0
163 186 0
171 194 0
164 186 0
169 193 0
167 190 0
166 189 0
165 189 0
166 189 0
167 191 0
168 192 0
170 194 0
161 185 0
169 193 0
169 193 0
165 188 0
165 189 0
171 194 0
168 192 0
172 196 0
158 183 0
171 195 0
166 190 0
170 194 0
167 189 0
173 196 0
167 190 0
165 187 0
168 192 0
168 191 0
167 192 0
171 193 0
169 193 0
167 191 0
169 192 0
167 192 0
169 192 0
169 192 0
168 192 0
165 188 0
167 191 0
169 192 0
167 191 0
173 196 0
167 190 0
166 188 0
166 190 0
171 195 0
170 193 0
167 191 0
174 196 0
163 186 0
171 195 0
168 191 0
169 193 0
167 190 0
169 192 0
170 194 0
165 189 0
171 194 0
168 191 0
171 193 0
166 189 0
170 194 0
168 192 0
168 190 0
169 192 0
169 193 0
172 196 0
169 192 0
172 196 0
170 191 0
168 193 0
175 197 0
173 195 0
173 196 0
164 187 0
168 191 0
168 190 0
168 192 0
170 193 0
173 195 0
167 190 0
172 195 0
168 192 0
171 194 0
172 196 0
171 195 0
166 188 0
174 197 0
171 194 0
169 192 0
171 194 0
170 193 0
175 196 0
169 193 0
169 194 0
170 191 0
167 190 0
174 198 0
174 198 0
174 197 0
171 195 0
175 198 0
171 194 0
174 197 0
170 194 0
171 194 0
166 191 0
175 198 0
173 195 0
171 195 0
170 194 0
164 189 0
175 198 0
166 188 0
173 196 0
172 196 0
173 197 0
170 192 0
173 197 0
173 196 0
174 197 0
170 194 0
173 196 0
172 195 0
170 195 0
169 194 0
174 196 0
171 195 0
172 195 0
171 195 0
172 195 0
171 193 0
173 196 0
172 193 0
173 195 0
167 189 0
169 193 0
166 189 0
170 194 0
173 196 0
172 195 0
173 196 0
172 197 0
171 194 0
174 197 0
173 197 0
172 194 0
172 196 0
174 196 0
172 193 0
172 196 0
175 198 0
169 194 0
173 196 0
172 195 0
173 197 0
176 199 0
171 193 0
173 196 0
174 198 0
170 194 0
173 197 0
174 198 0
171 194 0
172 196 0
173 197 0
175 197 0
175 198 0
173 196 0
172 197 0
170 194 0
174 198 0
173 196 0
178 200 0
171 195 0
174 197 0
175 198 0
172 195 0
175 198 0
173 197 0
175 198 0
175 198 0
173 197 0
174 198 0
175 198 0
170 194 0
172 197 0
174 196 0
173 197 0
169 193 0
171 195 0
172 195 0
173 197 0
172 197 0
171 194 0
173 197 0
172 196 0
174 197 0
174 198 0
169 194 0
170 194 0
174 197 0
175 198 0
173 197 0
176 199 0
170 194 0
174 197 0
175 198 0
172 196 0
171 194 0
171 195 0
173 196 0
174 197 0
172 195 0
172 196 0
170 193 0
173 197 0
172 196 0
170 194 0
173 196 0
170 194 0
176 199 0
173 196 0
171 195 0
168 191 0
175 198 0
175 198 0
175 198 0
175 198 0
171 194 0
166 191 0
172 197 0
173 197 0
170 194 0
173 196 0
173 197 0
173 196 0
171 194 0
172 196 0
174 197 0
174 197 0
173 197 0
174 196 0
171 195 0
171 194 0
172 196 0
172 196 0
174 197 0
173 197 0
177 199 0
171 194 0
170 193 0
170 194 0
175 198 0
173 196 0
167 190 0
165 189 0
173 196 0
168 192 0
176 198 0
174 197 0
174 197 0
175 197 0
174 195 0
174 197 0
173 195 0
172 196 0
168 191 0
171 194 0
172 195 0
169 193 0
175 197 0
177 199 36
173 194 36
168 191 0
172 195 0
172 193 0
175 197 0
177 199 0
176 198 0
173 195 0
174 196 0
171 193 0
173 196 0
176 199 0
174 197 0
176 197 0
170 192 0
173 195 0
168 190 0
176 198 0
173 195 0
171 194 0
175 198 0
172 194 0
174 195 0
172 195 0
169 191 0
176 197 0
172 194 0
174 196 0
174 196 0
176 197 0
171 193 0
173 195 0
176 196 0
176 197 0
170 193 0
176 196 0
169 190 0
171 192 0
170 192 0
170 191 0
165 186 0
171 193 0
172 193 0
173 194 0
171 191 0
170 191 0
174 196 0
162 183 0
167 188 0
173 192 0
169 190 0
173 196 0
166 189 0
166 186 0
169 192 0
169 190 0
174 196 0
168 190 0
167 188 0
169 191 0
169 192 0
165 187 0
161 183 0
164 186 0
167 189 0
167 189 0
168 190 0
170 194 0
168 190 0
168 191 0
169 191 0
166 189 0
169 192 0
163 187 0
162 186 0
160 183 0
166 189 0
168 191 0
155 179 0
163 186 0
163 188 0
169 191 0
163 186 0
168 191 0
161 184 0
170 193 0
162 186 0
168 192 0
167 190 0
173 194 0
169 193 0
163 186 0
165 189 0
166 190 0
170 193 0
162 186 0
166 189 0
169 192 0
159 182 0
167 190 0
164 187 0
157 181 0
161 186 0
166 188 0
169 192 0
161 185 0
164 188 0
170 193 0
170 194 0
166 190 0
159 182 0
165 190 0
169 193 0
167 190 0
160 184 0
168 192 0
168 191 0
163 186 0
168 192 0
160 183 0
168 192 0
170 193 0
162 186 0
167 191 0
173 197 0
165 189 0
170 193 0
164 188 0
169 193 0
167 190 0
171 194 0
164 187 0
162 185 0
172 195 0
166 189 0
163 187 0
166 190 0
168 191 0
156 180 0
168 191 0
168 191 0
171 195 0
159 181 0
165 189 0
165 189 0
172 195 0
159 182 0
164 188 0
169 192 0
169 192 0
167 189 0
167 190 0
168 191 0
169 191 0
172 196 0
170 192 0
172 193 0
171 195 0
175 197 0
165 188 0
172 195 0
171 194 0
171 193 0
168 191 0
166 189 0
169 193 0
167 191 0
169 193 0
170 194 0
172 196 0
171 194 0
166 191 0
169 193 0
167 191 0
169 191 0
166 189 0
173 196 0
170 192 0
166 188 0
174 197 0
168 190 0
171 194 0
167 190 0
168 190 0
170 193 0
165 188 0
172 194 0
167 190 0
172 194 0
175 198 0
167 190 0
174 197 0
173 196 0
172 196 0
170 193 0
170 193 0
171 194 0
170 194 0
168 193 0
168 190 0
165 189 0
170 194 0
170 192 0
166 188 0
169 193 0
165 188 0
170 193 0
169 192 0
171 195 0
173 197 0
173 196 0
172 195 0
172 196 0
170 193 0
169 191 0
172 195 0
169 192 0
167 189 0
168 191 0
173 195 0
167 191 0
172 197 0
171 193 0
169 191 0
173 196 0
167 190 0
172 194 0
174 196 0
169 193 0
174 196 0
174 197 0
170 192 0
174 197 0
174 198 0
169 193 0
167 190 0
176 198 0
170 193 0
174 197 0
169 193 0
171 196 0
172 196 0
170 194 0
172 195 0
171 194 0
171 196 0
172 195 0
170 193 0
171 195 0
169 192 0
171 194 0
169 194 0
170 193 0
171 195 0
173 195 0
173 196 0
167 191 0
174 197 0
170 194 0
172 196 0
170 192 0
173 196 0
175 198 0
169 194 0
173 197 0
166 190 0
172 196 0
171 194 0
169 192 0
171 194 0
168 192 0
173 196 0
175 197 0
173 196 0
173 195 0
171 194 0
175 197 0
172 196 0
172 195 0
172 195 0
169 193 0
170 194 0
173 197 0
173 197 0
172 196 0
171 195 0
173 197 0
171 195 0
174 198 0
171 195 0
173 197 0
171 194 0
172 196 0
172 196 0
171 193 0
174 195 0
174 198 0
173 196 0
176 198 0
174 198 0
172 195 0
173 197 0
173 196 0
172 196 0
174 198 0
174 197 0
173 196 0
175 198 0
175 198 0
172 197 0
173 196 0
173 197 0
174 198 0
175 198 0
171 195 0
173 196 0
171 196 0
175 198 0
172 195 0
170 194 0
176 198 0
171 195 0
173 197 0
170 194 0
172 196 0
173 197 0
172 196 0
167 192 0
172 196 0
174 197 0
168 192 0
172 196 0
173 197 0
175 198 0
172 196 0
171 195 0
172 194 0
175 198 0
170 193 0
173 197 0
172 196 0
170 195 0
174 197 0
171 195 0
173 197 0
173 196 0
175 198 0
172 195 0
172 197 0
172 196 0
173 197 0
174 198 0
170 194 0
170 194 0
175 198 0
172 196 0
174 197 0
177 199 0
170 193 0
174 197 0
175 198 0
175 197 0
168 191 0
172 195 0
174 198 0
175 197 0
172 195 0
174 198 0
173 197 0
170 194 0
169 192 0
171 195 0
172 196 0
173 196 0
172 194 0
176 198 0
169 192 0
175 198 0
168 191 0
171 194 0
172 195 0
171 194 0
171 195 0
172 195 0
174 196 0
171 195 0
172 196 0
174 196 0
174 196 0
174 197 0
174 196 0
174 197 0
171 193 0
168 192 0
172 195 0
166 189 0
172 195 0
172 195 0
175 197 0
172 195 0
171 194 0
172 195 36
170 192 0
175 197 0
171 192 0
171 193 0
173 195 0
173 195 0
169 191 0
171 193 0
172 195 0
172 194 0
169 191 0
175 198 0
173 195 0
170 193 0
175 197 0
169 190 0
172 193 0
175 197 0
174 196 0
171 194 0
173 194 0
173 195 0
174 196 0
175 197 0
173 194 0
173 196 0
172 194 0
170 192 0
174 195 0
170 192 0
174 195 0
170 191 0
168 190 0
172 194 0
176 197 0
174 195 0
175 196 0
166 189 0
175 197 0
168 190 0
169 191 0
170 191 0
167 190 0
171 191 0
164 185 0
165 187 0
166 189 0
171 193 0
168 191 0
171 192 0
174 196 0
173 193 0
164 186 0
171 194 0
165 186 0
166 188 0
172 194 0
169 192 0
169 191 0
172 195 0
167 189 0
159 182 0
166 188 0
165 186 0
170 193 0
165 188 0
166 187 0
171 194 0
164 187 0
168 190 0
169 193 0
168 191 0
162 185 0
167 190 0
157 181 0
164 189 0
164 186 0
157 180 0
166 189 0
162 186 0
170 193 0
163 187 0
162 186 0
173 196 0
160 184 0
166 189 0
167 189 0
159 183 0
158 182 0
163 186 0
164 186 0
164 187 0
171 193 0
168 191 0
162 185 0
171 194 0
164 187 0
169 192 0
166 190 0
169 192 0
169 192 0
165 189 0
167 192 0
170 192 0
169 192 0
167 190 0
160 184 0
163 186 0
168 192 0
169 193 0
171 195 0
168 192 0
165 188 0
166 190 0
167 190 0
170 193 0
166 189 0
158 181 0
166 188 0
168 188 0
163 186 0
161 186 0
161 182 0
172 196 0
164 188 0
171 192 0
165 189 0
169 192 0
166 190 0
162 184 0
164 187 0
170 192 0
161 186 0
170 194 0
168 192 0
170 192 0
167 191 0
170 194 0
167 190 0
164 189 0
170 193 0
166 189 0
168 192 0
170 194 0
165 188 0
167 191 0
171 194 0
170 193 0
168 192 0
169 192 0
171 194 0
166 189 0
166 189 0
158 180 0
166 188 0
172 195 0
170 194 0
170 193 0
169 191 0
168 192 0
163 187 0
164 189 0
165 188 0
175 197 0
170 191 0
174 196 0
167 189 0
171 193 0
172 196 0
169 193 0
166 190 0
170 193 0
167 191 0
164 187 0
163 186 0
169 191 0
169 192 0
170 193 0
172 196 0
176 199 0
171 194 0
169 192 0
168 191 0
173 195 0
169 192 0
168 191 0
172 196 0
174 197 0
170 193 0
168 191 0
170 194 0
169 192 0
171 195 0
170 194 0
166 189 0
170 193 0
169 192 0
170 194 0
174 197 0
173 197 0
172 195 0
173 196 0
160 185 0
174 196 0
170 193 0
173 195 0
174 195 0
170 193 0
170 193 0
171 195 0
174 195 0
168 191 0
172 195 0
170 194 0
167 190 0
176 199 0
171 195 0
171 195 0
168 191 0
172 196 0
172 195 0
170 192 0
171 194 0
169 192 0
169 192 0
170 193 0
170 193 0
169 192 0
170 194 0
175 197 0
171 195 0
168 189 0
170 194 0
174 198 0
174 198 0
170 194 0
175 197 0
173 196 0
173 196 0
172 196 0
172 195 0
168 190 0
172 196 0
174 196 0
172 196 0
172 196 0
170 194 0
173 195 0
173 195 0
173 196 0
168 191 0
172 195 0
175 197 0
169 191 0
170 193 0
172 196 0
174 197 0
170 194 0
173 197 0
167 190 0
173 196 0
173 196 0
174 198 0
174 197 0
174 198 0
175 197 0
174 198 0
174 198 0
170 193 0
171 194 0
174 196 0
171 194 0
170 194 0
175 197 0
173 197 0
173 197 0
174 198 0
174 197 0
171 194 0
171 194 0
174 197 0
174 196 0
169 193 0
176 199 0
170 192 0
173 196 0
171 195 0
173 196 0
171 195 0
175 197 0
174 197 0
173 197 0
172 195 0
175 198 0
172 195 0
176 199 0
176 198 0
172 195 0
172 195 0
170 194 0
173 197 0
174 197 0
171 195 0
173 196 0
173 195 0
176 199 0
173 197 0
173 196 0
174 198 0
171 195 0
171 194 0
174 198 0
173 197 0
171 195 0
174 198 0
174 197 0
174 198 0
173 196 0
172 196 0
172 195 0
173 197 0
172 196 0
174 197 0
173 197 0
173 196 0
174 197 0
174 198 0
175 198 0
169 193 0
173 197 0
175 198 0
172 196 0
175 198 0
175 198 0
170 194 0
176 198 0
174 197 0
173 197 0
171 196 0
173 196 0
174 197 0
175 198 0
171 195 0
173 197 0
171 194 0
171 195 0
171 196 0
175 198 0
175 198 0
173 196 0
167 191 0
171 195 0
175 198 0
170 194 0
173 197 0
169 193 0
173 196 0
172 196 0
174 198 0
175 198 0
173 197 0
175 198 0
173 196 0
174 197 0
167 191 0
170 192 0
169 191 0
175 198 0
172 195 0
172 195 0
173 196 0
174 197 0
172 195 0
171 194 0
173 195 0
172 196 0
170 193 0
171 195 0
173 196 0
174 197 0
177 199 0
173 196 0
172 196 0
172 195 0
170 194 0
170 193 0
174 196 0
175 198 0
172 195 0
169 191 0
173 195 0
171 194 0
174 196 0
168 191 0
176 198 0
174 195 0
176 198 0
175 198 0
174 197 0
171 194 0
176 198 0
173 194 0
169 191 0
175 198 0
169 191 0
174 196 0
173 196 0
173 195 0
172 194 0
172 194 0
170 193 0
174 196 0
174 196 0
175 197 0
168 190 0
170 192 0
173 196 0
174 195 0
176 197 0
177 198 0
174 197 0
174 196 0
174 196 0
175 197 0
173 195 0
173 195 0
172 195 0
170 193 0
170 192 0
171 194 0
169 192 0
177 198 0
174 196 0
176 197 0
169 189 0
172 193 0
174 195 0
169 191 0
170 192 36
171 192 0
171 192 0
175 197 0
174 195 0
166 188 0
179 199 0
167 188 0
172 193 0
175 195 0
173 196 0
170 191 0
160 182 0
174 195 0
171 192 0
166 188 0
169 192 0
172 194 0
165 188 0
169 190 0
172 194 0
168 191 0
170 192 0
167 188 0
165 187 0
157 179 0
172 195 0
160 182 0
170 192 0
166 187 0
162 184 0
155 178 0
163 185 0
173 195 0
166 189 0
168 191 0
169 192 0
163 186 0
169 191 0
165 188 0
171 194 0
163 187 0
167 191 0
164 188 0
158 181 0
166 189 0
166 190 0
161 185 0
161 183 0
162 186 0
165 189 0
172 196 0
167 191 0
164 187 0
171 195 0
172 196 0
162 186 0
164 187 0
168 191 0
171 194 0
171 195 0
170 192 0
169 192 0
167 191 0
160 185 0
169 193 0
162 185 0
169 192 0
160 183 0
167 190 0
165 189 0
163 187 0
174 196 0
171 194 0
167 190 0
166 191 0
159 182 0
165 188 0
167 191 0
167 191 0
161 185 0
168 192 0
168 192 0
163 187 0
166 190 0
160 184 0
171 195 0
168 192 0
167 190 0
168 192 0
164 188 0
168 191 0
170 194 0
161 184 0
163 187 0
165 188 0
170 193 0
168 191 0
169 193 0
165 187 0
166 189 0
169 191 0
170 193 0
165 188 0
162 185 0
167 190 0
161 185 0
167 191 0
169 192 0
168 190 0
165 188 0
163 187 0
166 190 0
165 188 0
173 196 0
168 192 0
171 195 0
162 186 0
168 191 0
162 185 0
168 193 0
170 193 0
172 195 0
164 188 0
174 196 0
171 194 0
168 190 0
171 194 0
171 194 0
167 189 0
167 191 0
170 193 0
163 187 0
172 195 0
164 186 0
168 191 0
168 192 0
158 181 0
174 196 0
172 196 0
172 194 0
172 195 0
171 194 0
171 195 0
172 194 0
165 187 0
169 192 0
173 197 0
170 194 0
168 192 0
168 192 0
170 194 0
171 194 0
169 191 0
170 191 0
173 197 0
170 192 0
167 190 0
174 197 0
168 190 0
169 193 0
172 195 0
172 195 0
173 196 0
170 193 0
170 194 0
167 192 0
171 196 0
168 191 0
172 196 0
166 190 0
173 197 0
169 192 0
164 185 0
171 195 0
173 196 0
175 198 0
168 192 0
174 197 0
175 197 0
172 195 0
168 192 0
172 194 0
165 189 0
171 194 0
171 194 0
173 196 0
170 194 0
166 190 0
169 194 0
175 198 0
169 193 0
172 195 0
175 198 0
167 190 0
173 197 0
174 198 0
172 194 0
172 195 0
173 197 0
170 194 0
172 193 0
175 198 0
173 197 0
172 196 0
171 196 0
169 192 0
174 197 0
173 196 0
174 196 0
174 196 0
173 197 0
174 198 0
176 198 0
171 193 0
174 197 0
172 195 0
168 192 0
172 195 0
174 197 0
170 193 0
173 197 0
173 196 0
172 196 0
171 195 0
173 197 0
173 196 0
172 196 0
170 193 0
174 198 0
171 194 0
171 194 0
172 196 0
173 197 0
173 197 0
171 194 0
170 194 0
171 194 0
176 199 0
170 193 0
173 194 0
169 192 0
175 198 0
172 196 0
172 195 0
174 197 0
178 200 0
171 195 0
175 198 0
173 197 0
175 197 0
173 196 0
176 198 0
171 195 0
175 198 0
173 196 0
172 195 0
172 196 0
173 196 0
173 197 0
172 196 0
173 195 0
173 196 0
175 198 0
173 196 0
173 197 0
172 196 0
169 194 0
172 196 0
173 197 0
175 197 0
171 196 0
172 196 0
176 198 0
173 197 0
171 195 0
173 197 0
172 196 0
173 196 0
171 194 0
174 198 0
174 197 0
176 198 0
171 196 0
176 199 0
175 198 0
171 196 0
171 195 0
172 195 0
174 197 0
172 196 0
168 193 0
173 196 0
173 197 0
173 197 0
169 192 0
172 195 0
172 196 0
172 196 0
174 198 0
167 191 0
173 196 0
169 192 0
171 195 0
173 196 0
172 195 0
170 193 0
176 198 0
173 196 0
174 196 0
173 197 0
172 195 0
175 198 0
174 197 0
171 194 0
173 196 0
175 198 0
176 199 0
173 197 0
173 196 0
173 197 0
172 195 0
174 197 0
175 198 0
175 198 0
175 198 0
173 197 0
171 195 0
175 198 0
174 197 0
173 196 0
172 196 0
173 197 0
172 196 0
172 196 0
172 196 0
173 197 0
172 195 0
171 194 0
173 196 0
173 196 0
176 198 0
172 195 0
175 197 0
170 194 0
173 196 0
175 197 0
174 197 0
169 192 0
172 195 0
172 195 0
175 197 0
175 197 0
175 198 0
169 192 0
176 197 0
172 195 0
171 194 0
173 196 0
176 197 0
172 195 0
174 195 0
175 197 0
171 194 0
169 192 0
169 191 0
173 195 0
178 198 0
172 193 0
174 197 0
172 195 36
173 194 0
170 192 0
168 190 0
174 196 0
174 196 0
178 198 0
177 199 0
173 194 0
173 195 0
175 197 36
172 194 0
173 195 0
173 195 0
169 191 0
173 194 0
173 195 0
168 190 0
176 198 0
171 193 36
171 192 0
172 193 0
167 188 0
174 195 36
168 190 0
169 190 0
174 197 0
172 194 0
171 193 0
177 198 0
169 190 0
168 191 0
176 196 0
176 197 0
179 199 0
169 190 0
174 195 0
166 187 0
175 196 0
167 190 0
172 194 0
174 195 0
170 191 0
169 192 0
171 193 0
169 192 0
170 191 0
167 188 0
166 189 0
161 182 0
169 191 0
166 188 0
162 185 0
156 179 0
168 191 0
167 190 0
168 190 0
169 192 0
170 192 0
161 184 0
164 187 0
168 190 0
167 189 0
167 189 0
170 193 0
158 180 0
169 191 0
167 190 0
165 188 0
165 188 0
168 190 0
164 187 0
166 189 0
170 193 0
156 179 0
166 188 0
171 193 0
161 184 0
158 182 0
167 189 0
167 189 0
167 191 0
163 185 0
171 194 0
166 189 0
167 190 0
165 187 0
169 193 0
164 187 0
168 191 0
166 189 0
169 191 0
167 190 0
171 193 0
166 189 0
164 187 0
162 187 0
169 191 0
165 188 0
173 197 0
168 191 0
161 184 0
165 189 0
169 193 0
170 192 0
153 175 0
171 194 0
165 188 0
165 189 0
163 186 0
168 192 0
166 190 0
170 193 0
166 189 0
170 193 0
171 195 0
168 191 0
163 186 0
165 187 0
154 178 0
171 195 0
171 195 0
167 189 0
161 184 0
164 189 0
168 190 0
164 187 0
169 193 0
168 192 0
171 195 0
169 193 0
164 187 0
170 193 0
168 191 0
163 185 0
174 197 0
167 190 0
170 192 0
170 194 0
167 191 0
172 195 0
172 197 0
174 198 0
167 191 0
169 193 0
171 194 0
167 191 0
162 186 0
169 193 0
167 191 0
173 196 0
166 189 0
168 192 0
172 196 0
164 186 0
169 193 0
169 192 0
169 192 0
171 195 0
168 191 0
161 184 0
169 193 0
171 194 0
172 194 0
168 191 0
161 184 0
166 191 0
168 191 0
170 194 0
167 190 0
168 191 0
169 192 0
165 186 0
169 194 0
165 187 0
168 190 0
169 193 0
168 192 0
169 194 0
170 195 0
168 192 0
163 186 0
172 195 0
169 193 0
172 195 0
167 190 0
172 195 0
168 190 0
164 187 0
172 195 0
172 195 0
170 193 0
172 196 0
174 196 0
166 189 0
168 190 0
174 197 0
172 196 0
171 194 0
172 195 0
172 194 0
172 195 0
169 193 0
166 189 0
171 195 0
172 195 0
171 194 0
167 191 0
173 197 0
170 194 0
171 193 0
171 194 0
172 195 0
175 198 0
166 190 0
168 192 0
171 194 0
173 197 0
174 196 0
172 197 0
172 196 0
171 193 0
173 195 0
167 192 0
174 197 0
172 196 0
173 196 0
173 196 0
172 194 0
173 195 0
170 193 0
172 196 0
171 193 0
169 192 0
173 196 0
174 198 0
170 194 0
171 193 0
172 195 0
171 194 0
172 195 0
170 194 0
177 199 0
171 195 0
171 195 0
176 199 0
173 195 0
169 193 0
175 198 0
174 197 0
172 193 0
175 198 0
174 197 0
174 197 0
171 195 0
171 194 0
174 198 0
174 197 0
171 195 0
174 197 0
173 197 0
174 197 0
173 197 0
175 197 0
172 194 0
174 198 0
176 199 0
171 195 0
172 196 0
175 197 0
174 197 0
172 195 0
173 197 0
172 196 0
171 194 0
171 195 0
175 198 0
171 195 0
172 195 0
171 195 0
173 196 0
170 193 0
167 193 0
173 195 0
173 197 0
173 197 0
172 193 0
175 198 0
174 197 0
172 196 0
172 195 0
174 198 0
173 196 0
176 198 0
175 198 0
172 196 0
175 198 0
171 195 0
171 196 0
170 196 0
170 195 0
171 195 0
172 196 0
176 199 0
170 193 0
173 197 0
173 197 0
173 196 0
172 196 0
174 198 0
175 198 0
173 197 0
171 195 0
176 198 0
173 197 0
170 194 0
171 195 0
170 195 0
173 196 0
172 195 0
174 198 0
170 193 0
173 196 0
177 199 0
175 198 0
173 197 0
174 198 0
172 197 0
174 198 0
168 192 0
172 197 0
173 196 0
173 196 0
171 196 0
171 194 0
174 197 0
171 195 0
169 194 0
174 198 0
176 198 0
171 196 0
175 197 0
174 197 0
171 195 0
175 198 0
173 196 0
173 196 0
172 196 0
171 196 0
176 199 0
174 196 0
171 195 0
173 196 0
177 199 0
172 196 0
170 194 0
174 197 0
174 198 0
172 196 0
174 197 0
167 190 0
170 193 0
172 195 0
171 194 0
173 196 0
171 194 0
175 197 0
173 197 0
170 192 0
174 197 0
171 194 0
171 194 0
171 195 0
172 195 0
173 196 0
173 196 0
172 195 0
171 193 0
171 194 0
170 192 0
171 193 0
173 197 0
174 196 0
174 197 0
175 197 0
172 194 0
169 192 0
165 188 0
175 197 0
170 192 0
174 196 0
172 194 0
175 196 0
174 196 0
174 195 0
175 195 0
175 196 0
173 195 0
177 198 0
170 192 0
176 197 0
173 195 0
175 197 0
178 199 0
175 196 0
176 197 0
169 192 0
169 190 0
174 195 0
174 195 0
173 194 36
173 194 0
170 191 0
171 193 0
168 189 0
170 191 0
174 196 0
170 192 0
173 194 0
171 194 0
174 194 0
172 193 0
174 196 0
171 194 0
174 195 0
175 196 0
173 195 0
175 197 0
172 193 0
170 191 0
171 192 0
169 191 0
170 191 0
167 189 0
170 191 0
170 192 0
169 192 0
176 197 0
167 189 0
174 197 0
175 196 0
168 190 0
173 195 0
170 192 0
167 189 0
170 193 0
160 183 0
176 198 0
169 192 0
174 196 0
161 182 0
173 195 0
173 196 0
163 185 0
168 191 0
166 188 0
173 195 0
166 189 0
167 191 0
167 189 0
174 196 0
168 191 0
170 192 0
165 188 0
168 191 0
166 188 0
161 185 0
168 191 0
158 181 0
168 191 0
167 190 0
165 188 0
166 190 0
168 192 0
159 183 0
164 187 0
165 189 0
169 191 0
164 188 0
171 193 0
167 189 0
167 189 0
170 193 0
164 187 0
165 187 0
171 194 0
166 189 0
169 193 0
168 191 0
166 189 0
164 186 0
165 188 0
173 195 0
168 192 0
166 188 0
167 191 0
169 191 0
169 192 0
172 195 0
170 194 0
155 179 0
165 189 0
167 190 0
165 187 0
164 188 0
172 196 0
165 189 0
170 192 0
165 188 0
162 186 0
168 191 0
167 190 0
168 192 0
164 187 0
171 195 0
165 188 0
165 189 0
162 185 0
164 187 0
162 185 0
170 194 0
171 194 0
167 191 0
171 195 0
170 193 0
168 191 0
165 189 0
162 185 0
166 191 0
165 188 0
166 189 0
167 191 0
174 197 0
168 192 0
167 190 0
168 191 0
166 190 0
161 184 0
170 194 0
170 193 0
163 186 0
166 190 0
166 189 0
168 192 0
167 190 0
172 195 0
164 187 0
162 186 0
171 195 0
161 184 0
174 197 0
170 194 0
167 191 0
169 192 0
170 193 0
169 193 0
169 192 0
174 197 0
170 193 0
167 191 0
167 190 0
168 189 0
164 187 0
170 192 0
170 195 0
168 192 0
166 188 0
169 192 0
167 191 0
171 193 0
169 191 0
170 193 0
171 195 0
170 193 0
171 195 0
175 197 0
172 195 0
171 193 0
173 196 0
174 197 0
167 190 0
174 196 0
174 198 0
166 190 0
173 195 0
169 192 0
172 196 0
170 193 0
174 198 0
170 193 0
164 187 0
170 194 0
173 195 0
173 196 0
171 194 0
173 196 0
171 195 0
173 196 0
173 196 0
172 197 0
175 197 0
170 194 0
171 194 0
172 196 0
171 194 0
167 191 0
173 196 0
171 194 0
170 193 0
173 197 0
173 197 0
168 192 0
172 195 0
172 195 0
173 196 0
168 192 0
169 191 0
174 198 0
173 196 0
172 194 0
175 198 0
171 195 0
172 195 0
170 193 0
172 195 0
172 194 0
172 196 0
170 193 0
174 197 0
174 197 0
174 197 0
175 198 0
166 191 0
171 195 0
173 195 0
172 196 0
170 194 0
167 191 0
174 197 0
175 197 0
169 192 0
172 196 0
171 194 0
173 195 0
171 194 0
171 193 0
173 197 0
174 196 0
171 194 0
172 195 0
172 195 0
173 195 0
168 192 0
173 196 0
169 192 0
170 194 0
174 197 0
174 196 0
170 194 0
169 193 0
171 195 0
176 199 0
173 197 0
173 197 0
172 196 0
174 197 0
173 196 0
174 198 0
173 196 0
172 196 0
172 194 0
173 197 0
172 197 0
169 194 0
172 196 0
173 197 0
173 196 0
170 193 0
176 198 0
174 197 0
173 197 0
170 193 0
173 195 0
174 196 0
172 196 0
171 196 0
170 193 0
168 192 0
173 194 0
172 196 0
172 195 0
174 198 0
173 196 0
169 193 0
174 198 0
174 198 0
174 198 0
171 194 0
175 198 0
171 194 0
171 195 0
174 197 0
173 196 0
171 195 0
174 197 0
172 196 0
168 192 0
174 197 0
174 198 0
174 197 0
174 198 0
176 199 0
172 197 0
171 195 0
175 198 0
169 193 0
172 196 0
170 193 0
172 196 0
172 195 0
174 197 0
171 194 0
175 198 0
177 199 0
174 197 0
171 195 0
173 197 0
173 197 0
173 197 0
175 198 0
171 195 0
174 198 0
172 195 0
176 198 0
174 197 0
172 196 0
175 198 0
172 195 0
171 194 0
174 198 0
173 196 0
174 197 0
172 196 0
172 197 0
171 195 0
176 198 0
171 195 0
170 194 0
172 196 0
174 198 0
171 195 0
173 196 0
174 197 0
170 195 0
170 195 0
174 197 0
174 198 0
170 195 0
170 193 0
174 197 0
172 196 0
171 194 0
170 195 0
170 193 0
174 196 0
175 198 0
174 198 0
174 197 0
174 196 0
174 197 0
175 198 0
173 196 0
173 195 0
170 193 0
173 196 0
173 196 0
172 196 0
174 196 0
174 197 0
170 193 0
171 194 0
171 195 0
173 196 0
168 191 0
174 196 0
176 198 0
175 197 0
176 198 0
172 194 0
172 193 0
174 197 0
176 197 0
171 194 0
176 198 0
175 197 0
170 192 0
174 195 0
175 197 0
175 197 0
175 197 0
174 195 0
170 191 0
173 196 0
171 192 0
169 190 0
172 194 0
174 195 0
176 197 0
172 194 0
173 194 0
173 194 0
176 199 0
175 196 0
178 198 0
170 193 0
166 188 0
174 196 0
178 199 0
172 194 0
175 197 0
176 198 0
176 198 0
169 191 0
170 191 0
173 194 0
174 195 0
174 196 0
172 193 0
170 191 0
171 193 0
168 188 0
176 197 0
173 195 0
177 198 0
173 195 0
173 194 0
167 189 0
171 194 0
171 193 0
169 190 0
175 195 0
171 193 0
168 190 0
172 194 0
167 189 0
169 192 0
170 192 0
170 192 0
167 191 0
164 185 0
166 188 0
161 185 0
171 192 0
170 191 0
173 195 0
170 193 0
164 186 0
170 192 0
167 190 0
167 189 0
171 194 0
171 193 0
164 189 0
169 192 0
168 190 0
170 192 0
171 194 0
163 186 0
166 190 0
172 195 0
168 190 0
168 191 0
170 193 0
169 191 0
162 186 0
167 191 0
166 188 0
171 194 0
170 192 0
172 194 0
166 188 0
173 196 0
168 191 0
171 194 0
166 189 0
169 191 0
170 192 0
163 186 0
163 188 0
165 188 0
165 188 0
164 187 0
171 194 0
160 184 0
163 187 0
164 187 0
169 191 0
170 192 0
170 193 0
168 193 0
168 189 0
165 188 0
171 193 0
167 190 0
170 193 0
166 189 0
169 192 0
171 193 0
174 197 0
171 194 0
172 195 0
168 192 0
167 190 0
167 191 0
164 187 0
171 194 0
168 191 0
167 190 0
169 192 0
165 189 0
164 188 0
162 186 0
166 190 0
167 189 0
167 190 0
173 197 0
166 189 0
166 189 0
167 190 0
170 194 0
164 187 0
168 192 0
171 193 0
172 196 0
169 192 0
167 190 0
170 193 0
168 192 0
170 192 0
172 194 0
170 193 0
169 192 0
166 190 0
173 196 0
168 191 0
171 193 0
172 195 0
170 194 0
167 191 0
168 190 0
170 195 0
168 191 0
167 190 0
175 198 0
170 194 0
171 193 0
169 192 0
171 195 0
169 192 0
164 188 0
170 193 0
166 190 0
169 192 0
170 193 0
168 191 0
166 191 0
169 191 0
170 194 0
175 197 0
172 196 0
174 198 0
172 195 0
171 194 0
168 191 0
167 190 0
174 197 0
169 191 0
167 190 0
174 196 0
174 196 0
171 195 0
165 189 0
171 194 0
169 190 0
168 192 0
172 195 0
171 194 0
167 192 0
174 198 0
171 193 0
170 194 0
170 193 0
168 192 0
170 194 0
168 190 0
165 189 0
172 195 0
171 195 0
167 190 0
162 184 0
172 195 0
169 194 0
172 196 0
173 197 0
168 192 0
174 197 0
170 192 0
174 198 0
172 195 0
174 198 0
166 188 0
173 197 0
170 192 0
172 196 0
167 190 0
174 197 0
171 195 0
169 191 0
172 196 0
167 189 0
171 195 0
171 194 0
171 195 0
169 192 0
171 195 0
172 195 0
171 195 0
172 195 0
171 194 0
169 193 0
166 191 0
173 196 0
169 194 0
174 197 0
172 197 0
171 194 0
166 188 0
173 195 0
173 195 0
175 198 0
169 192 0
173 196 0
173 196 0
172 196 0
173 196 0
171 194 0
171 195 0
169 193 0
171 195 0
173 196 0
171 195 0
171 194 0
171 195 0
168 192 0
173 197 0
172 194 0
171 194 0
171 195 0
175 198 0
176 199 0
172 195 0
172 195 0
175 198 0
173 196 0
172 195 0
172 197 0
170 194 0
173 197 0
169 193 0
173 196 0
171 194 0
171 193 0
168 194 0
172 194 0
172 196 0
174 197 0
174 197 0
174 197 0
173 196 0
174 198 0
171 193 0
173 196 0
171 193 0
171 194 0
173 196 0
175 198 0
170 195 0
173 197 0
175 198 0
172 196 0
175 198 0
171 195 0
175 198 0
173 196 0
174 198 0
172 196 0
171 195 0
172 195 0
175 198 0
170 194 0
172 196 0
172 196 0
170 194 0
169 193 0
171 196 0
174 198 0
172 195 0
173 197 0
171 195 0
173 196 0
170 193 0
174 198 0
169 194 0
173 197 0
176 198 0
175 198 0
172 197 0
173 197 0
169 193 0
175 198 0
175 198 0
171 195 0
176 199 0
176 199 0
172 196 0
171 195 0
171 193 0
168 192 0
174 198 0
171 195 0
174 198 0
175 198 0
172 196 0
175 198 0
171 194 0
175 198 0
175 198 0
173 196 0
175 198 0
175 198 0
172 196 0
170 193 0
175 197 0
171 194 0
174 197 0
174 197 0
172 196 0
173 196 0
173 196 0
171 195 0
173 196 0
172 196 0
175 198 0
173 196 0
174 198 0
173 196 0
172 194 0
173 197 0
175 198 0
176 198 0
174 197 0
178 200 0
171 195 0
170 195 0
173 196 0
173 196 0
174 197 0
175 198 0
174 198 0
177 199 0
174 198 0
174 197 0
175 198 0
174 196 0
171 193 0
171 194 0
169 192 0
173 196 0
173 196 0
172 195 0
173 196 0
171 194 0
172 194 0
173 196 0
172 194 0
173 195 0
174 196 0
172 194 0
172 195 0
175 198 0
173 195 0
170 194 0
173 195 0
174 197 0
173 195 0
169 191 0
178 200 0
175 197 0
177 199 0
170 193 0
174 196 0
174 197 0
174 196 0
176 198 0
172 195 0
169 192 0
178 199 0
172 193 0
172 194 0
177 198 0
177 198 0
173 195 0
178 199 0
174 195 0
169 191 0
170 191 0
170 193 0
178 198 0
173 195 0
169 191 0
176 196 0
174 194 0
173 195 0
177 198 0
172 192 0
172 194 0
169 192 0
168 188 0
171 191 0
173 195 0
176 197 0
169 192 0
174 196 0
170 191 0
172 194 0
165 189 0
170 192 0
174 195 0
170 193 0
171 193 0
172 192 0
172 193 0
171 193 0
173 193 0
169 190 0
171 192 0
168 191 0
172 193 0
160 184 0
174 197 0
171 194 0
168 190 0
169 191 0
168 191 0
171 194 0
169 192 0
169 191 0
162 186 0
166 189 0
165 188 0
173 194 0
161 185 0
161 185 0
172 195 0
168 191 0
166 189 0
170 193 0
169 191 0
158 180 0
170 193 0
170 194 0
166 189 0
168 191 0
161 185 0
165 190 0
167 191 0
167 190 0
166 190 0
169 191 0
171 194 0
158 181 0
168 191 0
162 186 0
169 193 0
166 190 0
168 192 0
161 185 0
164 188 0
170 193 0
167 189 0
164 188 0
157 180 0
167 191 0
171 194 0
161 184 0
167 190 0
164 187 0
164 186 0
167 190 0
171 194 0
167 190 0
168 191 0
164 186 0
171 195 0
173 196 0
164 187 0
169 193 0
171 195 0
164 188 0
165 190 0
169 192 0
170 191 0
164 189 0
169 191 0
169 194 0
169 192 0
167 191 0
161 186 0
167 189 0
167 189 0
163 187 0
160 183 0
161 185 0
172 196 0
167 191 0
171 194 0
167 190 0
168 192 0
166 190 0
164 187 0
164 188 0
162 184 0
168 191 0
174 197 0
168 191 0
167 191 0
172 195 0
168 191 0
161 184 0
170 193 0
172 195 0
164 188 0
167 190 0
172 195 0
160 184 0
165 188 0
167 190 0
170 194 0
170 193 0
162 185 0
168 192 0
165 189 0
171 193 0
170 193 0
171 191 0
170 193 0
165 189 0
172 196 0
160 184 0
170 194 0
173 195 0
169 192 0
174 198 0
170 192 0
166 190 0
170 194 0
170 193 0
170 194 0
173 196 0
169 193 0
173 196 0
174 195 0
170 194 0
170 193 0
172 196 0
176 198 0
172 195 0
168 191 0
172 196 0
173 196 0
171 195 0
171 194 0
165 188 0
173 196 0
168 191 0
174 197 0
170 193 0
174 197 0
170 195 0
173 195 0
174 197 0
170 191 0
174 198 0
169 193 0
171 194 0
170 194 0
171 194 0
173 197 0
164 187 0
171 194 0
174 198 0
166 189 0
167 189 0
174 197 0
171 194 0
172 197 0
169 192 0
170 192 0
169 192 0
168 193 0
173 196 0
172 196 0
170 193 0
175 198 0
173 196 0
172 193 0
172 195 0
171 195 0
171 193 0
172 194 0
173 196 0
168 190 0
171 194 0
170 194 0
174 197 0
173 197 0
172 193 0
171 193 0
175 197 0
173 197 0
172 196 0
174 198 0
172 197 0
172 195 0
172 195 0
175 198 0
168 191 0
173 197 0
172 196 0
173 194 0
175 198 0
170 194 0
176 199 0
172 196 0
173 197 0
174 197 0
174 197 0
172 195 0
173 195 0
170 194 0
172 195 0
175 198 0
170 194 0
174 197 0
173 197 0
175 197 0
171 195 0
173 197 0
174 197 0
172 197 0
173 196 0
176 199 0
172 195 0
173 197 0
172 195 0
175 197 0
174 198 0
174 198 0
172 195 0
172 195 0
172 195 0
169 192 0
174 196 0
171 196 0
172 197 0
172 196 0
173 197 0
171 195 0
174 197 0
172 196 0
173 195 0
176 199 0
170 194 0
174 198 0
171 194 0
175 198 0
174 197 0
172 196 0
172 197 0
172 194 0
174 197 0
174 197 0
175 198 0
170 194 0
172 197 0
175 197 0
172 196 0
170 195 0
172 196 0
171 195 0
175 198 0
173 197 0
175 198 0
175 198 0
175 197 0
173 196 0
173 197 0
172 196 0
172 197 0
174 198 0
172 195 0
172 197 0
175 198 0
172 196 0
176 198 0
171 194 0
171 194 0
170 194 0
169 192 0
173 197 0
169 193 0
175 198 0
173 197 0
171 195 0
176 198 0
172 196 0
168 193 0
172 197 0
169 194 0
172 196 0
173 197 0
175 198 0
174 198 0
174 197 0
176 199 0
174 197 0
172 196 0
169 191 0
171 195 0
168 191 0
171 195 0
174 197 0
173 196 0
175 198 0
171 194 0
172 195 0
174 198 0
172 195 0
172 196 0
170 194 0
175 197 0
172 195 0
169 193 0
170 194 0
173 196 0
174 197 0
175 198 0
172 196 0
176 198 0
163 187 0
173 196 0
173 196 0
173 196 0
171 195 0
175 198 0
171 194 0
175 197 0
174 197 0
173 196 0
174 197 0
171 194 0
171 195 0
175 197 0
172 196 0
175 198 0
173 196 0
172 195 0
174 197 0
170 193 0
172 195 0
174 197 0
173 196 0
174 197 0
173 196 0
171 194 0
171 192 0
176 198 0
176 198 0
173 195 0
175 197 0
174 196 0
172 195 0
172 193 0
174 196 0
169 191 0
176 198 0
169 190 0
174 196 0
174 196 0
172 193 0
174 197 0
172 194 0
172 194 0
172 194 0
175 197 0
171 194 0
169 191 0
169 192 0
173 195 0
172 194 0
175 196 0
171 193 0
172 194 0
169 192 0
174 196 0
175 196 0
172 194 0
168 189 0
165 188 0
170 192 0
176 198 0
172 192 0
177 198 0
172 193 0
169 192 0
169 190 0
174 195 0
171 191 0
170 193 0
167 189 0
175 197 0
170 192 0
175 197 0
170 193 0
169 190 0
167 188 0
169 191 0
174 196 0
174 195 0
167 191 0
176 198 0
171 193 0
171 193 0
170 193 0
165 188 0
167 190 0
167 189 0
170 192 0
167 189 0
170 192 0
173 196 0
170 192 0
166 189 0
174 197 0
160 182 0
163 186 0
164 187 0
169 191 0
163 186 0
165 188 0
164 187 0
163 186 0
165 189 0
169 192 0
166 189 0
161 183 0
171 194 0
169 192 0
162 185 0
170 192 0
170 193 0
169 191 0
164 187 0
168 191 0
167 190 0
167 189 0
160 184 0
165 188 0
169 193 0
160 182 0
167 190 0
169 193 0
166 189 0
170 192 0
168 191 0
168 192 0
170 193 0
169 192 0
168 192 0
172 196 0
167 189 0
166 190 0
168 193 0
168 192 0
165 188 0
165 189 0
169 193 0
163 186 0
164 188 0
169 192 0
163 186 0
168 190 0
170 193 0
167 190 0
167 190 0
173 197 0
168 193 0
167 190 0
169 192 0
165 189 0
169 192 0
166 190 0
165 190 0
168 191 0
168 191 0
166 189 0
165 188 0
164 187 0
173 196 0
166 189 0
164 188 0
171 194 0
167 191 0
169 193 0
168 191 0
160 184 0
170 194 0
168 191 0
164 186 0
170 193 0
171 194 0
162 186 0
170 193 0
166 189 0
168 192 0
161 184 0
168 191 0
166 190 0
168 191 0
169 193 0
165 188 0
172 194 0
166 191 0
171 195 0
163 185 0
166 190 0
172 196 0
172 195 0
167 191 0
168 190 0
162 185 0
168 191 0
169 191 0
161 185 0
163 186 0
170 193 0
169 192 0
170 194 0
165 189 0
168 192 0
166 188 0
171 195 0
166 189 0
171 194 0
170 193 0
174 196 0
172 196 0
169 192 0
168 191 0
173 195 0
173 197 0
165 188 0
167 190 0
173 196 0
168 193 0
170 194 0
170 193 0
172 193 0
170 193 0
174 198 0
169 192 0
172 194 0
169 193 0
173 197 0
174 196 0
168 192 0
169 193 0
168 191 0
167 189 0
170 194 0
170 192 0
171 194 0
162 184 0
169 192 0
171 193 0
172 195 0
163 186 0
170 195 0
172 196 0
173 195 0
172 194 0
174 196 0
174 197 0
170 195 0
169 191 0
172 195 0
169 191 0
172 196 0
168 191 0
168 192 0
170 195 0
169 193 0
174 197 0
174 195 0
169 193 0
172 196 0
170 194 0
173 195 0
170 194 0
171 194 0
167 191 0
173 196 0
172 196 0
170 194 0
174 197 0
168 192 0
173 196 0
170 194 0
172 196 0
174 197 0
170 192 0
172 195 0
172 195 0
173 196 0
174 197 0
176 199 0
174 198 0
173 196 0
169 194 0
171 193 0
174 197 0
173 195 0
171 195 0
171 194 0
174 197 0
171 195 0
173 197 0
172 197 0
171 194 0
173 196 0
168 191 0
171 195 0
172 195 0
172 196 0
173 196 0
174 197 0
169 192 0
175 198 0
172 196 0
173 196 0
172 196 0
173 197 0
168 192 0
174 196 0
172 195 0
171 194 0
174 197 0
175 198 0
171 194 0
173 197 0
175 198 0
173 196 0
174 197 0
171 193 0
172 195 0
172 195 0
172 196 0
173 197 0
174 196 0
169 193 0
174 196 0
174 197 0
171 194 0
170 192 0
175 198 0
171 194 0
174 197 0
174 198 0
173 197 0
172 195 0
175 197 0
171 193 0
175 198 0
176 199 0
170 194 0
173 197 0
176 198 0
172 195 0
170 193 0
175 198 0
176 199 0
173 196 0
174 197 0
173 197 0
170 195 0
173 197 0
173 196 0
173 197 0
173 197 0
173 197 0
170 193 0
171 194 0
172 196 0
174 198 0
172 196 0
175 198 0
169 193 0
173 196 0
170 194 0
172 195 0
172 197 0
173 197 0
175 198 0
171 194 0
174 197 0
175 197 0
171 195 0
175 198 0
174 198 0
175 197 0
174 197 0
173 195 0
176 199 0
173 196 0
171 194 0
175 198 0
172 196 0
173 197 0
174 197 0
175 198 0
171 195 0
173 197 0
173 194 0
172 195 0
174 197 0
171 195 0
170 194 0
170 194 0
174 197 0
173 197 0
172 195 0
176 199 0
172 196 0
173 197 0
174 198 0
175 197 0
171 194 0
174 198 0
169 193 0
173 196 0
170 194 0
170 193 0
172 195 0
172 196 0
175 197 0
171 194 0
173 197 0
175 198 0
172 195 0
170 194 0
173 195 0
172 195 0
175 197 0
172 195 0
177 198 0
173 196 0
172 196 0
171 195 0
176 197 0
174 196 0
171 193 0
172 195 0
170 193 0
172 194 0
175 198 0
173 195 0
176 199 0
170 193 0
171 194 0
173 195 0
175 198 0
173 196 0
172 196 0
170 193 0
172 193 0
171 193 0
176 198 0
173 196 0
175 197 0
175 198 0
168 189 0
173 195 0
175 197 0
175 197 0
171 193 0
170 193 0
173 195 0
172 193 0
173 196 0
171 193 0
173 196 0
174 195 0
171 193 0
175 197 0
173 195 0
167 189 0
174 195 0
170 192 0
172 192 0
174 195 0
171 194 0
174 195 0
170 193 0
173 195 0
173 196 0
174 196 0
173 194 0
174 196 0
176 197 0
174 195 0
172 194 0
170 192 0
170 191 0
170 191 0
174 195 0
172 194 0
172 195 0
169 191 0
165 187 0
170 192 0
170 191 0
171 194 0
171 193 0
164 188 0
172 194 0
163 185 0
170 193 0
174 197 0
173 195 0
174 196 0
173 195 0
172 195 0
166 189 0
171 194 0
171 195 0
171 194 0
161 184 0
167 191 0
169 191 0
165 187 0
162 184 0
169 193 0
163 186 0
160 184 0
167 190 0
163 187 0
167 190 0
168 190 0
171 192 0
171 194 0
172 194 0
163 186 0
167 190 0
175 198 0
171 194 0
168 191 0
165 188 0
162 187 0
163 187 0
172 194 0
168 191 0
165 188 0
167 190 0
171 194 0
164 188 0
167 191 0
172 195 0
165 189 0
164 188 0
171 195 0
166 189 0
166 188 0
169 192 0
170 193 0
167 189 0
164 187 0
166 189 0
171 194 0
168 192 0
165 188 0
171 195 0
166 188 0
167 191 0
162 186 0
163 186 0
168 192 0
168 190 0
163 187 0
168 191 0
164 187 0
169 192 0
169 193 0
167 190 0
172 197 0
165 189 0
167 191 0
165 187 0
169 192 0
166 186 0
170 193 0
170 193 0
164 187 0
167 191 0
170 194 0
166 189 0
165 188 0
165 188 0
164 189 0
170 193 0
174 196 0
167 191 0
167 188 0
164 187 0
175 197 0
171 194 0
169 194 0
167 191 0
172 196 0
167 190 0
166 190 0
167 191 0
173 196 0
166 190 0
168 194 0
166 190 0
166 189 0
167 189 0
170 193 0
167 190 0
169 193 0
172 195 0
166 189 0
167 190 0
173 195 0
162 187 0
165 187 0
165 188 0
160 183 0
169 191 0
169 192 0
168 192 0
170 192 0
170 194 0
165 189 0
171 195 0
171 194 0
172 194 0
170 194 0
172 196 0
169 192 0
170 192 0
169 192 0
169 192 0
173 196 0
173 196 0
168 191 0
163 186 0
171 194 0
168 191 0
164 187 0
171 194 0
173 197 0
174 198 0
170 194 0
169 191 0
170 193 0
169 191 0
172 194 0
173 195 0
168 192 0
170 192 0
172 195 0
172 195 0
171 196 0
171 195 0
171 195 0
173 196 0
170 193 0
165 189 0
170 194 0
168 191 0
175 198 0
175 198 0
168 193 0
166 189 0
169 193 0
167 190 0
172 195 0
170 194 0
168 192 0
170 192 0
168 191 0
173 195 0
169 194 0
170 192 0
172 196 0
172 194 0
172 195 0
174 198 0
173 196 0
172 196 0
168 191 0
173 197 0
172 195 0
172 196 0
173 197 0
168 190 0
171 195 0
171 194 0
168 190 0
174 198 0
172 197 0
171 195 0
174 198 0
174 198 0
174 198 0
173 197 0
169 193 0
171 195 0
173 197 0
168 191 0
174 198 0
170 193 0
175 197 0
170 194 0
172 196 0
174 197 0
174 197 0
175 198 0
170 193 0
169 192 0
173 196 0
173 197 0
174 198 0
171 194 0
175 197 0
174 197 0
169 193 0
169 192 0
175 198 0
171 195 0
172 196 0
171 194 0
169 191 0
172 196 0
172 196 0
174 197 0
173 196 0
173 197 0
170 193 0
171 195 0
169 192 0
173 196 0
172 195 0
174 197 0
175 198 0
172 197 0
171 196 0
172 196 0
175 197 0
174 197 0
175 198 0
172 197 0
169 193 0
172 195 0
173 196 0
172 197 0
174 196 0
173 197 0
174 195 0
175 198 0
171 195 0
174 198 0
175 198 0
175 198 0
174 197 0
173 197 0
173 196 0
173 197 0
175 198 0
171 196 0
174 196 0
172 196 0
174 198 0
174 197 0
176 198 0
174 198 0
171 195 0
173 197 0
174 198 0
176 198 0
173 197 0
173 197 0
173 196 0
174 197 0
174 197 0
172 196 0
172 196 0
173 196 0
173 197 0
174 198 0
173 197 0
173 197 0
174 197 0
175 197 0
175 198 0
173 196 0
174 197 0
176 199 0
172 195 0
170 194 0
174 197 0
172 195 0
173 197 0
171 196 0
172 195 0
172 196 0
172 196 0
173 196 0
173 197 0
172 196 0
175 198 0
170 193 0
173 196 0
172 195 0
174 198 0
174 197 0
172 196 0
171 194 0
172 196 0
170 194 0
171 195 0
174 198 0
167 191 0
170 194 0
176 198 0
170 193 0
170 194 0
172 197 0
174 196 0
171 193 0
172 196 0
174 198 0
171 195 0
174 197 0
168 193 0
174 196 0
173 196 0
173 196 0
172 196 0
171 194 0
172 194 0
173 196 0
174 195 0
172 195 0
170 194 0
173 195 0
175 198 0
171 194 0
172 193 0
170 193 0
173 196 0
177 199 0
174 196 0
175 197 0
172 195 0
172 195 0
167 190 0
172 194 0
175 198 0
177 199 0
176 197 0
173 196 0
173 196 0
174 196 0
168 190 0
171 192 0
172 195 0
169 191 0
173 195 0
171 193 0
172 194 0
171 194 0
171 194 0
173 197 0
171 193 0
173 194 0
169 191 0
171 193 0
175 197 0
175 198 0
171 194 0
174 196 0
168 189 0
167 190 0
172 194 0
177 199 0
175 197 0
173 196 0
174 197 0
165 189 0
172 194 0
175 197 0
172 194 0
171 193 0
171 192 0
168 190 0
176 197 0
172 194 0
170 192 0
168 190 0
177 198 0
175 195 0
173 195 0
171 193 0
174 196 0
174 196 0
170 192 0
173 195 0
176 197 0
166 188 0
168 191 0
170 193 0
164 186 0
168 191 0
172 193 0
165 187 0
168 190 0
164 186 0
174 196 0
170 193 0
171 194 0
162 185 0
170 192 0
164 187 0
168 191 0
171 194 0
166 189 0
169 192 0
170 193 0
170 192 0
173 196 0
165 188 0
170 194 0
167 191 0
172 195 0
170 193 0
170 192 0
168 192 0
172 195 0
171 195 0
168 192 0
160 184 0
164 188 0
161 185 0
167 191 0
171 195 0
164 187 0
167 189 0
171 193 0
169 192 0
165 189 0
168 191 0
168 190 0
169 192 0
168 191 0
175 198 0
168 191 0
160 184 0
163 187 0
166 188 0
166 189 0
170 193 0
167 190 0
167 191 0
164 187 0
173 196 0
171 194 0
171 194 0
164 187 0
163 186 0
172 194 0
164 187 0
167 191 0
168 192 0
168 192 0
164 187 0
170 193 0
166 191 0
169 193 0
173 197 0
167 190 0
165 189 0
165 188 0
171 194 0
165 189 0
166 189 0
169 192 0
166 189 0
165 189 0
167 190 0
165 187 0
171 194 0
168 191 0
164 187 0
163 187 0
167 191 0
169 191 0
166 190 0
165 188 0
168 192 0
166 188 0
171 194 0
167 191 0
172 195 0
173 196 0
168 190 0
158 181 0
173 196 0
168 191 0
169 192 0
169 192 0
169 193 0
165 192 0
165 189 0
169 193 0
168 191 0
172 196 0
173 195 0
173 196 0
167 192 0
164 188 0
172 196 0
166 190 0
172 195 0
170 192 0
165 187 0
170 193 0
170 195 0
172 195 0
168 192 0
168 190 0
170 195 0
172 196 0
169 191 0
169 192 0
167 190 0
172 194 0
170 192 0
169 191 0
168 192 0
174 197 0
169 193 0
167 191 0
168 192 0
170 194 0
173 196 0
170 194 0
169 192 0
171 194 0
174 197 0
169 193 0
176 198 0
165 189 0
175 198 0
173 195 0
173 195 0
167 192 0
174 197 0
170 194 0
174 197 0
166 191 0
168 192 0
172 195 0
166 189 0
169 192 0
173 197 0
177 197 0
171 194 0
171 194 0
167 191 0
175 198 0
173 196 0
169 192 0
169 193 0
173 196 0
172 194 0
170 194 0
170 192 0
176 199 0
172 196 0
172 196 0
171 194 0
172 195 0
171 194 0
168 190 0
170 194 0
169 194 0
168 192 0
171 195 0
176 198 0
173 197 0
171 195 0
172 195 0
169 192 0
172 195 0
170 194 0
167 190 0
169 193 0
173 196 0
172 193 0
173 197 0
174 198 0
173 196 0
174 197 0
171 195 0
170 193 0
173 197 0
170 193 0
174 197 0
173 197 0
173 196 0
172 196 0
174 197 0
170 194 0
172 197 0
171 194 0
173 196 0
169 191 0
171 196 0
170 193 0
170 192 0
170 194 0
171 195 0
173 196 0
174 196 0
174 197 0
173 197 0
168 191 0
173 196 0
173 196 0
172 196 0
173 196 0
175 198 0
173 197 0
172 195 0
171 194 0
173 197 0
173 197 0
172 195 0
170 194 0
170 192 0
173 196 0
174 197 0
172 194 0
172 195 0
173 197 0
173 196 0
173 197 0
168 192 0
171 193 0
171 194 0
173 196 0
173 196 0
175 198 0
170 194 0
174 197 0
171 193 0
173 195 0
174 196 0
172 196 0
174 197 0
173 196 0
173 197 0
175 198 0
174 198 0
176 199 0
175 198 0
172 196 0
172 196 0
174 198 0
170 195 0
175 198 0
172 196 0
174 197 0
175 198 0
175 198 0
172 196 0
169 193 0
172 196 0
175 198 0
170 194 0
172 196 0
176 198 0
173 197 0
171 195 0
174 198 0
172 195 0
170 194 0
172 196 0
174 197 0
175 198 0
174 197 0
174 198 0
175 198 0
169 193 0
172 196 0
172 196 0
174 198 0
173 196 0
173 197 0
175 198 0
171 195 0
172 196 0
173 197 0
173 197 0
172 196 0
170 195 0
169 193 0
175 198 0
175 198 0
176 199 0
170 194 0
173 196 0
171 195 0
172 195 0
171 195 0
173 196 0
175 197 0
177 199 0
172 196 0
171 194 0
170 195 0
174 197 0
174 198 0
173 196 0
173 196 0
172 197 0
169 192 0
172 196 0
174 197 0
176 198 0
177 199 0
171 195 0
172 195 0
171 195 0
175 198 0
170 194 0
173 196 0
170 193 0
175 198 0
173 196 0
176 199 0
171 195 0
175 198 0
174 196 0
175 198 0
172 194 0
171 194 0
175 196 0
172 195 0
170 192 0
171 194 0
172 195 0
173 196 0
170 194 0
170 192 0
179 200 0
173 196 0
176 198 0
171 193 0
175 196 0
172 193 0
177 199 0
174 196 0
175 197 0
178 200 0
170 192 0
175 197 0
172 194 0
173 195 0
171 193 0
175 197 0
175 196 0
171 193 0
171 193 0
174 196 0
175 197 0
177 199 0
172 195 0
176 198 0
169 190 0
174 196 0
176 198 0
172 193 0
172 195 0
172 194 0
170 193 0
169 190 0
172 192 0
171 192 0
173 195 0
168 189 0
172 194 0
169 192 0
172 193 0
172 194 0
174 197 0
171 192 0
174 196 0
169 193 0
168 190 0
168 190 0
172 194 0
175 198 0
171 192 0
170 191 0
173 195 0
172 194 0
164 186 0
172 194 0
172 194 0
175 197 0
163 187 0
172 193 0
167 189 0
168 191 0
170 191 0
171 193 0
174 197 0
171 194 0
171 195 0
161 185 0
168 190 0
168 191 0
173 195 0
165 188 0
165 188 0
169 192 0
165 189 0
171 194 0
169 191 0
165 188 0
169 192 0
162 184 0
171 194 0
169 192 0
164 188 0
167 189 0
171 192 0
169 192 0
165 187 0
168 192 0
166 189 0
170 193 0
168 191 0
167 191 0
161 184 0
169 192 0
167 191 0
166 188 0
168 192 0
165 188 0
167 191 0
171 194 0
168 191 0
169 191 0
164 187 0
172 195 0
166 189 0
169 192 0
168 192 0
171 193 0
171 195 0
170 194 0
170 194 0
167 190 0
169 193 0
160 183 0
172 195 0
173 196 0
171 195 0
168 191 0
168 191 0
175 197 0
166 187 0
168 191 0
171 194 0
167 190 0
159 183 0
167 191 0
166 189 0
168 192 0
168 191 0
173 196 0
169 192 0
168 192 0
165 189 0
167 190 0
168 191 0
171 194 0
172 195 0
169 193 0
169 192 0
168 191 0
174 197 0
171 195 0
170 194 0
168 191 0
170 193 0
171 195 0
166 190 0
170 194 0
166 189 0
167 191 0
172 196 0
170 192 0
166 189 0
167 191 0
171 194 0
172 195 0
164 187 0
175 196 0
169 193 0
169 192 0
169 193 0
170 193 0
167 190 0
170 193 0
172 195 0
167 190 0
169 192 0
170 194 0
166 189 0
173 197 0
166 191 0
164 186 0
171 194 0
168 191 0
171 196 0
170 194 0
174 197 0
172 195 0
164 187 0
172 195 0
169 192 0
166 190 0
171 194 0
167 191 0
169 192 0
169 193 0
169 192 0
171 193 0
174 197 0
171 194 0
169 192 0
168 192 0
171 195 0
174 197 0
166 188 0
176 199 0
170 193 0
167 191 0
169 192 0
163 186 0
173 196 0
174 197 0
170 192 0
170 194 0
173 197 0
169 193 0
169 193 0
168 191 0
170 193 0
173 197 0
169 192 0
173 196 0
171 194 0
169 192 0
173 196 0
171 195 0
170 195 0
173 196 0
172 195 0
172 196 0
170 193 0
173 196 0
172 194 0
172 196 0
172 195 0
171 195 0
173 196 0
173 196 0
167 189 0
176 199 0
174 197 0
169 192 0
174 197 0
172 195 0
169 193 0
170 193 0
172 196 0
169 192 0
172 196 0
170 194 0
169 193 0
171 195 0
173 196 0
170 194 0
168 191 0
172 195 0
176 199 0
171 194 0
171 194 0
170 192 0
169 193 0
173 196 0
173 197 0
172 195 0
173 196 0
174 197 0
172 195 0
172 197 0
170 194 0
177 198 0
170 194 0
176 198 0
172 195 0
172 196 0
176 199 0
173 197 0
175 198 0
170 194 0
174 198 0
169 192 0
170 194 0
174 197 0
176 198 0
175 198 0
174 198 0
172 195 0
174 197 0
174 197 0
172 196 0
171 194 0
172 196 0
171 195 0
173 196 0
171 195 0
174 196 0
170 194 0
175 198 0
174 198 0
173 196 0
175 197 0
173 196 0
171 195 0
171 194 0
172 196 0
170 194 0
174 197 0
170 195 0
175 197 0
171 195 0
172 194 0
174 197 0
175 198 0
173 196 0
171 194 0
174 198 0
173 196 0
171 196 0
171 195 0
172 196 0
174 196 0
173 197 0
170 195 0
176 198 0
172 196 0
174 198 0
174 197 0
168 193 0
175 198 0
172 196 0
174 198 0
172 196 0
170 195 0
174 197 0
173 196 0
174 198 0
170 194 0
175 197 0
174 197 0
171 194 0
174 197 0
168 192 0
170 195 0
175 197 0
173 197 0
173 196 0
175 198 0
174 197 0
173 197 0
171 196 0
173 197 0
173 197 0
176 198 0
172 197 0
174 197 0
174 197 0
172 196 0
171 194 0
171 195 0
174 197 0
174 198 0
173 196 0
173 196 0
174 197 0
173 197 0
172 196 0
176 198 0
173 197 0
173 196 0
171 194 0
173 197 0
171 195 0
171 194 0
171 195 0
175 198 0
176 199 0
169 194 0
172 196 0
171 194 0
175 198 0
176 199 0
174 198 0
176 199 0
172 194 0
176 198 0
172 196 0
176 199 0
172 196 0
174 198 0
172 195 0
176 198 0
173 196 0
175 198 0
174 197 0
172 195 0
176 198 0
170 195 0
175 198 0
175 197 0
172 196 0
169 191 0
174 197 0
172 194 0
176 197 0
173 197 0
179 199 0
173 195 0
176 198 0
171 194 0
169 192 0
174 197 0
172 194 0
172 195 0
173 196 0
174 196 0
175 198 0
176 197 0
172 195 0
172 194 0
174 196 0
169 191 0
175 197 0
174 196 0
173 195 0
177 198 0
177 199 0
173 196 0
169 192 0
174 196 0
176 198 0
162 185 0
169 191 0
167 190 0
175 196 0
173 195 0
171 191 0
171 193 0
174 197 0
171 193 0
171 193 0
171 194 0
173 195 0
178 200 0
174 195 0
173 195 0
170 192 0
175 197 0
171 193 0
171 194 0
174 197 0
171 192 0
175 196 0
173 194 0
173 195 0
169 191 0
174 196 0
175 197 0
174 196 0
170 192 0
173 195 0
172 193 0
176 198 0
173 196 0
171 194 0
164 187 0
173 195 0
168 191 0
167 189 0
168 190 0
171 194 0
174 196 0
175 198 0
169 191 0
175 197 0
175 196 0
171 193 0
170 192 0
166 189 0
163 185 0
168 191 0
168 191 0
168 192 0
163 186 0
166 188 0
164 187 0
174 197 0
166 189 0
166 189 0
170 193 0
172 196 0
163 186 0
168 191 0
168 192 0
162 184 0
166 189 0
168 193 0
164 186 0
175 197 0
172 195 0
169 192 0
171 193 0
173 195 0
157 182 0
154 177 0
168 191 0
164 187 0
168 191 0
162 186 0
172 194 0
165 186 0
170 192 0
170 192 0
171 193 0
170 195 0
167 191 0
165 188 0
170 194 0
166 189 0
168 191 0
165 188 0
171 195 0
173 197 0
166 189 0
169 192 0
172 195 0
165 189 0
168 192 0
165 189 0
167 191 0
165 188 0
167 191 0
167 189 0
172 196 0
170 193 0
163 187 0
167 189 0
166 189 0
159 182 0
170 192 0
167 189 0
170 195 0
170 193 0
167 192 0
168 190 0
164 187 0
165 189 0
173 196 0
165 190 0
168 193 0
169 193 0
169 192 0
171 193 0
169 192 0
171 192 0
164 187 0
173 196 0
166 187 0
170 192 0
168 190 0
165 188 0
171 195 0
167 191 0
166 188 0
172 194 0
169 192 0
168 191 0
171 194 0
169 193 0
170 194 0
170 193 0
175 197 0
169 193 0
169 192 0
171 195 0
170 194 0
169 192 0
170 194 0
171 193 0
167 190 0
168 191 0
174 197 0
174 196 0
164 189 0
171 194 0
170 193 0
170 193 0
171 194 0
172 196 0
173 195 0
168 191 0
172 195 0
169 193 0
172 196 0
174 196 0
170 195 0
166 190 0
170 193 0
173 195 0
171 194 0
173 196 0
172 196 0
169 193 0
169 192 0
166 189 0
169 192 0
165 189 0
167 191 0
172 196 0
171 194 0
168 192 0
170 192 0
170 194 0
171 194 0
174 197 0
171 194 0
171 192 0
172 196 0
173 195 0
174 196 0
170 192 0
170 195 0
174 197 0
169 193 0
167 190 0
170 194 0
172 196 0
173 197 0
169 193 0
172 197 0
167 191 0
172 194 0
169 192 0
173 195 0
170 192 0
173 195 0
169 192 0
172 195 0
173 197 0
173 196 0
168 191 0
169 192 0
171 193 0
173 196 0
173 195 0
170 193 0
176 198 0
171 195 0
174 196 0
169 191 0
172 196 0
168 190 0
174 197 0
173 197 0
168 191 0
173 196 0
173 196 0
176 199 0
171 194 0
170 193 0
172 196 0
169 194 0
172 196 0
174 197 0
175 196 0
172 196 0
171 195 0
173 196 0
168 191 0
174 197 0
172 196 0
169 193 0
172 197 0
174 197 0
171 193 0
174 197 0
169 193 0
172 196 0
173 196 0
174 197 0
174 197 0
175 198 0
171 194 0
173 196 0
173 197 0
172 196 0
172 196 0
170 196 0
172 195 0
172 195 0
169 194 0
171 194 0
172 195 0
172 195 0
173 195 0
173 196 0
173 195 0
172 195 0
176 199 0
174 197 0
177 199 0
171 194 0
176 198 0
174 196 0
170 194 0
167 191 0
173 196 0
170 192 0
175 197 0
175 198 0
173 197 0
173 197 0
176 199 0
174 198 0
172 196 0
171 193 0
176 199 0
171 195 0
172 197 0
173 197 0
173 196 0
173 197 0
175 198 0
173 196 0
177 199 0
175 198 0
173 197 0
173 197 0
175 198 0
174 197 0
174 198 0
174 197 0
171 195 0
175 198 0
175 198 0
174 197 0
172 196 0
172 196 0
172 197 0
173 197 0
170 194 0
175 198 0
170 195 0
175 198 0
173 197 0
171 195 0
175 198 0
169 192 0
169 192 0
175 197 0
173 197 0
174 198 0
173 196 0
172 196 0
175 198 0
173 197 0
177 199 0
171 195 0
168 192 0
172 195 0
173 197 0
170 195 0
175 198 0
172 196 0
176 198 0
171 195 0
172 197 0
173 197 0
176 199 0
171 195 0
173 197 0
174 198 0
168 192 0
173 197 0
172 195 0
172 195 0
176 198 0
173 197 0
174 198 0
171 194 0
172 195 0
173 196 0
172 195 0
174 198 0
171 195 0
171 195 0
176 198 0
176 198 0
172 196 0
173 196 0
173 196 0
171 195 0
171 194 0
172 195 0
173 197 0
171 194 0
173 197 0
175 197 0
174 197 0
173 196 0
174 197 0
175 197 0
173 197 0
173 195 0
175 197 0
173 196 0
170 192 0
172 195 0
171 194 0
170 193 0
171 195 0
174 197 0
174 196 0
174 197 0
171 195 0
175 197 0
174 197 0
172 195 0
170 193 0
175 197 0
175 197 0
173 196 0
173 194 0
172 194 0
172 194 0
176 198 0
174 197 0
170 193 0
172 195 0
174 196 0
172 195 0
174 195 0
175 197 0
172 194 0
170 193 0
173 196 0
169 192 0
170 193 0
173 194 0
172 194 0
173 195 0
172 194 0
175 197 0
172 193 0
174 196 0
175 198 0
174 196 0
172 195 0
168 190 0
175 195 0
172 195 0
165 189 0
170 193 0
168 190 0
172 194 0
175 197 0
171 194 0
172 195 0
175 197 0
169 192 0
173 196 0
169 192 0
171 194 0
171 193 0
164 187 0
173 196 0
172 194 0
168 190 0
171 192 0
175 197 0
171 192 0
164 186 0
166 189 0
168 191 0
163 185 0
165 188 0
174 197 0
169 192 0
169 193 0
170 192 0
170 192 0
170 192 0
167 189 0
161 185 0
161 183 0
163 186 0
167 190 0
163 187 0
170 193 0
165 189 0
169 192 0
173 196 0
172 195 0
170 193 0
166 189 0
172 195 0
172 195 0
171 195 0
171 195 0
161 184 0
166 189 0
171 194 0
170 194 0
168 191 0
168 192 0
171 194 0
168 191 0
166 189 0
168 192 0
160 182 0
170 194 0
168 191 0
174 197 0
165 190 0
168 191 0
168 191 0
171 195 0
164 188 0
168 192 0
161 185 0
166 190 0
170 193 0
170 194 0
169 190 0
169 192 0
164 187 0
170 193 0
172 196 0
170 193 0
167 190 0
168 192 0
167 191 0
166 190 0
168 192 0
172 195 0
161 184 0
168 191 0
167 190 0
167 188 0
169 192 0
171 194 0
169 193 0
164 187 0
169 194 0
165 190 0
166 190 0
167 190 0
170 193 0
166 191 0
172 195 0
164 187 0
166 189 0
167 191 0
167 191 0
164 189 0
167 191 0
168 192 0
167 190 0
166 189 0
166 190 0
162 184 0
170 192 0
172 196 0
167 190 0
173 197 0
171 195 0
173 197 0
170 194 0
172 196 0
169 191 0
169 192 0
171 194 0
170 194 0
166 190 0
173 197 0
169 192 0
173 195 0
172 196 0
170 192 0
167 191 0
162 188 0
162 185 0
167 191 0
172 194 0
171 192 0
174 198 0
167 189 0
169 191 0
168 190 0
168 190 0
175 198 0
173 197 0
170 193 0
166 189 0
174 198 0
173 195 0
171 194 0
172 196 0
167 189 0
170 194 0
172 195 0
170 194 0
172 196 0
165 187 0
170 194 0
173 196 0
167 191 0
169 192 0
173 197 0
172 195 0
173 196 0
171 196 0
174 197 0
166 189 0
172 196 0
170 194 0
173 196 0
170 192 0
170 194 0
171 192 0
174 195 0
170 193 0
167 191 0
170 194 0
173 197 0
170 194 0
172 196 0
171 195 0
168 189 0
172 196 0
169 193 0
172 196 0
173 196 0
171 195 0
170 192 0
172 196 0
170 194 0
171 194 0
172 194 0
172 196 0
173 197 0
172 196 0
174 198 0
170 193 0
170 192 0
173 196 0
171 194 0
170 193 0
173 197 0
174 197 0
172 196 0
176 199 0
173 196 0
171 195 0
166 190 0
171 195 0
174 198 0
175 198 0
173 197 0
171 195 0
175 197 0
169 194 0
173 197 0
174 197 0
174 197 0
175 198 0
173 196 0
174 197 0
172 195 0
173 197 0
172 195 0
174 197 0
174 197 0
170 194 0
166 191 0
175 197 0
174 197 0
172 196 0
172 195 0
173 196 0
172 196 0
172 197 0
173 196 0
170 193 0
174 197 0
174 197 0
172 196 0
171 194 0
170 193 0
174 197 0
174 198 0
171 195 0
173 197 0
172 195 0
175 197 0
174 197 0
171 195 0
175 198 0
170 194 0
175 198 0
173 197 0
176 199 0
173 196 0
172 194 0
174 197 0
173 196 0
171 195 0
172 196 0
175 198 0
173 197 0
176 199 0
173 197 0
172 194 0
175 197 0
173 197 0
168 191 0
173 196 0
175 197 0
175 198 0
175 198 0
173 196 0
175 198 0
174 197 0
174 197 0
172 197 0
174 198 0
175 198 0
174 197 0
173 197 0
177 199 0
173 196 0
171 195 0
172 196 0
174 198 0
173 197 0
174 198 0
175 197 0
177 199 0
173 196 0
174 198 0
171 195 0
172 196 0
170 194 0
174 197 0
171 195 0
175 198 0
174 198 0
173 196 0
171 195 0
174 197 0
174 197 0
173 197 0
170 194 0
175 198 0
174 197 0
174 197 0
172 195 0
174 197 0
174 197 0
174 197 0
171 195 0
172 195 0
171 195 0
175 198 0
172 195 0
173 196 0
174 197 0
174 197 0
171 195 0
172 196 0
173 197 0
175 198 0
175 197 0
169 193 0
173 196 0
170 194 0
175 198 0
172 197 0
173 196 0
174 197 0
172 195 0
168 192 0
172 195 0
173 196 0
169 192 0
171 194 0
171 194 0
172 196 0
177 198 0
172 195 0
171 194 0
173 196 0
172 195 0
170 193 0
176 198 0
173 196 0
175 198 0
174 197 0
174 198 0
173 196 0
171 193 0
169 191 0
174 197 0
173 197 0
165 186 0
177 199 0
172 195 0
171 194 0
174 196 0
175 197 0
174 197 0
172 196 0
174 196 0
169 191 0
169 192 0
172 194 0
173 196 0
174 197 0
172 194 0
172 195 0
175 197 0
169 192 0
174 196 0
175 198 0
168 191 0
170 192 0
173 195 0
172 195 0
173 195 0
173 195 0
175 196 0
174 195 0
175 197 0
176 198 0
175 197 0
176 198 0
172 195 0
175 197 0
176 198 0
171 194 0
170 193 0
176 197 0
173 196 0
172 194 0
174 196 0
171 193 0
169 190 0
174 196 0
174 196 0
174 196 0
170 193 0
168 191 0
174 196 0
173 195 0
173 194 0
169 191 0
172 195 0
172 194 0
174 196 0
169 192 0
174 196 0
175 197 0
175 198 0
169 191 0
175 197 0
172 194 0
176 197 0
172 194 0
170 193 0
171 195 0
174 197 0
165 187 0
170 192 0
168 191 0
165 187 0
169 191 0
172 195 0
172 194 0
168 191 0
166 189 0
172 195 0
173 196 0
168 191 0
168 191 0
171 195 0
167 190 0
167 191 0
166 188 0
169 193 0
170 192 0
164 187 0
175 197 0
170 194 0
173 195 0
164 187 0
165 190 0
169 192 0
162 186 0
164 187 0
168 192 0
166 188 0
165 187 0
169 191 0
168 192 0
166 189 0
167 192 0
169 192 0
167 191 0
171 195 0
169 193 0
168 190 0
164 188 0
166 189 0
163 187 0
165 189 0
174 197 0
169 191 0
175 198 0
167 191 0
168 190 0
172 194 0
158 182 0
170 192 0
164 188 0
167 190 0
172 195 0
171 193 0
161 185 0
163 188 0
167 189 0
163 187 0
162 186 0
169 191 0
165 189 0
168 191 0
166 190 0
167 189 0
166 190 0
166 190 0
170 192 0
166 190 0
164 187 0
166 188 0
167 189 0
167 191 0
172 194 0
172 194 0
161 185 0
165 187 0
167 192 0
170 193 0
167 190 0
170 194 0
170 193 0
173 195 0
170 194 0
168 191 0
169 193 0
163 186 0
168 192 0
168 190 0
167 191 0
172 196 0
167 192 0
171 194 0
170 193 0
169 192 0
171 194 0
173 195 0
171 194 0
169 191 0
169 193 0
166 190 0
171 194 0
168 191 0
171 195 0
171 191 0
169 192 0
170 193 0
167 192 0
169 192 0
169 192 0
166 190 0
173 196 0
170 193 0
169 193 0
170 193 0
173 196 0
168 192 0
168 190 0
170 192 0
167 191 0
171 194 0
168 192 0
170 193 0
172 195 0
175 197 0
170 191 0
171 195 0
174 197 0
171 195 0
172 195 0
173 195 0
173 196 0
171 195 0
167 190 0
174 197 0
172 195 0
172 195 0
169 193 0
168 192 0
171 193 0
172 194 0
171 194 0
170 194 0
172 195 0
166 190 0
172 195 0
171 194 0
168 191 0
170 194 0
171 194 0
175 198 0
173 196 0
171 194 0
169 191 0
172 195 0
173 196 0
174 197 0
171 193 0
169 191 0
175 198 0
171 195 0
170 193 0
173 196 0
174 198 0
170 194 0
172 195 0
174 198 0
171 195 0
171 195 0
173 197 0
170 194 0
176 196 0
171 194 0
174 197 0
174 196 0
175 198 0
174 196 0
172 195 0
173 196 0
171 194 0
169 192 0
173 195 0
171 194 0
174 197 0
173 195 0
171 194 0
173 197 0
171 196 0
170 193 0
170 193 0
173 195 0
169 192 0
175 198 0
169 193 0
173 197 0
171 195 0
172 195 0
169 193 0
173 197 0
171 195 0
175 197 0
170 193 0
173 196 0
174 198 0
167 190 0
166 190 0
169 190 0
174 197 0
172 195 0
174 198 0
175 197 0
175 197 0
174 197 0
174 196 0
172 195 0
174 197 0
173 197 0
172 196 0
173 197 0
171 195 0
174 197 0
172 195 0
174 198 0
172 196 0
175 198 0
173 197 0
171 195 0
174 198 0
174 198 0
173 196 0
173 197 0
172 195 0
175 198 0
173 197 0
173 196 0
174 197 0
174 198 0
174 198 0
172 195 0
175 198 0
175 198 0
174 198 0
173 197 0
173 196 0
175 198 0
174 197 0
175 197 0
175 198 0
170 196 0
169 192 0
177 199 0
175 198 0
173 196 0
173 196 0
176 199 0
173 197 0
173 197 0
172 196 0
176 199 0
172 195 0
173 197 0
171 195 0
172 197 0
174 197 0
170 193 0
172 196 0
171 194 0
171 195 0
175 198 0
173 196 0
177 199 0
173 197 0
177 199 0
174 198 0
175 198 0
173 197 0
174 197 0
174 197 0
169 193 0
174 198 0
174 197 0
174 197 0
173 197 0
170 195 0
173 197 0
176 198 0
175 198 0
170 194 0
170 194 0
173 197 0
175 198 0
171 195 0
169 193 0
173 197 0
175 198 0
172 195 0
174 197 0
175 198 0
171 194 0
175 198 0
171 196 0
175 198 0
170 195 0
172 196 0
171 196 0
174 197 0
170 194 0
176 199 0
174 198 0
171 194 0
172 196 0
168 193 0
173 197 0
172 196 0
173 197 0
168 193 0
173 195 0
169 193 0
175 197 0
171 193 0
171 194 0
173 197 0
171 194 0
175 198 0
170 193 0
172 195 0
174 197 0
171 195 0
170 194 0
171 195 0
173 196 0
173 196 0
171 194 0
175 197 0
173 196 0
169 192 0
174 196 0
178 199 0
170 192 0
174 196 0
176 198 0
175 198 0
174 197 0
178 200 0
175 197 0
173 196 0
171 195 0
173 196 0
176 198 0
170 193 0
169 191 0
168 190 0
174 196 0
172 194 0
173 196 0
172 194 0
176 197 0
176 197 0
174 197 0
177 199 0
169 191 0
171 193 0
174 196 0
175 197 0
169 192 0
173 196 0
170 194 0
168 191 0
169 191 0
176 198 0
169 192 0
173 195 0
170 193 0
173 195 0
176 198 0
177 198 0
175 197 0
172 195 0
171 194 0
173 194 0
168 190 0
173 195 0
172 194 0
168 189 0
171 193 0
170 193 0
174 196 0
170 192 0
173 196 0
173 196 0
170 194 0
167 189 0
175 198 0
176 197 0
173 196 0
168 191 0
168 190 0
171 194 0
167 190 0
168 191 0
169 193 0
173 195 0
168 190 0
170 193 0
165 188 0
170 194 0
172 195 0
169 191 0
171 194 0
171 194 0
171 195 0
165 188 0
173 195 0
167 189 0
169 192 0
168 191 0
169 192 0
172 194 0
168 191 0
164 188 0
171 195 0
167 190 0
170 192 0
165 189 0
171 195 0
169 192 0
167 191 0
167 191 0
173 196 0
167 190 0
164 186 0
164 186 0
164 188 0
165 189 0
167 189 0
171 193 0
163 187 0
170 193 0
167 191 0
168 193 0
166 190 0
164 187 0
161 183 0
167 191 0
170 193 0
173 195 0
169 193 0
162 185 0
168 192 0
169 193 0
167 192 0
162 184 0
167 190 0
167 190 0
171 194 0
167 191 0
172 196 0
172 197 0
171 195 0
168 190 0
173 196 0
166 190 0
166 188 0
170 194 0
167 190 0
170 194 0
174 196 0
168 192 0
168 191 0
170 194 0
174 196 0
165 189 0
165 188 0
163 187 0
167 191 0
166 187 0
167 192 0
172 195 0
170 193 0
170 192 0
170 194 0
166 189 0
169 191 0
170 194 0
172 196 0
170 194 0
170 193 0
174 196 0
168 193 0
169 194 0
169 192 0
170 193 0
165 190 0
172 195 0
163 186 0
171 194 0
174 198 0
169 193 0
171 194 0
171 194 0
167 190 0
171 194 0
171 195 0
168 192 0
171 194 0
169 193 0
170 194 0
166 190 0
173 197 0
170 195 0
170 194 0
169 193 0
167 191 0
173 196 0
164 187 0
168 192 0
169 192 0
169 192 0
174 197 0
170 194 0
174 197 0
170 192 0
170 193 0
172 196 0
172 195 0
169 193 0
169 193 0
166 189 0
172 195 0
166 189 0
171 195 0
174 197 0
169 192 0
173 193 0
171 195 0
172 195 0
169 191 0
172 195 0
170 193 0
170 193 0
174 197 0
169 194 0
175 197 0
173 197 0
172 195 0
169 191 0
170 192 0
169 192 0
168 192 0
169 192 0
169 191 0
173 196 0
172 194 0
173 197 0
172 195 0
172 195 0
172 194 0
169 192 0
172 194 0
173 196 0
170 194 0
173 196 0
172 195 0
173 196 0
166 190 0
169 193 0
171 195 0
172 196 0
169 194 0
174 196 0
175 197 0
175 198 0
171 195 0
169 194 0
171 194 0
171 194 0
172 197 0
171 194 0
172 195 0
171 194 0
174 197 0
169 193 0
171 195 0
172 194 0
170 194 0
172 195 0
173 195 0
170 195 0
175 198 0
173 196 0
166 191 0
173 196 0
172 196 0
175 198 0
175 198 0
173 195 0
174 197 0
175 198 0
171 193 0
172 195 0
173 197 0
176 199 0
172 197 0
174 197 0
171 195 0
174 197 0
172 194 0
171 194 0
175 198 0
174 197 0
172 195 0
170 195 0
174 197 0
175 198 0
172 196 0
175 197 0
175 198 0
174 198 0
173 195 0
171 195 0
170 193 0
170 194 0
175 197 0
172 196 0
170 194 0
176 199 0
175 197 0
171 196 0
174 197 0
167 192 0
170 194 0
174 196 0
171 195 0
169 192 0
176 199 0
169 193 0
176 199 0
174 198 0
170 194 0
174 198 0
170 195 0
173 196 0
173 196 0
175 198 0
172 195 0
171 194 0
172 195 0
171 194 0
173 196 0
172 196 0
175 198 0
174 197 0
174 197 0
174 197 0
172 197 0
175 198 0
174 197 0
175 198 0
173 197 0
173 197 0
174 198 0
175 198 0
176 198 0
172 196 0
172 196 0
174 197 0
173 197 0
176 199 0
173 197 0
169 193 0
172 195 0
173 197 0
173 197 0
173 196 0
172 196 0
174 198 0
170 195 0
174 197 0
175 198 0
174 197 0
172 196 0
170 195 0
174 197 0
176 198 0
173 196 0
172 195 0
174 197 0
175 198 0
175 197 0
169 192 0
173 195 0
174 198 0
174 198 0
175 198 0
172 195 0
169 192 0
176 199 0
172 196 0
175 198 0
174 197 0
172 195 0
171 195 0
172 195 0
170 194 0
176 198 0
170 194 0
171 194 0
173 196 0
165 189 0
170 194 0
171 194 0
175 198 0
175 197 0
173 197 0
173 195 0
171 195 0
171 194 0
174 198 0
172 196 0
176 198 0
167 190 0
174 197 0
171 195 0
174 197 0
171 195 0
173 197 0
175 198 0
175 198 0
174 197 0
174 197 0
170 194 0
169 193 0
172 196 0
173 195 0
176 198 0
169 192 0
175 198 0
171 194 0
169 192 0
174 197 0
174 196 0
171 194 0
173 195 0
176 197 0
174 197 0
177 199 0
176 198 0
172 195 0
171 193 0
173 195 0
172 195 0
176 198 0
172 194 0
174 197 0
174 197 0
172 195 0
173 195 0
175 197 0
167 189 0
176 198 0
172 194 0
175 197 0
170 191 0
171 193 0
177 198 0
174 196 0
170 192 0
174 196 0
173 195 0
175 197 0
173 195 0
171 195 0
169 190 0
176 197 0
169 192 0
174 196 0
172 193 0
171 193 0
173 197 0
172 194 0
168 191 0
172 193 0
172 194 0
173 195 0
174 197 0
174 197 0
166 189 0
170 193 0
175 198 0
170 194 0
174 197 0
174 196 0
173 194 0
172 195 0
172 195 0
164 187 0
168 191 0
168 190 0
171 194 0
174 196 0
166 189 0
165 189 0
173 196 0
168 191 0
166 190 0
172 195 0
165 189 0
170 194 0
170 192 0
169 192 0
164 187 0
169 192 0
166 188 0
169 193 0
169 192 0
171 194 0
168 190 0
171 193 0
166 189 0
170 193 0
170 193 0
169 192 0
167 190 0
166 190 0
169 193 0
167 190 0
170 192 0
169 193 0
171 195 0
169 192 0
172 195 0
168 192 0
168 192 0
169 192 0
167 191 0
169 192 0
169 193 0
168 192 0
166 189 0
170 194 0
166 190 0
165 189 0
163 186 0
166 189 0
170 194 0
165 189 0
164 188 0
170 193 0
168 192 0
166 190 0
158 182 0
169 193 0
167 191 0
171 195 0
167 191 0
172 194 0
172 196 0
169 193 0
167 190 0
164 188 0
171 194 0
157 180 0
157 181 0
166 190 0
173 196 0
170 194 0
170 195 0
164 188 0
172 196 0
173 195 0
172 195 0
170 194 0
168 192 0
170 194 0
168 191 0
165 189 0
172 196 0
171 195 0
169 192 0
170 193 0
174 197 0
165 189 0
167 191 0
170 192 0
172 195 0
168 191 0
167 191 0
165 188 0
168 192 0
168 191 0
167 190 0
173 196 0
167 191 0
165 189 0
170 193 0
170 194 0
169 192 0
165 189 0
168 192 0
171 195 0
170 192 0
164 188 0
173 195 0
165 188 0
170 194 0
168 190 0
172 195 0
169 192 0
168 192 0
169 192 0
171 195 0
170 194 0
165 189 0
164 188 0
170 193 0
176 198 0
165 188 0
170 193 0
170 193 0
169 192 0
170 192 0
168 191 0
170 194 0
175 197 0
171 194 0
164 188 0
166 190 0
172 196 0
166 190 0
171 195 0
171 195 0
173 197 0
168 191 0
173 195 0
173 196 0
168 192 0
170 194 0
170 195 0
171 194 0
171 195 0
168 191 0
170 192 0
164 186 0
169 192 0
175 198 0
171 195 0
169 192 0
170 193 0
172 195 0
169 192 0
170 193 0
169 193 0
170 195 0
166 190 0
169 193 0
172 197 0
172 195 0
167 192 0
166 189 0
172 195 0
175 197 0
172 195 0
174 197 0
172 195 0
170 194 0
170 194 0
175 198 0
169 193 0
175 197 0
171 196 0
173 194 0
173 196 0
174 197 0
170 193 0
171 194 0
174 197 0
173 196 0
174 197 0
171 195 0
173 196 0
172 196 0
173 197 0
174 197 0
173 195 0
170 193 0
172 196 0
171 195 0
175 197 0
174 197 0
175 198 0
171 195 0
174 196 0
166 189 0
175 197 0
170 193 0
173 195 0
175 198 0
172 195 0
172 195 0
173 196 0
172 195 0
171 194 0
173 197 0
172 195 0
173 197 0
173 196 0
172 196 0
169 194 0
174 198 0
173 197 0
173 196 0
170 194 0
170 195 0
168 191 0
174 197 0
174 197 0
174 198 0
171 195 0
177 199 0
175 198 0
174 197 0
173 196 0
169 193 0
176 198 0
173 196 0
166 190 0
174 198 0
174 196 0
175 198 0
172 196 0
175 198 0
174 196 0
171 195 0
170 192 0
171 194 0
175 197 0
174 198 0
171 194 0
169 193 0
174 198 0
174 196 0
172 194 0
173 196 0
174 196 0
171 195 0
174 197 0
171 195 0
171 194 0
174 198 0
173 197 0
173 197 0
176 199 0
174 197 0
172 197 0
171 195 0
174 197 0
173 196 0
172 196 0
174 197 0
174 198 0
172 196 0
172 197 0
173 197 0
172 197 0
172 196 0
173 197 0
173 196 0
173 197 0
172 197 0
173 197 0
173 196 0
174 197 0
173 197 0
174 196 0
174 197 0
172 197 0
176 198 0
172 195 0
171 194 0
169 193 0
175 197 0
169 193 0
174 197 0
172 196 0
172 196 0
171 195 0
171 195 0
173 196 0
174 197 0
175 198 0
171 195 0
173 197 0
174 197 0
177 199 0
175 198 0
175 198 0
171 195 0
174 198 0
171 194 0
177 199 0
171 195 0
174 198 0
171 193 0
175 197 0
175 198 0
171 193 0
173 196 0
170 194 0
173 195 0
173 197 0
173 197 0
172 196 0
170 194 0
175 198 0
173 197 0
170 193 0
174 196 0
173 197 0
174 197 0
174 198 0
175 198 0
170 193 0
173 197 0
173 196 0
175 198 0
173 196 0
174 198 0
174 197 0
171 195 0
174 197 0
173 196 0
167 190 0
173 196 0
171 194 0
174 197 0
173 196 0
176 198 0
174 197 0
172 194 0
169 193 0
174 197 0
170 193 0
177 199 0
172 194 0
172 196 0
175 198 0
170 193 0
170 194 0
176 199 0
177 199 0
168 191 0
173 196 0
172 195 0
170 192 0
172 194 0
172 195 0
166 188 0
175 197 0
170 193 0
173 196 0
176 198 0
174 197 0
174 197 0
171 195 0
172 195 0
177 198 0
170 193 0
174 196 0
173 196 0
176 197 0
168 191 0
173 195 0
171 193 0
170 192 0
168 191 0
171 194 0
177 198 0
168 191 0
175 196 0
177 199 0
173 196 0
168 192 0
173 194 0
173 195 0
175 197 0
174 197 0
172 195 0
169 192 0
172 195 0
175 197 0
170 193 0
171 194 0
172 195 0
173 195 0
172 195 0
172 194 0
175 198 0
177 198 0
174 196 0
171 193 0
169 191 0
170 192 0
168 190 0
174 197 0
170 193 0
171 195 0
168 191 0
169 193 0
170 192 0
162 186 0
167 190 0
171 194 0
173 196 0
166 189 0
164 189 0
163 186 0
170 193 0
167 191 0
170 193 0
166 190 0
170 193 0
165 188 0
170 193 0
171 194 0
168 191 0
170 195 0
166 190 0
166 189 0
171 193 0
171 195 0
171 194 0
166 190 0
167 190 0
174 198 0
165 189 0
169 190 0
164 186 0
166 190 0
167 190 0
167 191 0
166 188 0
170 193 0
165 189 0
170 192 0
172 195 0
169 192 0
168 190 0
168 192 0
170 193 0
166 189 0
168 191 0
170 193 0
164 187 0
166 190 0
164 186 0
166 189 0
167 189 0
167 189 0
169 190 0
167 191 0
171 194 0
166 190 0
169 192 0
172 197 0
165 187 0
164 188 0
168 190 0
168 192 0
164 188 0
166 190 0
168 193 0
160 185 0
166 190 0
169 192 0
166 190 0
173 196 0
170 193 0
168 191 0
168 192 0
167 190 0
162 185 0
172 195 0
165 188 0
166 190 0
171 194 0
172 195 0
173 197 0
173 196 0
171 194 0
170 193 0
165 189 0
168 192 0
168 191 0
171 193 0
174 197 0
160 183 0
169 193 0
168 191 0
170 194 0
170 193 0
171 193 0
169 192 0
169 193 0
174 196 0
171 194 0
169 192 0
174 196 0
173 196 0
167 192 0
165 189 0
172 193 0
172 196 0
171 196 0
165 188 0
169 192 0
172 195 0
173 196 0
173 196 0
167 191 0
170 192 0
164 186 0
171 194 0
166 189 0
171 194 0
172 195 0
169 193 0
170 192 0
168 192 0
174 197 0
172 196 0
176 199 0
172 194 0
171 194 0
171 193 0
170 193 0
168 192 0
172 194 0
171 194 0
173 197 0
171 195 0
170 194 0
171 195 0
170 193 0
174 196 0
172 194 0
174 197 0
173 197 0
170 194 0
172 194 0
166 190 0
171 194 0
171 195 0
169 191 0
171 194 0
170 194 0
172 195 0
171 194 0
170 193 0
172 195 0
175 198 0
175 198 0
173 197 0
174 197 0
174 197 0
173 195 0
174 196 0
173 196 0
172 195 0
174 196 0
169 192 0
171 195 0
168 192 0
170 193 0
172 195 0
172 196 0
168 190 0
167 191 0
172 194 0
170 193 0
173 197 0
170 194 0
174 197 0
172 196 0
171 195 0
174 197 0
174 198 0
171 194 0
171 194 0
174 197 0
173 196 0
175 198 0
172 195 0
173 197 0
169 193 0
170 194 0
173 196 0
169 193 0
174 197 0
174 197 0
174 196 0
174 197 0
173 197 0
173 197 0
172 195 0
175 198 0
169 194 0
171 193 0
173 196 0
173 197 0
171 194 0
172 196 0
170 194 0
173 196 0
174 197 0
170 192 0
174 198 0
174 198 0
173 196 0
172 195 0
174 197 0
176 198 0
171 194 0
169 194 0
173 197 0
172 196 0
174 197 0
174 198 0
176 198 0
170 195 0
173 196 0
173 197 0
175 198 0
168 193 0
171 195 0
172 196 0
171 194 0
172 195 0
174 197 0
173 197 0
174 197 0
174 196 0
172 196 0
172 196 0
173 197 0
173 195 0
172 195 0
173 197 0
174 198 0
171 195 0
174 198 0
177 199 0
172 196 0
174 198 0
177 199 0
177 199 0
174 197 0
173 197 0
174 197 0
172 196 0
171 194 0
172 196 0
173 196 0
174 197 0
170 194 0
176 199 0
173 196 0
174 198 0
173 197 0
173 196 0
171 195 0
170 194 0
173 195 0
173 195 0
175 198 0
176 198 0
175 198 0
170 194 0
175 198 0
172 195 0
172 196 0
171 195 0
170 194 0
171 195 0
174 197 0
172 196 0
171 195 0
174 196 0
173 197 0
176 199 0
172 195 0
172 196 0
174 196 0
169 193 0
171 194 0
175 198 0
167 191 0
171 195 0
172 196 0
173 197 0
172 195 0
172 197 0
169 193 0
174 198 0
171 196 0
172 195 0
171 196 0
171 195 0
171 195 0
174 196 0
173 196 0
172 196 0
173 197 0
176 198 0
171 195 0
173 197 0
175 198 0
172 196 0
170 193 0
173 196 0
171 195 0
173 196 0
176 199 0
169 192 0
174 197 0
170 193 0
170 193 0
174 196 0
174 197 0
168 191 0
174 198 0
175 198 0
172 195 0
170 192 0
172 196 0
173 196 0
170 193 0
172 195 0
172 195 0
171 194 0
173 197 0
170 194 0
174 196 0
171 195 0
174 197 0
176 197 0
175 197 0
176 199 0
175 198 0
171 193 0
169 191 0
174 196 0
173 194 0
175 197 0
177 199 0
172 195 0
172 195 0
172 193 0
172 194 0
176 197 0
174 197 0
171 195 0
172 194 0
173 196 0
170 195 0
169 191 0
176 197 0
176 198 0
175 197 0
173 196 0
174 196 0
175 197 0
179 200 0
172 194 0
166 189 0
174 197 0
173 196 0
172 194 0
170 193 0
173 195 0
166 188 0
175 198 0
175 197 0
171 194 0
169 192 0
175 197 0
173 195 0
176 198 0
174 196 0
170 193 0
172 195 0
171 194 0
173 196 0
172 193 0
170 193 0
164 186 0
167 189 0
174 197 0
169 192 0
172 195 0
173 196 0
168 191 0
172 196 0
171 193 0
174 196 0
166 188 0
165 188 0
177 199 0
169 192 0
166 189 0
165 188 0
167 190 0
169 191 0
174 197 0
170 192 0
167 189 0
161 185 0
156 178 0
161 184 0
162 185 0
168 191 0
169 193 0
173 196 0
165 189 0
169 193 0
168 192 0
171 195 0
165 189 0
168 191 0
163 187 0
165 187 0
167 190 0
173 196 0
168 192 0
165 189 0
170 193 0
174 196 0
169 193 0
169 192 0
166 189 0
166 189 0
170 194 0
167 191 0
168 190 0
171 194 0
167 190 0
169 193 0
171 194 0
166 189 0
174 198 0
169 194 0
171 194 0
174 198 0
166 190 0
164 187 0
164 187 0
171 194 0
172 195 0
169 193 0
170 194 0
167 191 0
166 188 0
164 188 0
166 189 0
169 192 0
168 192 0
169 192 0
172 196 0
164 188 0
168 192 0
170 194 0
162 185 0
167 191 0
169 192 0
165 190 0
167 190 0
166 189 0
170 193 0
171 193 0
171 193 0
169 193 0
170 193 0
171 195 0
174 197 0
167 191 0
166 189 0
167 189 0
173 197 0
172 195 0
172 195 0
170 195 0
174 197 0
167 190 0
167 190 0
173 196 0
168 193 0
164 188 0
171 194 0
170 194 0
173 196 0
169 192 0
175 197 0
170 194 0
169 192 0
170 193 0
172 195 0
169 192 0
171 195 0
169 194 0
170 195 0
171 194 0
168 190 0
169 192 0
171 195 0
166 189 0
167 190 0
171 194 0
170 194 0
164 187 0
170 194 0
173 197 0
172 196 0
169 193 0
172 195 0
167 190 0
169 191 0
172 195 0
169 193 0
171 194 0
171 194 0
167 190 0
164 188 0
172 197 0
173 196 0
170 193 0
171 193 0
174 198 0
174 197 0
173 195 0
169 192 0
170 194 0
172 195 0
171 193 0
169 191 0
169 192 0
172 196 0
169 192 0
169 192 0
170 192 0
170 193 0
169 193 0
170 194 0
166 189 0
170 193 0
174 196 0
173 195 0
172 195 0
171 195 0
174 196 0
171 194 0
170 195 0
173 197 0
169 193 0
173 195 0
172 195 0
171 195 0
170 194 0
170 194 0
171 195 0
171 195 0
175 197 0
173 197 0
169 193 0
168 191 0
171 195 0
172 196 0
171 194 0
174 198 0
175 198 0
175 196 0
170 194 0
171 195 0
174 197 0
174 196 0
173 197 0
172 196 0
168 192 0
175 198 0
169 193 0
172 196 0
174 197 0
173 196 0
172 195 0
173 196 0
171 194 0
171 195 0
172 197 0
171 194 0
171 194 0
172 195 0
173 197 0
170 194 0
173 197 0
171 195 0
173 196 0
176 198 0
171 194 0
171 194 0
174 195 0
172 195 0
172 196 0
172 195 0
173 195 0
172 196 0
172 195 0
174 197 0
171 194 0
174 197 0
174 196 0
172 196 0
169 193 0
173 196 0
175 198 0
170 194 0
171 195 0
170 195 0
175 198 0
176 199 0
175 197 0
175 195 0
172 196 0
172 194 0
172 196 0
172 196 0
174 198 0
171 195 0
173 196 0
174 196 0
172 196 0
176 199 0
173 197 0
174 197 0
173 196 0
175 198 0
175 197 0
175 197 0
174 197 0
173 196 0
